chaoyuefei/paper-gmrm-data/robot_logs/s2_dq_gmrm_xz_max_0.30_log_20260314_173603.csv
# time_ms,q_0,q_1,q_2,q_3,q_4,q_5,q_6,dq_0,dq_1,dq_2,dq_3,dq_4,dq_5,dq_6,tau_J_0,tau_J_1,tau_J_2,tau_J_3,tau_J_4,tau_J_5,tau_J_6,O_dP_EE_c_0,O_dP_EE_c_1,O_dP_EE_c_2,O_dP_EE_c_3,O_dP_EE_c_4,O_dP_EE_c_5
12425596.000000,-0.344677,0.544239,0.451054,-1.426820,-0.242506,1.916500,0.131705,0.001039,-0.000851,0.000749,-0.000058,0.000032,0.000058,0.000416,0.054365,-38.413960,5.972702,19.363890,0.847257,1.364242,-0.142960,0.000000,0.000000,0.000000,0.000000,0.000000,0.000000
12425597.000000,-0.344677,0.544243,0.451052,-1.426822,-0.242507,1.916497,0.131711,0.000693,-0.000010,-0.000057,-0.000688,-0.000182,0.000039,0.001736,0.054365,-38.437763,5.996506,19.391661,0.852750,1.364242,-0.182328,0.000000,0.000000,0.000000,0.000000,0.000000,0.000000
12425598.000000,-0.344682,0.544243,0.451050,-1.426817,-0.242507,1.916500,0.131703,-0.001301,-0.000007,-0.000595,0.001305,-0.000121,0.000263,-0.001759,0.129743,-38.437763,6.020309,19.316282,0.852750,1.357833,-0.103593,0.000000,0.000000,0.000000,0.000000,0.000000,0.000000
12425599.000000,-0.344678,0.544244,0.451048,-1.426819,-0.242506,1.916500,0.131709,0.000339,-0.000005,-0.000397,0.000313,0.000360,-0.000062,0.000760,0.078168,-38.437763,6.020309,19.340086,0.840848,1.364242,-0.155778,0.000000,0.000000,0.000000,0.000000,0.000000,0.000000
12425600.000000,-0.344699,0.544243,0.451052,-1.426819,-0.242503,1.916500,0.131707,-0.015965,0.011093,-0.007911,-0.003850,-0.001591,0.001180,-0.001426,-0.266986,-37.874409,5.405380,19.070311,0.763029,1.331283,-0.103593,0.000000,0.000000,0.000000,0.000000,0.000000,0.000000
12425601.000000,-0.344714,0.544234,0.451033,-1.426827,-0.242487,1.916495,0.131723,-0.019761,0.019657,-0.021922,-0.016043,0.001678,0.001498,0.008265,-1.750750,-35.720173,3.885910,18.130064,0.422452,1.312057,-0.097184,0.000000,0.000000,0.000000,0.000000,0.000000,0.000000
12425602.000000,-0.344718,0.544240,0.450958,-1.426839,-0.242478,1.916491,0.131752,-0.011267,0.017611,-0.039465,-0.019416,0.004558,-0.004547,0.016017,-3.928790,-32.514606,2.144272,16.277342,0.046171,1.324874,-0.103593,0.000000,0.000000,0.000000,0.000000,0.000000,0.000000
12425603.000000,-0.344730,0.544281,0.450872,-1.426862,-0.242524,1.916486,0.131784,-0.001733,0.018473,-0.051366,-0.018485,-0.010216,-0.004912,0.020540,-6.106829,-28.963886,0.128891,13.706541,0.105680,1.364242,-0.077042,0.000000,0.000000,0.000000,0.000000,0.000000,0.000000
12425604.000000,-0.344760,0.544352,0.450749,-1.426930,-0.242561,1.916491,0.131822,-0.002744,0.030428,-0.061596,-0.034230,-0.016702,0.003076,0.020519,-7.618365,-25.782124,-1.489761,11.405516,0.064481,1.435653,-0.083451,0.000000,0.000000,0.000000,0.000000,0.000000,0.000000
12425605.000000,-0.344790,0.544449,0.450633,-1.427014,-0.242620,1.916551,0.131858,-0.006589,0.041274,-0.069421,-0.042066,-0.027469,0.025998,0.024378,-8.534808,-23.116108,-2.739456,9.179869,0.064481,1.071273,-0.070634,0.000000,0.000000,0.000000,0.000000,0.000000,0.000000
12425606.000000,-0.344814,0.544573,0.450519,-1.427095,-0.242721,1.916689,0.131891,-0.005540,0.060391,-0.071468,-0.050892,-0.051358,0.063680,0.025827,-8.832355,-21.132465,-3.330582,7.005797,0.369352,0.232650,-0.017533,0.000000,0.000000,0.000000,0.000000,0.000000,0.000000
12425607.000000,-0.344828,0.544698,0.450424,-1.427194,-0.242809,1.916852,0.131933,-0.004976,0.072942,-0.074722,-0.058862,-0.059558,0.101473,0.028559,-8.633990,-19.636799,-3.378189,5.176878,0.440763,-0.515336,0.001693,0.000000,0.000000,0.000000,0.000000,0.000000,0.000000
12425608.000000,-0.344853,0.544807,0.450369,-1.427293,-0.242898,1.917002,0.131979,-0.014863,0.079236,-0.065322,-0.064042,-0.066979,0.124658,0.030751,-7.717547,-18.244282,-3.306778,3.621702,0.422452,-0.801896,0.009017,0.000000,0.000000,0.000000,0.000000,0.000000,0.000000
12425609.000000,-0.344864,0.544907,0.450329,-1.427406,-0.242981,1.917145,0.132035,-0.013277,0.083468,-0.054763,-0.079857,-0.069720,0.130139,0.039571,-6.777300,-16.923176,-2.914017,2.606077,0.320829,-0.632523,-0.064225,0.000000,0.000000,0.000000,0.000000,0.000000,0.000000
12425610.000000,-0.344856,0.544988,0.450296,-1.427528,-0.243059,1.917308,0.132084,-0.008669,0.084712,-0.050260,-0.089774,-0.074761,0.140043,0.041996,-5.960040,-15.526691,-2.299088,1.887999,0.166105,-0.352372,-0.017533,0.000000,0.000000,0.000000,0.000000,0.000000,0.000000
12425611.000000,-0.344859,0.545045,0.450276,-1.427672,-0.243125,1.917510,0.132148,-0.010350,0.072905,-0.045280,-0.109743,-0.065575,0.152784,0.052143,-4.944415,-13.912006,-1.684158,1.642027,-0.103060,-0.125321,-0.056901,0.000000,0.000000,0.000000,0.000000,0.000000,0.000000
12425612.000000,-0.344867,0.545082,0.450257,-1.427846,-0.243185,1.917745,0.132212,-0.012106,0.058523,-0.039889,-0.127420,-0.058611,0.175244,0.053944,-3.928790,-12.198139,-1.097000,1.864195,-0.389620,0.082504,-0.077042,0.000000,0.000000,0.000000,0.000000,0.000000,0.000000
12425613.000000,-0.344877,0.545110,0.450218,-1.428043,-0.243274,1.917999,0.132282,-0.016085,0.048092,-0.042998,-0.150991,-0.069183,0.194031,0.054903,-2.988543,-10.484272,-0.311478,2.336302,-0.389620,0.297652,-0.097184,0.000000,0.000000,0.000000,0.000000,0.000000,0.000000
12425614.000000,-0.344888,0.545148,0.450170,-1.428254,-0.243378,1.918273,0.132355,-0.013364,0.044923,-0.047660,-0.169740,-0.084539,0.213099,0.065377,-2.147479,-8.964802,0.474045,2.927428,-0.174471,0.532027,-0.116410,0.000000,0.000000,0.000000,0.000000,0.000000,0.000000
12425615.000000,-0.344927,0.545207,0.450125,-1.428471,-0.243487,1.918570,0.132415,-0.024364,0.048677,-0.049150,-0.189816,-0.085480,0.240129,0.064400,-1.060443,-7.865864,1.061203,3.399534,0.040677,0.635482,-0.011124,0.000000,0.000000,0.000000,0.000000,0.000000,0.000000
12425616.000000,-0.344976,0.545292,0.450082,-1.428699,-0.243595,1.918894,0.132501,-0.032103,0.059740,-0.049507,-0.202904,-0.096838,0.264725,0.074851,0.054365,-7.179523,1.481735,3.669310,0.189908,0.681258,-0.083451,0.000000,0.000000,0.000000,0.000000,0.000000,0.000000
12425617.000000,-0.345004,0.545393,0.450049,-1.428929,-0.243704,1.919251,0.132580,-0.031481,0.074385,-0.042214,-0.210457,-0.104694,0.292394,0.074532,0.748639,-6.838337,1.699936,3.843870,0.315336,0.674850,-0.070634,0.000000,0.000000,0.000000,0.000000,0.000000,0.000000
12425618.000000,-0.345027,0.545513,0.450014,-1.429167,-0.243792,1.919633,0.132656,-0.027497,0.089975,-0.039511,-0.217588,-0.096568,0.314270,0.071682,1.268354,-6.739155,1.874496,3.816099,0.195402,0.544845,0.009017,0.000000,0.000000,0.000000,0.000000,0.000000,0.000000
12425619.000000,-0.345049,0.545648,0.449991,-1.429399,-0.243873,1.920034,0.132747,-0.024881,0.108144,-0.033236,-0.223700,-0.090561,0.343243,0.076300,1.641279,-6.786762,1.846725,3.470946,-0.072848,0.427657,-0.070634,0.000000,0.000000,0.000000,0.000000,0.000000,0.000000
12425620.000000,-0.345073,0.545784,0.449962,-1.429646,-0.243959,1.920454,0.132830,-0.023587,0.121104,-0.033708,-0.232080,-0.088574,0.373680,0.080023,2.010236,-6.762959,1.874496,3.101988,-0.294406,0.427657,-0.050492,0.000000,0.000000,0.000000,0.000000,0.000000,0.000000
12425621.000000,-0.345084,0.545918,0.449928,-1.429911,-0.244065,1.920874,0.132913,-0.024215,0.122784,-0.032320,-0.238979,-0.089890,0.389673,0.077892,2.133222,-6.592365,1.945907,2.879820,-0.330111,0.524703,-0.023942,0.000000,0.000000,0.000000,0.000000,0.000000,0.000000
12425622.000000,-0.345097,0.546046,0.449884,-1.430188,-0.244180,1.921315,0.132999,-0.021922,0.124601,-0.033714,-0.248933,-0.095513,0.410810,0.083141,2.260175,-6.175800,2.116501,2.705260,-0.234896,0.609847,-0.050492,0.000000,0.000000,0.000000,0.000000,0.000000,0.000000
12425623.000000,-0.345119,0.546155,0.449844,-1.430488,-0.244298,1.921794,0.133084,-0.022292,0.117301,-0.035684,-0.259089,-0.105595,0.433581,0.080821,2.454572,-5.489460,2.191879,2.681456,-0.085665,0.583297,-0.050492,0.000000,0.000000,0.000000,0.000000,0.000000,0.000000
12425624.000000,-0.345139,0.546257,0.449799,-1.430797,-0.244421,1.922313,0.133171,-0.022122,0.108892,-0.037281,-0.281617,-0.114572,0.458090,0.085498,2.605329,-4.660297,2.267257,2.780638,0.112089,0.446883,-0.064225,0.000000,0.000000,0.000000,0.000000,0.000000,0.000000
12425625.000000,-0.345154,0.546367,0.449757,-1.431125,-0.244541,1.922863,0.133251,-0.019511,0.108245,-0.036769,-0.292289,-0.117701,0.489769,0.080779,2.652936,-3.874775,2.267257,2.828245,0.225614,0.291244,-0.004716,0.000000,0.000000,0.000000,0.000000,0.000000,0.000000
12425626.000000,-0.345164,0.546503,0.449725,-1.431461,-0.244655,1.923403,0.133336,-0.017058,0.114370,-0.036234,-0.302897,-0.119968,0.501472,0.079719,2.652936,-3.359028,2.116501,2.852049,0.213712,0.336105,0.001693,0.000000,0.000000,0.000000,0.000000,0.000000,0.000000
12425627.000000,-0.345164,0.546661,0.449691,-1.431784,-0.244757,1.923952,0.133424,-0.012879,0.123391,-0.034897,-0.309826,-0.113290,0.510665,0.085183,2.553754,-3.335224,2.045089,2.681456,0.093778,0.597030,-0.044083,0.000000,0.000000,0.000000,0.000000,0.000000,0.000000
12425628.000000,-0.345165,0.546833,0.449664,-1.432108,-0.244859,1.924522,0.133510,-0.008853,0.130683,-0.030750,-0.306806,-0.107518,0.522962,0.082888,2.529951,-3.973957,1.969711,2.606077,-0.055453,0.850631,-0.044083,0.000000,0.000000,0.000000,0.000000,0.000000,0.000000
12425629.000000,-0.345162,0.547011,0.449640,-1.432421,-0.244953,1.925154,0.133596,0.000377,0.143667,-0.027133,-0.312989,-0.103228,0.558769,0.082221,2.529951,-5.172077,1.997482,2.657652,-0.222994,0.843307,-0.077042,0.000000,0.000000,0.000000,0.000000,0.000000,0.000000
12425630.000000,-0.345160,0.547189,0.449615,-1.432759,-0.245046,1.925828,0.133672,-0.001400,0.157976,-0.028145,-0.320596,-0.100638,0.589241,0.083126,2.605329,-6.663776,2.191879,3.050413,-0.384127,0.583297,-0.023942,0.000000,0.000000,0.000000,0.000000,0.000000,0.000000
12425631.000000,-0.345158,0.547365,0.449596,-1.433097,-0.245165,1.926522,0.133759,-0.000058,0.167570,-0.029147,-0.321290,-0.108522,0.619589,0.081947,2.704511,-8.207050,2.414047,3.447142,-0.282504,0.239059,-0.044083,0.000000,0.000000,0.000000,0.000000,0.000000,0.000000
12425632.000000,-0.345148,0.547547,0.449568,-1.433448,-0.245293,1.927216,0.133841,0.003674,0.177389,-0.034928,-0.334379,-0.117340,0.628937,0.080186,2.704511,-9.750324,2.731430,3.943053,-0.085665,0.044051,-0.037675,0.000000,0.000000,0.000000,0.000000,0.000000,0.000000
12425633.000000,-0.345153,0.547717,0.449539,-1.433801,-0.245429,1.927888,0.133917,-0.001110,0.175456,-0.037778,-0.340906,-0.120159,0.644094,0.081849,2.879072,-10.972248,3.001205,4.165221,0.159696,0.069686,0.015426,0.000000,0.000000,0.000000,0.000000,0.000000,0.000000
12425634.000000,-0.345149,0.547892,0.449517,-1.434166,-0.245559,1.928555,0.134002,-0.000347,0.174403,-0.035192,-0.344895,-0.123221,0.649137,0.086794,2.879072,-12.221943,3.076584,4.486571,0.315336,0.147506,-0.017533,0.000000,0.000000,0.000000,0.000000,0.000000,0.000000
12425635.000000,-0.345134,0.548060,0.449485,-1.434545,-0.245677,1.929240,0.134083,0.003331,0.172065,-0.035691,-0.348187,-0.121815,0.661027,0.083822,2.605329,-13.566853,3.247177,5.129271,0.374845,0.264693,-0.011124,0.000000,0.000000,0.000000,0.000000,0.000000,0.000000
12425636.000000,-0.345116,0.548226,0.449461,-1.434921,-0.245785,1.929922,0.134164,0.006949,0.167646,-0.032077,-0.352137,-0.114341,0.671133,0.082859,2.133222,-15.086323,3.247177,6.041747,0.261320,0.362655,-0.037675,0.000000,0.000000,0.000000,0.000000,0.000000,0.000000
12425637.000000,-0.345117,0.548392,0.449437,-1.435302,-0.245879,1.930617,0.134243,0.004081,0.168106,-0.028614,-0.361157,-0.106367,0.673845,0.084437,1.835676,-16.776386,3.199569,7.378722,0.058073,0.446883,-0.017533,0.000000,0.000000,0.000000,0.000000,0.000000,0.000000
12425638.000000,-0.345123,0.548566,0.449413,-1.435665,-0.245984,1.931301,0.134324,0.000665,0.170799,-0.026187,-0.360215,-0.105004,0.678620,0.082535,1.613508,-18.609272,3.147995,8.588743,-0.037142,0.654708,-0.023942,0.000000,0.000000,0.000000,0.000000,0.000000,0.000000
12425639.000000,-0.345129,0.548740,0.449370,-1.436042,-0.246099,1.931961,0.134405,0.000397,0.174995,-0.033043,-0.364357,-0.109681,0.671832,0.080497,1.415143,-20.422321,3.322555,10.048704,0.015958,1.012679,-0.017533,0.000000,0.000000,0.000000,0.000000,0.000000,0.000000
12425640.000000,-0.345133,0.548935,0.449332,-1.436410,-0.246220,1.932625,0.134485,-0.002063,0.183152,-0.033448,-0.370477,-0.111007,0.661489,0.078879,1.192975,-22.330585,3.445541,11.381712,0.147794,1.357833,-0.004716,0.000000,0.000000,0.000000,0.000000,0.000000,0.000000
12425641.000000,-0.345146,0.549133,0.449290,-1.436783,-0.246338,1.933292,0.134571,-0.007440,0.190953,-0.036815,-0.370635,-0.109559,0.655922,0.078515,1.121564,-24.167439,3.564560,12.567930,0.231107,1.402694,-0.017533,0.000000,0.000000,0.000000,0.000000,0.000000,0.000000
12425642.000000,-0.345157,0.549345,0.449246,-1.437160,-0.246457,1.933980,0.134654,-0.007692,0.198685,-0.038837,-0.379003,-0.111950,0.660860,0.076677,1.022382,-25.952717,3.663742,13.706541,0.279630,1.337692,0.009017,0.000000,0.000000,0.000000,0.000000,0.000000,0.000000
12425643.000000,-0.345156,0.549575,0.449192,-1.437534,-0.246579,1.934661,0.134740,-0.004476,0.211124,-0.045195,-0.378600,-0.118122,0.671570,0.077466,0.796247,-27.718159,3.838302,14.472227,0.320829,1.194869,-0.017533,0.000000,0.000000,0.000000,0.000000,0.000000,0.000000
12425644.000000,-0.345152,0.549813,0.449137,-1.437920,-0.246701,1.935310,0.134820,0.001386,0.220266,-0.050882,-0.376650,-0.125971,0.663486,0.081055,0.550275,-29.332844,4.056503,15.138731,0.320829,1.207687,-0.004716,0.000000,0.000000,0.000000,0.000000,0.000000,0.000000
12425645.000000,-0.345155,0.550056,0.449078,-1.438291,-0.246823,1.935936,0.134899,-0.002843,0.226353,-0.051212,-0.378981,-0.122933,0.655888,0.078614,0.403486,-30.753132,4.254868,15.483885,0.332731,1.370651,0.021835,0.000000,0.000000,0.000000,0.000000,0.000000,0.000000
12425646.000000,-0.345164,0.550302,0.449022,-1.438685,-0.246940,1.936561,0.134985,-0.008830,0.231570,-0.049752,-0.380073,-0.120092,0.636111,0.079404,0.375715,-32.022663,4.377853,15.805235,0.332731,1.513473,-0.017533,0.000000,0.000000,0.000000,0.000000,0.000000,0.000000
12425647.000000,-0.345170,0.550533,0.448946,-1.439093,-0.247065,1.937194,0.135064,-0.009739,0.226187,-0.056455,-0.395824,-0.123317,0.637593,0.077545,0.328107,-32.879597,4.695236,16.201963,0.362943,1.532699,0.009017,0.000000,0.000000,0.000000,0.000000,0.000000,0.000000
12425648.000000,-0.345183,0.550757,0.448876,-1.439510,-0.247189,1.937833,0.135148,-0.012141,0.222063,-0.058267,-0.401845,-0.120613,0.641752,0.082741,0.375715,-33.518330,4.893600,16.670103,0.362943,1.454879,-0.017533,0.000000,0.000000,0.000000,0.000000,0.000000,0.000000
12425649.000000,-0.345197,0.550984,0.448803,-1.439933,-0.247312,1.938443,0.135233,-0.013607,0.221388,-0.062244,-0.408585,-0.118135,0.626392,0.080738,0.403486,-34.057880,5.064194,17.114439,0.351041,1.448470,-0.017533,0.000000,0.000000,0.000000,0.000000,0.000000,0.000000
12425650.000000,-0.345223,0.551217,0.448722,-1.440359,-0.247441,1.939053,0.135305,-0.018369,0.224784,-0.066427,-0.412010,-0.118327,0.619566,0.077005,0.601850,-34.498249,5.286362,17.463560,0.386747,1.584884,0.048385,0.000000,0.000000,0.000000,0.000000,0.000000,0.000000
12425651.000000,-0.345244,0.551456,0.448638,-1.440792,-0.247570,1.939640,0.135390,-0.016923,0.228838,-0.073213,-0.414925,-0.122154,0.614265,0.082957,0.748639,-35.033833,5.528366,17.808714,0.405057,1.767074,0.009017,0.000000,0.000000,0.000000,0.000000,0.000000,0.000000
12425652.000000,-0.345256,0.551696,0.448557,-1.441218,-0.247695,1.940239,0.135470,-0.016231,0.230789,-0.073489,-0.412142,-0.123145,0.608012,0.080884,0.772443,-35.525776,5.702927,17.931700,0.369352,1.884261,0.015426,0.000000,0.000000,0.000000,0.000000,0.000000,0.000000
12425653.000000,-0.345268,0.551937,0.448472,-1.441652,-0.247831,1.940847,0.135554,-0.014414,0.236673,-0.074648,-0.419701,-0.125343,0.609009,0.085073,0.748639,-35.942341,5.921127,18.276854,0.369352,1.844894,-0.004716,0.000000,0.000000,0.000000,0.000000,0.000000,0.000000
12425654.000000,-0.345276,0.552186,0.448383,-1.442095,-0.247962,1.941452,0.135633,-0.015101,0.239001,-0.078348,-0.422547,-0.125702,0.610388,0.081559,0.673261,-36.331135,6.119492,18.574400,0.339139,1.773483,0.021835,0.000000,0.000000,0.000000,0.000000,0.000000,0.000000
12425655.000000,-0.345290,0.552444,0.448295,-1.442523,-0.248092,1.942057,0.135717,-0.015982,0.239105,-0.079926,-0.422049,-0.123365,0.608863,0.085372,0.724836,-36.799274,6.266281,18.721189,0.356534,1.747848,0.021835,0.000000,0.000000,0.000000,0.000000,0.000000,0.000000
12425656.000000,-0.345304,0.552702,0.448200,-1.442961,-0.248226,1.942652,0.135804,-0.016595,0.243950,-0.082270,-0.421719,-0.127135,0.599366,0.084143,0.772443,-37.311054,6.460678,18.848143,0.398649,1.844894,-0.011124,0.000000,0.000000,0.000000,0.000000,0.000000,0.000000
12425657.000000,-0.345313,0.552961,0.448102,-1.443400,-0.248364,1.943232,0.135887,-0.015393,0.244320,-0.087862,-0.428061,-0.131164,0.597380,0.080178,0.772443,-37.703815,6.682846,18.947325,0.476469,1.930038,0.034652,0.000000,0.000000,0.000000,0.000000,0.000000,0.000000
12425658.000000,-0.345325,0.553217,0.448009,-1.443850,-0.248499,1.943835,0.135976,-0.014553,0.245385,-0.086840,-0.436113,-0.132081,0.592789,0.085618,0.772443,-37.949787,6.829636,19.169493,0.500272,1.949264,-0.011124,0.000000,0.000000,0.000000,0.000000,0.000000,0.000000
12425659.000000,-0.345336,0.553461,0.447917,-1.444306,-0.248625,1.944434,0.136058,-0.013413,0.247555,-0.088420,-0.441107,-0.130324,0.590787,0.081913,0.748639,-38.096577,6.928818,19.391661,0.464567,1.909896,0.015426,0.000000,0.000000,0.000000,0.000000,0.000000,0.000000
12425660.000000,-0.345344,0.553711,0.447829,-1.444763,-0.248749,1.945047,0.136142,-0.010061,0.248007,-0.087494,-0.454107,-0.129479,0.595704,0.086227,0.748639,-38.191792,6.928818,19.637632,0.434354,1.865035,0.001693,0.000000,0.000000,0.000000,0.000000,0.000000,0.000000
12425661.000000,-0.345350,0.553960,0.447738,-1.445208,-0.248881,1.945647,0.136228,-0.006340,0.248274,-0.087595,-0.452984,-0.130440,0.600845,0.083774,0.697065,-38.243366,6.952621,19.613829,0.440763,1.909896,-0.004716,0.000000,0.000000,0.000000,0.000000,0.000000,0.000000
12425662.000000,-0.345360,0.554215,0.447655,-1.445655,-0.249011,1.946243,0.136310,-0.004299,0.246326,-0.083657,-0.446244,-0.129692,0.591962,0.080476,0.673261,-38.338581,6.928818,19.613829,0.410551,2.014266,0.034652,0.000000,0.000000,0.000000,0.000000,0.000000,0.000000
12425663.000000,-0.345367,0.554467,0.447572,-1.446107,-0.249143,1.946855,0.136399,-0.005315,0.243975,-0.083839,-0.447792,-0.130683,0.598192,0.086298,0.625654,-38.390156,6.905014,19.713011,0.416959,2.039901,-0.023942,0.000000,0.000000,0.000000,0.000000,0.000000,0.000000
12425664.000000,-0.345368,0.554721,0.447498,-1.446555,-0.249273,1.947462,0.136479,-0.004403,0.246448,-0.078816,-0.443621,-0.126430,0.607598,0.086907,0.502668,-38.461567,6.782028,19.760618,0.422452,1.981307,0.021835,0.000000,0.000000,0.000000,0.000000,0.000000,0.000000
12425665.000000,-0.345367,0.554971,0.447415,-1.447004,-0.249398,1.948073,0.136562,-0.000128,0.242112,-0.078169,-0.449746,-0.127878,0.608235,0.087650,0.351911,-38.437763,6.782028,19.713011,0.440763,1.942855,0.054794,0.000000,0.000000,0.000000,0.000000,0.000000,0.000000
12425666.000000,-0.345362,0.555217,0.447333,-1.447439,-0.249523,1.948688,0.136650,0.002809,0.243947,-0.077007,-0.443195,-0.124382,0.609928,0.090782,0.205121,-38.437763,6.758224,19.661436,0.446256,1.968490,0.001693,0.000000,0.000000,0.000000,0.000000,0.000000,0.000000
12425667.000000,-0.345357,0.555476,0.447261,-1.447883,-0.249646,1.949289,0.136736,0.001840,0.250596,-0.077085,-0.437332,-0.125532,0.612618,0.087036,0.054365,-38.513142,6.635239,19.590025,0.428861,1.974899,-0.004716,0.000000,0.000000,0.000000,0.000000,0.000000,0.000000
12425668.000000,-0.345348,0.555738,0.447190,-1.448312,-0.249765,1.949904,0.136817,0.005301,0.256507,-0.074709,-0.434866,-0.126650,0.608213,0.083335,-0.144000,-38.536945,6.536057,19.415464,0.410551,1.981307,0.015426,0.000000,0.000000,0.000000,0.000000,0.000000,0.000000
12425669.000000,-0.345335,0.555996,0.447119,-1.448752,-0.249889,1.950511,0.136902,0.007749,0.255093,-0.075650,-0.434194,-0.128222,0.618943,0.085172,-0.342364,-38.707539,6.413071,19.268675,0.416959,1.936446,0.041976,0.000000,0.000000,0.000000,0.000000,0.000000,0.000000
12425670.000000,-0.345322,0.556257,0.447052,-1.449188,-0.250010,1.951138,0.136994,0.009488,0.255574,-0.073276,-0.431565,-0.123256,0.620277,0.084401,-0.540728,-38.830524,6.290085,19.169493,0.381254,1.923629,0.001693,0.000000,0.000000,0.000000,0.000000,0.000000,0.000000
12425671.000000,-0.345311,0.556513,0.446993,-1.449611,-0.250133,1.951770,0.137079,0.014591,0.260558,-0.065317,-0.428299,-0.125398,0.626124,0.086352,-0.635943,-38.901936,6.044113,19.018736,0.374845,1.877853,0.015426,0.000000,0.000000,0.000000,0.000000,0.000000,0.000000
12425672.000000,-0.345291,0.556771,0.446928,-1.450041,-0.250259,1.952398,0.137166,0.017312,0.256631,-0.063889,-0.423680,-0.122654,0.622554,0.089075,-0.810504,-39.024921,5.972702,18.947325,0.386747,1.819259,0.009017,0.000000,0.000000,0.000000,0.000000,0.000000,0.000000
12425673.000000,-0.345282,0.557027,0.446868,-1.450459,-0.250388,1.953025,0.137253,0.015542,0.254018,-0.061539,-0.425525,-0.125382,0.622708,0.090913,-0.810504,-39.024921,5.849716,18.895750,0.393156,1.779891,-0.004716,0.000000,0.000000,0.000000,0.000000,0.000000,0.000000
12425674.000000,-0.345265,0.557284,0.446808,-1.450881,-0.250511,1.953655,0.137333,0.015936,0.256583,-0.060335,-0.426383,-0.122623,0.627204,0.090223,-0.885882,-39.048725,5.750534,18.871946,0.398649,1.779891,0.054794,0.000000,0.000000,0.000000,0.000000,0.000000,0.000000
12425676.000000,-0.345223,0.557815,0.446692,-1.451689,-0.250752,1.954900,0.137507,0.020875,0.265484,-0.058309,-0.413268,-0.120584,0.620003,0.092333,-1.131854,-39.366108,5.556137,18.526793,0.332731,1.760665,0.041976,0.000000,0.000000,0.000000,0.000000,0.000000,0.000000
12425677.000000,-0.345206,0.558079,0.446643,-1.452088,-0.250867,1.955511,0.137591,0.021019,0.267205,-0.055680,-0.402297,-0.121329,0.615362,0.087442,-1.254840,-39.489094,5.381577,18.328428,0.273221,1.735030,0.061202,0.000000,0.000000,0.000000,0.000000,0.000000,0.000000
12425678.000000,-0.345186,0.558349,0.446597,-1.452489,-0.250986,1.956143,0.137685,0.022062,0.265070,-0.050016,-0.412605,-0.119283,0.615165,0.091522,-1.405596,-39.635883,5.163376,18.253050,0.261320,1.670028,-0.004716,0.000000,0.000000,0.000000,0.000000,0.000000,0.000000
12425679.000000,-0.345169,0.558609,0.446545,-1.452885,-0.251106,1.956775,0.137768,0.020042,0.266166,-0.051847,-0.406514,-0.118285,0.618198,0.086548,-1.453204,-39.735065,5.064194,18.078489,0.267728,1.617843,0.028243,0.000000,0.000000,0.000000,0.000000,0.000000,0.000000
12425680.000000,-0.345152,0.558881,0.446495,-1.453288,-0.251236,1.957393,0.137855,0.018194,0.270124,-0.051098,-0.405015,-0.124018,0.614398,0.088591,-1.480975,-39.810444,5.012619,18.030882,0.327238,1.617843,0.021835,0.000000,0.000000,0.000000,0.000000,0.000000,0.000000
12425681.000000,-0.345138,0.559153,0.446439,-1.453682,-0.251362,1.958008,0.137933,0.016286,0.265687,-0.048364,-0.400990,-0.126620,0.613046,0.083756,-1.480975,-39.858051,5.012619,18.007078,0.344633,1.676437,0.061202,0.000000,0.000000,0.000000,0.000000,0.000000,0.000000
12425682.000000,-0.345125,0.559421,0.446389,-1.454076,-0.251494,1.958628,0.138028,0.015062,0.267493,-0.047631,-0.397547,-0.123208,0.625756,0.084057,-1.480975,-39.981037,4.941208,17.983274,0.351041,1.670028,0.001693,0.000000,0.000000,0.000000,0.000000,0.000000,0.000000
12425683.000000,-0.345116,0.559692,0.446338,-1.454467,-0.251616,1.959261,0.138114,0.013887,0.266464,-0.047673,-0.401380,-0.124377,0.627726,0.081683,-1.453204,-40.028645,4.893600,18.030882,0.344633,1.605026,0.009017,0.000000,0.000000,0.000000,0.000000,0.000000,0.000000
12425684.000000,-0.345109,0.559962,0.446283,-1.454848,-0.251738,1.959892,0.138203,0.008666,0.267265,-0.048666,-0.398032,-0.119610,0.623383,0.079645,-1.381793,-40.104023,4.893600,18.030882,0.291532,1.539108,0.021835,0.000000,0.000000,0.000000,0.000000,0.000000,0.000000
12425685.000000,-0.345109,0.560233,0.446236,-1.455240,-0.251861,1.960495,0.138290,0.006570,0.272072,-0.047069,-0.396358,-0.121916,0.614447,0.082698,-1.231036,-40.223042,4.794418,18.106260,0.267728,1.605026,0.021835,0.000000,0.000000,0.000000,0.000000,0.000000,0.000000
12425686.000000,-0.345104,0.560516,0.446184,-1.455621,-0.251983,1.961109,0.138376,0.002959,0.273180,-0.051414,-0.392265,-0.123725,0.610917,0.084210,-1.131854,-40.397602,4.794418,18.177671,0.243009,1.708480,0.061202,0.000000,0.000000,0.000000,0.000000,0.000000,0.000000
12425687.000000,-0.345103,0.560797,0.446127,-1.456006,-0.252108,1.961736,0.138469,0.000327,0.270695,-0.052499,-0.388821,-0.126025,0.628333,0.088780,-1.032672,-40.568195,4.842026,18.229246,0.243009,1.708480,0.009017,0.000000,0.000000,0.000000,0.000000,0.000000,0.000000
12425688.000000,-0.345100,0.561077,0.446066,-1.456402,-0.252231,1.962349,0.138551,0.001261,0.268628,-0.054380,-0.393253,-0.122512,0.622161,0.088432,-0.909686,-40.762592,4.941208,18.427610,0.231107,1.702071,0.054794,0.000000,0.000000,0.000000,0.000000,0.000000,0.000000
12425689.000000,-0.345099,0.561361,0.446001,-1.456792,-0.252356,1.962964,0.138635,0.001788,0.277127,-0.059095,-0.393863,-0.124151,0.620857,0.089220,-0.786700,-40.984760,5.064194,18.526793,0.207303,1.708480,0.074935,0.000000,0.000000,0.000000,0.000000,0.000000,0.000000
12425690.000000,-0.345100,0.561642,0.445928,-1.457183,-0.252482,1.963576,0.138733,0.001592,0.277256,-0.061144,-0.389238,-0.125960,0.619378,0.093441,-0.635943,-41.179157,5.258591,18.598204,0.207303,1.760665,-0.004716,0.000000,0.000000,0.000000,0.000000,0.000000,0.000000
12425691.000000,-0.345100,0.561924,0.445860,-1.457569,-0.252616,1.964198,0.138812,0.001927,0.276521,-0.063343,-0.388479,-0.125047,0.626169,0.091062,-0.489153,-41.373554,5.357773,18.598204,0.261320,1.721298,0.074935,0.000000,0.000000,0.000000,0.000000,0.000000,0.000000
12425692.000000,-0.345103,0.562199,0.445782,-1.457965,-0.252754,1.964823,0.138903,0.002278,0.276433,-0.067837,-0.390694,-0.127568,0.620666,0.089023,-0.342364,-41.401325,5.579941,18.697386,0.285123,1.695663,0.028243,0.000000,0.000000,0.000000,0.000000,0.000000,0.000000
12425693.000000,-0.345114,0.562486,0.445710,-1.458367,-0.252887,1.965434,0.138994,-0.000239,0.277652,-0.068112,-0.387295,-0.129163,0.622952,0.086012,-0.092425,-41.496540,5.679123,18.748960,0.297025,1.649886,0.015426,0.000000,0.000000,0.000000,0.000000,0.000000,0.000000
12425694.000000,-0.345116,0.562767,0.445633,-1.458762,-0.253021,1.966066,0.139077,-0.002043,0.276283,-0.072506,-0.385330,-0.131120,0.618800,0.086644,0.030561,-41.619526,5.825912,18.820372,0.332731,1.584884,0.054794,0.000000,0.000000,0.000000,0.000000,0.000000,0.000000
12425695.000000,-0.345120,0.563052,0.445547,-1.459160,-0.253152,1.966662,0.139165,-0.003494,0.275802,-0.077704,-0.385655,-0.131394,0.614885,0.090031,0.153547,-41.766315,6.067917,18.871946,0.344633,1.689254,0.015426,0.000000,0.000000,0.000000,0.000000,0.000000,0.000000
12425696.000000,-0.345131,0.563341,0.445460,-1.459554,-0.253282,1.967268,0.139245,-0.006411,0.277526,-0.080242,-0.393464,-0.130334,0.604472,0.089642,0.351911,-41.889301,6.242477,18.871946,0.315336,1.767074,0.067611,0.000000,0.000000,0.000000,0.000000,0.000000,0.000000
12425697.000000,-0.345142,0.563619,0.445371,-1.459947,-0.253414,1.967884,0.139341,-0.007381,0.278959,-0.082564,-0.395404,-0.129147,0.605029,0.093125,0.502668,-41.988483,6.436874,18.871946,0.273221,1.747848,0.009017,0.000000,0.000000,0.000000,0.000000,0.000000,0.000000
12425698.000000,-0.345150,0.563898,0.445284,-1.460352,-0.253541,1.968489,0.139431,-0.012527,0.275917,-0.080117,-0.392990,-0.127253,0.607264,0.093670,0.574079,-41.913105,6.583664,19.018736,0.201810,1.800033,0.009017,0.000000,0.000000,0.000000,0.000000,0.000000,0.000000
12425699.000000,-0.345163,0.564184,0.445193,-1.460753,-0.253672,1.969101,0.139517,-0.011513,0.272614,-0.085155,-0.397645,-0.128460,0.608825,0.093128,0.697065,-41.913105,6.758224,19.141722,0.195402,1.825668,0.028243,0.000000,0.000000,0.000000,0.000000,0.000000,0.000000
12425700.000000,-0.345177,0.564465,0.445100,-1.461151,-0.253813,1.969706,0.139606,-0.012755,0.276580,-0.089538,-0.395313,-0.131072,0.618511,0.093568,0.772443,-42.036091,6.952621,19.169493,0.243009,1.825668,0.034652,0.000000,0.000000,0.000000,0.000000,0.000000,0.000000
12425701.000000,-0.345195,0.564742,0.445011,-1.461559,-0.253954,1.970314,0.139693,-0.014659,0.274648,-0.086809,-0.406846,-0.137089,0.617874,0.087896,0.871625,-41.988483,7.028000,19.268675,0.267728,1.877853,0.067611,0.000000,0.000000,0.000000,0.000000,0.000000,0.000000
12425702.000000,-0.345210,0.565019,0.444916,-1.461958,-0.254099,1.970933,0.139788,-0.016222,0.279872,-0.085342,-0.402811,-0.142399,0.613261,0.095852,0.970807,-41.960712,7.127182,19.316282,0.320829,1.916305,0.001693,0.000000,0.000000,0.000000,0.000000,0.000000,0.000000
12425703.000000,-0.345213,0.565299,0.444817,-1.462358,-0.254239,1.971549,0.139869,-0.010445,0.280210,-0.089323,-0.402639,-0.141030,0.618823,0.088564,0.923200,-42.012287,7.297775,19.363890,0.362943,1.838485,0.054794,0.000000,0.000000,0.000000,0.000000,0.000000,0.000000
12425704.000000,-0.345220,0.565581,0.444715,-1.462756,-0.254373,1.972169,0.139957,-0.010336,0.281912,-0.092811,-0.401483,-0.138061,0.615041,0.090367,0.895429,-41.988483,7.492172,19.490843,0.351041,1.793624,0.034652,0.000000,0.000000,0.000000,0.000000,0.000000,0.000000
12425705.000000,-0.345231,0.565857,0.444624,-1.463158,-0.254507,1.972780,0.140046,-0.008804,0.276673,-0.093811,-0.402246,-0.139929,0.625951,0.092087,0.947004,-41.960712,7.492172,19.538450,0.320829,1.819259,0.015426,0.000000,0.000000,0.000000,0.000000,0.000000,0.000000
12425706.000000,-0.345236,0.566129,0.444524,-1.463559,-0.254639,1.973388,0.140132,-0.005193,0.275501,-0.094135,-0.395313,-0.136900,0.619016,0.086901,0.895429,-41.936909,7.591354,19.562254,0.291532,1.838485,0.041976,0.000000,0.000000,0.000000,0.000000,0.000000,0.000000
12425707.000000,-0.345240,0.566401,0.444425,-1.463956,-0.254774,1.973989,0.140223,-0.002746,0.279126,-0.096746,-0.396180,-0.135779,0.611961,0.085394,0.847822,-41.841694,7.666733,19.685240,0.291532,1.890670,0.009017,0.000000,0.000000,0.000000,0.000000,0.000000,0.000000
12425708.000000,-0.345244,0.566666,0.444332,-1.464360,-0.254912,1.974578,0.140304,-0.002129,0.272485,-0.097810,-0.396219,-0.140686,0.603019,0.080846,0.847822,-41.718708,7.690536,19.835997,0.327238,1.942855,0.061202,0.000000,0.000000,0.000000,0.000000,0.000000,0.000000
12425709.000000,-0.345251,0.566939,0.444242,-1.464761,-0.255052,1.975178,0.140391,-0.004606,0.273141,-0.098160,-0.406102,-0.143047,0.602669,0.084702,0.824018,-41.694904,7.690536,20.034361,0.320829,1.949264,0.054794,0.000000,0.000000,0.000000,0.000000,0.000000,0.000000
12425710.000000,-0.345252,0.567207,0.444151,-1.465165,-0.255197,1.975783,0.140484,-0.002325,0.271558,-0.094102,-0.403558,-0.145876,0.597416,0.089527,0.772443,-41.571918,7.638962,20.157347,0.344633,1.962081,-0.004716,0.000000,0.000000,0.000000,0.000000,0.000000,0.000000
12425711.000000,-0.345252,0.567483,0.444056,-1.465580,-0.255348,1.976370,0.140566,-0.003867,0.269396,-0.093206,-0.405232,-0.149349,0.598713,0.087779,0.724836,-41.548115,7.666733,20.427122,0.405057,1.981307,0.067611,0.000000,0.000000,0.000000,0.000000,0.000000,0.000000
12425712.000000,-0.345245,0.567757,0.443967,-1.465981,-0.255484,1.976966,0.140661,-0.000218,0.279296,-0.090487,-0.402012,-0.149368,0.598234,0.086322,0.601850,-41.520344,7.615158,20.526304,0.398649,2.007858,0.028243,0.000000,0.000000,0.000000,0.000000,0.000000,0.000000
12425713.000000,-0.345244,0.568033,0.443882,-1.466387,-0.255619,1.977542,0.140751,0.000674,0.278530,-0.091413,-0.401015,-0.148147,0.592495,0.087094,0.550275,-41.496540,7.567551,20.700865,0.362943,2.072860,0.061202,0.000000,0.000000,0.000000,0.000000,0.000000,0.000000
12425714.000000,-0.345237,0.568302,0.443794,-1.466792,-0.255758,1.978139,0.140843,0.001922,0.272186,-0.089468,-0.408607,-0.148326,0.593720,0.089202,0.474897,-41.401325,7.515976,20.847654,0.369352,2.125045,0.061202,0.000000,0.000000,0.000000,0.000000,0.000000,0.000000
12425715.000000,-0.345226,0.568571,0.443709,-1.467195,-0.255894,1.978741,0.140933,0.010198,0.272427,-0.090107,-0.406092,-0.143308,0.592054,0.086612,0.351911,-41.349751,7.420761,20.998411,0.344633,2.118636,0.048385,0.000000,0.000000,0.000000,0.000000,0.000000,0.000000
12425716.000000,-0.345214,0.568843,0.443630,-1.467605,-0.256031,1.979331,0.141024,0.012617,0.274103,-0.087652,-0.401023,-0.140774,0.590655,0.089647,0.252729,-41.202961,7.321579,21.192808,0.351041,2.112228,0.015426,0.000000,0.000000,0.000000,0.000000,0.000000,0.000000
12425717.000000,-0.345209,0.569117,0.443552,-1.468008,-0.256171,1.979921,0.141114,0.011108,0.270787,-0.085136,-0.399245,-0.144240,0.587618,0.091021,0.304304,-41.155354,7.198593,21.442747,0.374845,2.112228,0.009017,0.000000,0.000000,0.000000,0.000000,0.000000,0.000000
12425718.000000,-0.345191,0.569385,0.443475,-1.468416,-0.256313,1.980514,0.141196,0.014175,0.268753,-0.084151,-0.398998,-0.140972,0.602072,0.090630,0.177350,-41.131550,7.099411,21.589537,0.374845,2.112228,0.054794,0.000000,0.000000,0.000000,0.000000,0.000000,0.000000
12425719.000000,-0.345179,0.569657,0.443402,-1.468822,-0.256465,1.981105,0.141293,0.011333,0.269397,-0.083449,-0.396622,-0.140445,0.592448,0.092970,0.129743,-41.079975,7.004196,21.787901,0.422452,2.137862,0.021835,0.000000,0.000000,0.000000,0.000000,0.000000,0.000000
12425720.000000,-0.345162,0.569922,0.443324,-1.469228,-0.256614,1.981694,0.141379,0.013582,0.268943,-0.080654,-0.395027,-0.144325,0.586797,0.096244,0.030561,-41.032368,6.952621,22.010069,0.458158,2.215682,0.048385,0.000000,0.000000,0.000000,0.000000,0.000000,0.000000
12425721.000000,-0.345147,0.570185,0.443260,-1.469624,-0.256751,1.982271,0.141466,0.014980,0.266070,-0.075879,-0.388719,-0.139574,0.585151,0.095925,-0.044818,-40.956989,6.782028,22.061644,0.422452,2.261459,0.041976,0.000000,0.000000,0.000000,0.000000,0.000000,0.000000
12425722.000000,-0.345134,0.570453,0.443192,-1.470032,-0.256890,1.982875,0.141557,0.014810,0.263496,-0.070363,-0.394868,-0.137735,0.584334,0.096339,-0.068621,-40.861774,6.659042,22.208433,0.422452,2.261459,0.009017,0.000000,0.000000,0.000000,0.000000,0.000000,0.000000
12425723.000000,-0.345113,0.570710,0.443131,-1.470437,-0.257027,1.983474,0.141638,0.013645,0.256501,-0.064508,-0.394831,-0.134282,0.584873,0.088307,-0.191607,-40.691181,6.460678,22.307615,0.369352,2.248641,0.081344,0.000000,0.000000,0.000000,0.000000,0.000000,0.000000
12425724.000000,-0.345101,0.570973,0.443063,-1.470848,-0.257169,1.984068,0.141737,0.013430,0.256695,-0.067017,-0.397359,-0.138120,0.586442,0.092650,-0.215411,-40.615803,6.413071,22.382994,0.356534,2.196456,0.009017,0.000000,0.000000,0.000000,0.000000,0.000000,0.000000
12425725.000000,-0.345084,0.571241,0.443004,-1.471242,-0.257307,1.984659,0.141823,0.015174,0.265912,-0.062502,-0.392527,-0.137335,0.577796,0.092514,-0.314593,-40.544392,6.242477,22.307615,0.369352,2.242233,0.021835,0.000000,0.000000,0.000000,0.000000,0.000000,0.000000
12425726.000000,-0.345069,0.571501,0.442950,-1.471641,-0.257451,1.985251,0.141913,0.012713,0.260538,-0.059266,-0.394614,-0.140302,0.583432,0.093129,-0.389971,-40.469013,6.067917,22.208433,0.362943,2.267867,0.021835,0.000000,0.000000,0.000000,0.000000,0.000000,0.000000
12425727.000000,-0.345058,0.571765,0.442890,-1.472029,-0.257603,1.985854,0.142006,0.013068,0.260113,-0.056257,-0.398578,-0.144666,0.585544,0.088701,-0.413775,-40.421406,5.996506,22.109251,0.405057,2.222091,0.028243,0.000000,0.000000,0.000000,0.000000,0.000000,0.000000
12425728.000000,-0.345042,0.572027,0.442830,-1.472420,-0.257756,1.986467,0.142100,0.010115,0.261491,-0.058033,-0.397439,-0.146643,0.588616,0.085909,-0.441546,-40.274616,5.972702,22.010069,0.416959,2.125045,0.015426,0.000000,0.000000,0.000000,0.000000,0.000000,0.000000
12425729.000000,-0.345032,0.572294,0.442780,-1.472807,-0.257906,1.987055,0.142190,0.009645,0.260266,-0.053793,-0.391352,-0.143181,0.589133,0.082959,-0.389971,-40.175434,5.849716,21.863279,0.422452,2.085677,0.021835,0.000000,0.000000,0.000000,0.000000,0.000000,0.000000
12425730.000000,-0.345016,0.572552,0.442725,-1.473188,-0.258055,1.987654,0.142274,0.011894,0.261577,-0.054759,-0.391818,-0.145025,0.590566,0.084373,-0.441546,-40.028645,5.774338,21.740294,0.422452,2.098495,0.061202,0.000000,0.000000,0.000000,0.000000,0.000000,0.000000
12425731.000000,-0.345007,0.572812,0.442666,-1.473568,-0.258204,1.988246,0.142369,0.011269,0.263213,-0.059582,-0.383554,-0.146141,0.591927,0.088757,-0.413775,-39.905659,5.750534,21.589537,0.422452,2.144271,0.015426,0.000000,0.000000,0.000000,0.000000,0.000000,0.000000
12425732.000000,-0.344990,0.573069,0.442614,-1.473940,-0.258344,1.988850,0.142454,0.010721,0.258771,-0.058494,-0.388033,-0.149399,0.595024,0.083441,-0.512957,-39.711262,5.651352,21.367369,0.374845,2.144271,0.067611,0.000000,0.000000,0.000000,0.000000,0.000000,0.000000
12425733.000000,-0.344982,0.573323,0.442561,-1.474306,-0.258481,1.989455,0.142550,0.010211,0.261368,-0.057815,-0.381103,-0.143627,0.596871,0.083278,-0.465350,-39.588276,5.556137,21.192808,0.332731,2.137862,0.021835,0.000000,0.000000,0.000000,0.000000,0.000000,0.000000
12425734.000000,-0.344969,0.573582,0.442506,-1.474672,-0.258618,1.990053,0.142641,0.010680,0.262193,-0.055307,-0.375101,-0.143817,0.597578,0.081133,-0.465350,-39.417683,5.504562,20.998411,0.285123,2.163497,0.021835,0.000000,0.000000,0.000000,0.000000,0.000000,0.000000
12425735.000000,-0.344962,0.573849,0.442450,-1.475029,-0.258758,1.990669,0.142727,0.009588,0.262149,-0.053893,-0.365883,-0.144891,0.599552,0.079941,-0.389971,-39.366108,5.480759,20.724669,0.255826,2.104903,0.041976,0.000000,0.000000,0.000000,0.000000,0.000000,0.000000
12425736.000000,-0.344952,0.574108,0.442393,-1.475387,-0.258909,1.991282,0.142817,0.009356,0.259602,-0.056452,-0.361974,-0.143250,0.619632,0.078844,-0.342364,-39.366108,5.480759,20.554075,0.291532,2.014266,0.041976,0.000000,0.000000,0.000000,0.000000,0.000000,0.000000
12425737.000000,-0.344945,0.574367,0.442328,-1.475742,-0.259054,1.991896,0.142905,0.008561,0.258226,-0.060616,-0.357519,-0.146205,0.616403,0.081824,-0.266986,-39.270893,5.579941,20.327940,0.320829,1.974899,0.067611,0.000000,0.000000,0.000000,0.000000,0.000000,0.000000
12425738.000000,-0.344939,0.574632,0.442265,-1.476091,-0.259196,1.992512,0.143001,0.007554,0.264876,-0.062087,-0.353864,-0.148016,0.617721,0.086979,-0.167803,-39.247089,5.627548,20.232725,0.339139,1.942855,0.015426,0.000000,0.000000,0.000000,0.000000,0.000000,0.000000
12425739.000000,-0.344935,0.574886,0.442205,-1.476439,-0.259339,1.993129,0.143087,0.006864,0.263689,-0.062148,-0.347677,-0.145164,0.616003,0.086831,-0.068621,-39.195515,5.627548,20.034361,0.374845,1.884261,0.061202,0.000000,0.000000,0.000000,0.000000,0.000000,0.000000
12425740.000000,-0.344928,0.575149,0.442137,-1.476778,-0.259475,1.993743,0.143183,0.007315,0.264681,-0.064033,-0.342116,-0.140674,0.616611,0.089635,0.006757,-39.100300,5.702927,19.911375,0.344633,1.865035,0.048385,0.000000,0.000000,0.000000,0.000000,0.000000,0.000000
12425741.000000,-0.344925,0.575411,0.442072,-1.477116,-0.259610,1.994350,0.143279,0.006747,0.263597,-0.064629,-0.341443,-0.141933,0.607367,0.092001,0.105939,-39.048725,5.750534,19.784422,0.308927,1.897079,0.015426,0.000000,0.000000,0.000000,0.000000,0.000000,0.000000
12425742.000000,-0.344918,0.575673,0.442002,-1.477451,-0.259749,1.994949,0.143370,0.006944,0.260138,-0.066285,-0.336625,-0.138476,0.614920,0.091191,0.177350,-39.048725,5.849716,19.637632,0.279630,1.903487,0.048385,0.000000,0.000000,0.000000,0.000000,0.000000,0.000000
12425743.000000,-0.344917,0.575938,0.441940,-1.477780,-0.259883,1.995557,0.143463,0.005797,0.265158,-0.064999,-0.334420,-0.138562,0.610718,0.092272,0.304304,-39.001118,5.849716,19.562254,0.189908,1.909896,0.041976,0.000000,0.000000,0.000000,0.000000,0.000000,0.000000
12425744.000000,-0.344910,0.576198,0.441872,-1.478104,-0.260035,1.996158,0.143557,0.006942,0.261486,-0.065416,-0.329034,-0.143711,0.610388,0.092787,0.351911,-38.854328,5.897324,19.340086,0.243009,1.865035,0.048385,0.000000,0.000000,0.000000,0.000000,0.000000,0.000000
12425745.000000,-0.344907,0.576456,0.441797,-1.478430,-0.260185,1.996763,0.143648,0.006818,0.259423,-0.070606,-0.333505,-0.146393,0.604016,0.091522,0.451093,-38.755146,6.020309,19.268675,0.261320,1.858627,0.081344,0.000000,0.000000,0.000000,0.000000,0.000000,0.000000
12425746.000000,-0.344908,0.576713,0.441722,-1.478747,-0.260338,1.997366,0.143745,0.004663,0.260534,-0.073153,-0.326639,-0.149080,0.603479,0.088863,0.625654,-38.584553,6.095688,19.094114,0.303434,1.865035,0.048385,0.000000,0.000000,0.000000,0.000000,0.000000,0.000000
12425747.000000,-0.344905,0.576976,0.441644,-1.479066,-0.260488,1.997969,0.143841,0.004977,0.261318,-0.076171,-0.322278,-0.150816,0.600492,0.090833,0.724836,-38.413960,6.218674,18.971128,0.339139,1.825668,0.034652,0.000000,0.000000,0.000000,0.000000,0.000000,0.000000
12425748.000000,-0.344902,0.577236,0.441565,-1.479370,-0.260634,1.998577,0.143934,0.002056,0.259870,-0.074451,-0.317643,-0.145531,0.602575,0.091888,0.824018,-38.290974,6.313889,18.772764,0.327238,1.735030,0.028243,0.000000,0.000000,0.000000,0.000000,0.000000,0.000000
12425749.000000,-0.344897,0.577495,0.441490,-1.479679,-0.260777,1.999168,0.144023,0.001051,0.263169,-0.074418,-0.313874,-0.145084,0.607285,0.091482,0.871625,-38.215595,6.341660,18.574400,0.285123,1.747848,0.054794,0.000000,0.000000,0.000000,0.000000,0.000000,0.000000
12425750.000000,-0.344890,0.577764,0.441413,-1.479992,-0.260921,1.999759,0.144118,0.004129,0.261659,-0.074832,-0.315944,-0.148691,0.603783,0.088981,0.895429,-38.144184,6.365463,18.499022,0.237516,1.806442,0.015426,0.000000,0.000000,0.000000,0.000000,0.000000,0.000000
12425751.000000,-0.344882,0.578023,0.441334,-1.480285,-0.261066,2.000366,0.144205,0.002275,0.262657,-0.074622,-0.312099,-0.148313,0.602692,0.089032,0.947004,-38.144184,6.365463,18.276854,0.207303,1.819259,0.054794,0.000000,0.000000,0.000000,0.000000,0.000000,0.000000
12425752.000000,-0.344875,0.578291,0.441247,-1.480589,-0.261216,2.000958,0.144303,0.004063,0.266215,-0.078079,-0.309370,-0.148474,0.602971,0.086804,0.994611,-38.120380,6.512253,18.229246,0.189908,1.819259,0.021835,0.000000,0.000000,0.000000,0.000000,0.000000,0.000000
12425753.000000,-0.344868,0.578558,0.441166,-1.480888,-0.261368,2.001564,0.144399,0.003378,0.266267,-0.077520,-0.305630,-0.150235,0.602289,0.088937,0.994611,-37.997395,6.536057,18.229246,0.213712,1.793624,0.015426,0.000000,0.000000,0.000000,0.000000,0.000000,0.000000
12425754.000000,-0.344864,0.578817,0.441087,-1.481197,-0.261522,2.002173,0.144490,0.000991,0.265248,-0.074057,-0.306917,-0.150796,0.608637,0.088777,1.069990,-37.949787,6.559860,18.276854,0.225614,1.747848,0.054794,0.000000,0.000000,0.000000,0.000000,0.000000,0.000000
12425755.000000,-0.344855,0.579082,0.441004,-1.481498,-0.261673,2.002775,0.144590,0.001594,0.259778,-0.075380,-0.305728,-0.152472,0.606361,0.091724,1.046186,-37.898212,6.611435,18.229246,0.267728,1.773483,0.015426,0.000000,0.000000,0.000000,0.000000,0.000000,0.000000
12425756.000000,-0.344843,0.579349,0.440922,-1.481797,-0.261826,2.003380,0.144676,0.005652,0.267933,-0.078079,-0.303327,-0.159654,0.604976,0.090133,0.994611,-37.826801,6.611435,18.276854,0.344633,1.760665,0.074935,0.000000,0.000000,0.000000,0.000000,0.000000,0.000000
12425757.000000,-0.344828,0.579608,0.440840,-1.482095,-0.261969,2.003983,0.144777,0.008505,0.265383,-0.077865,-0.297818,-0.155452,0.605206,0.092700,0.947004,-37.751423,6.635239,18.205442,0.303434,1.741439,0.021835,0.000000,0.000000,0.000000,0.000000,0.000000,0.000000
12425758.000000,-0.344814,0.579875,0.440758,-1.482379,-0.262112,2.004590,0.144874,0.010289,0.267176,-0.077120,-0.292882,-0.149220,0.605202,0.094428,0.923200,-37.703815,6.635239,18.054686,0.291532,1.708480,0.009017,0.000000,0.000000,0.000000,0.000000,0.000000,0.000000
12425759.000000,-0.344799,0.580151,0.440680,-1.482670,-0.262249,2.005199,0.144967,0.009928,0.270288,-0.077983,-0.292965,-0.145896,0.608216,0.093359,0.824018,-37.703815,6.559860,17.907896,0.189908,1.741439,0.034652,0.000000,0.000000,0.000000,0.000000,0.000000,0.000000
12425760.000000,-0.344779,0.580430,0.440603,-1.482961,-0.262401,2.005789,0.145068,0.013784,0.271658,-0.076373,-0.287917,-0.142098,0.611546,0.094198,0.673261,-37.826801,6.512253,17.685728,0.171598,1.747848,0.015426,0.000000,0.000000,0.000000,0.000000,0.000000,0.000000
12425761.000000,-0.344768,0.580715,0.440524,-1.483251,-0.262552,2.006400,0.145158,0.013516,0.275287,-0.077510,-0.286109,-0.144893,0.609975,0.092756,0.649457,-37.922016,6.436874,17.534971,0.178007,1.682845,0.054794,0.000000,0.000000,0.000000,0.000000,0.000000,0.000000
12425762.000000,-0.344747,0.580995,0.440441,-1.483541,-0.262708,2.006988,0.145257,0.015778,0.276122,-0.077820,-0.287512,-0.147217,0.603496,0.094622,0.526471,-37.949787,6.460678,17.388182,0.201810,1.676437,0.015426,0.000000,0.000000,0.000000,0.000000,0.000000,0.000000
12425763.000000,-0.344737,0.581271,0.440364,-1.483832,-0.262860,2.007597,0.145344,0.014279,0.272019,-0.079383,-0.296038,-0.150281,0.605652,0.092529,0.550275,-37.949787,6.413071,17.312803,0.255826,1.611434,0.067611,0.000000,0.000000,0.000000,0.000000,0.000000,0.000000
12425764.000000,-0.344717,0.581544,0.440289,-1.484122,-0.263013,2.008206,0.145441,0.015924,0.275489,-0.080561,-0.293241,-0.152151,0.601609,0.093958,0.451093,-37.898212,6.365463,17.213621,0.303434,1.559249,0.041976,0.000000,0.000000,0.000000,0.000000,0.000000,0.000000
12425765.000000,-0.344700,0.581831,0.440213,-1.484418,-0.263160,2.008806,0.145540,0.013887,0.279480,-0.078303,-0.291276,-0.146192,0.602893,0.094889,0.351911,-37.898212,6.313889,17.142210,0.285123,1.532699,0.015426,0.000000,0.000000,0.000000,0.000000,0.000000,0.000000
12425766.000000,-0.344679,0.582112,0.440139,-1.484709,-0.263303,2.009400,0.145627,0.019005,0.277453,-0.079220,-0.290626,-0.146407,0.594585,0.091969,0.228925,-37.973591,6.242477,17.090635,0.261320,1.578475,0.087753,0.000000,0.000000,0.000000,0.000000,0.000000,0.000000
12425767.000000,-0.344656,0.582393,0.440065,-1.485001,-0.263444,2.009998,0.145733,0.019694,0.278978,-0.077404,-0.290505,-0.140574,0.604125,0.099656,0.105939,-38.045002,6.190903,17.066832,0.207303,1.643478,0.028243,0.000000,0.000000,0.000000,0.000000,0.000000,0.000000
12425768.000000,-0.344635,0.582685,0.439997,-1.485298,-0.263588,2.010602,0.145827,0.019384,0.280639,-0.073215,-0.287307,-0.145298,0.598921,0.097393,0.030561,-38.167988,6.020309,17.043028,0.135892,1.649886,0.054794,0.000000,0.000000,0.000000,0.000000,0.000000,0.000000
12425769.000000,-0.344610,0.582966,0.439923,-1.485586,-0.263742,2.011211,0.145921,0.022583,0.286500,-0.073095,-0.287235,-0.147528,0.599309,0.095982,-0.068621,-38.267170,5.972702,16.991453,0.147794,1.662704,0.074935,0.000000,0.000000,0.000000,0.000000,0.000000,0.000000
12425770.000000,-0.344588,0.583252,0.439851,-1.485877,-0.263890,2.011807,0.146020,0.020653,0.284653,-0.074181,-0.286648,-0.147876,0.595568,0.098000,-0.116229,-38.314777,5.972702,16.943846,0.135892,1.662704,0.015426,0.000000,0.000000,0.000000,0.000000,0.000000,0.000000
12425771.000000,-0.344570,0.583547,0.439775,-1.486170,-0.264034,2.012418,0.146108,0.014469,0.284067,-0.078007,-0.287261,-0.144563,0.593601,0.094096,-0.092425,-38.390156,5.972702,16.920042,0.147794,1.611434,0.081344,0.000000,0.000000,0.000000,0.000000,0.000000,0.000000
12425772.000000,-0.344553,0.583830,0.439703,-1.486469,-0.264186,2.013014,0.146209,0.013724,0.283670,-0.073184,-0.290023,-0.144062,0.602181,0.096468,-0.092425,-38.461567,5.921127,16.991453,0.219205,1.597701,0.034652,0.000000,0.000000,0.000000,0.000000,0.000000,0.000000
12425773.000000,-0.344531,0.584121,0.439630,-1.486764,-0.264332,2.013610,0.146305,0.017502,0.284814,-0.074005,-0.289806,-0.146640,0.595671,0.096561,-0.144000,-38.485371,5.921127,16.967649,0.243009,1.526290,0.028243,0.000000,0.000000,0.000000,0.000000,0.000000,0.000000
12425774.000000,-0.344518,0.584423,0.439561,-1.487054,-0.264477,2.014205,0.146391,0.014838,0.294839,-0.073860,-0.290018,-0.148121,0.588589,0.094815,-0.092425,-38.632160,5.897324,16.967649,0.255826,1.500655,0.087753,0.000000,0.000000,0.000000,0.000000,0.000000,0.000000
12425775.000000,-0.344496,0.584714,0.439497,-1.487349,-0.264620,2.014788,0.146488,0.017932,0.294626,-0.068972,-0.289504,-0.142378,0.584839,0.090882,-0.116229,-38.683735,5.798141,16.967649,0.219205,1.565658,0.067611,0.000000,0.000000,0.000000,0.000000,0.000000,0.000000
12425776.000000,-0.344474,0.585010,0.439428,-1.487641,-0.264763,2.015382,0.146583,0.021133,0.295605,-0.072999,-0.291185,-0.142924,0.584682,0.097409,-0.144000,-38.659931,5.750534,16.868467,0.171598,1.559249,0.041976,0.000000,0.000000,0.000000,0.000000,0.000000,0.000000
12425777.000000,-0.344459,0.585305,0.439358,-1.487943,-0.264911,2.015974,0.146678,0.020806,0.294410,-0.072814,-0.291361,-0.143771,0.586926,0.097300,-0.092425,-38.659931,5.702927,16.868467,0.135892,1.611434,0.015426,0.000000,0.000000,0.000000,0.000000,0.000000,0.000000
12425778.000000,-0.344445,0.585595,0.439291,-1.488241,-0.265064,2.016556,0.146766,0.020073,0.291055,-0.072610,-0.288619,-0.145170,0.581738,0.094184,-0.017047,-38.560749,5.651352,16.892271,0.117582,1.617843,0.074935,0.000000,0.000000,0.000000,0.000000,0.000000,0.000000
12425779.000000,-0.344427,0.585897,0.439214,-1.488541,-0.265214,2.017146,0.146864,0.017766,0.290579,-0.071549,-0.291260,-0.141481,0.580023,0.096311,0.006757,-38.536945,5.702927,16.967649,0.100187,1.643478,0.021835,0.000000,0.000000,0.000000,0.000000,0.000000,0.000000
12425780.000000,-0.344413,0.586181,0.439140,-1.488840,-0.265371,2.017729,0.146952,0.014979,0.284553,-0.076481,-0.290430,-0.146251,0.581619,0.093504,0.078168,-38.413960,5.750534,16.967649,0.171598,1.630660,0.081344,0.000000,0.000000,0.000000,0.000000,0.000000,0.000000
12425781.000000,-0.344397,0.586476,0.439071,-1.489155,-0.265524,2.018321,0.147044,0.013751,0.287200,-0.075694,-0.307551,-0.148620,0.583190,0.093581,0.129743,-38.338581,5.726730,17.189817,0.207303,1.611434,0.081344,0.000000,0.000000,0.000000,0.000000,0.000000,0.000000
12425782.000000,-0.344384,0.586771,0.438991,-1.489461,-0.265672,2.018902,0.147141,0.015074,0.287717,-0.077261,-0.304700,-0.144060,0.581622,0.091116,0.205121,-38.290974,5.798141,17.265196,0.201810,1.662704,0.028243,0.000000,0.000000,0.000000,0.000000,0.000000,0.000000
12425783.000000,-0.344371,0.587067,0.438919,-1.489764,-0.265826,2.019486,0.147226,0.016394,0.290737,-0.076143,-0.302422,-0.146342,0.585033,0.085231,0.304304,-38.362385,5.774338,17.340574,0.219205,1.591293,0.087753,0.000000,0.000000,0.000000,0.000000,0.000000,0.000000
12425784.000000,-0.344354,0.587366,0.438842,-1.490069,-0.265976,2.020070,0.147322,0.019475,0.292099,-0.077096,-0.305100,-0.151245,0.583131,0.084649,0.304304,-38.413960,5.825912,17.435789,0.195402,1.597701,0.041976,0.000000,0.000000,0.000000,0.000000,0.000000,0.000000
12425785.000000,-0.344339,0.587656,0.438767,-1.490377,-0.266135,2.020635,0.147419,0.016893,0.291389,-0.073983,-0.303131,-0.154604,0.591577,0.087791,0.351911,-38.390156,5.849716,17.534971,0.166105,1.662704,0.021835,0.000000,0.000000,0.000000,0.000000,0.000000,0.000000
12425788.000000,-0.344308,0.588530,0.438529,-1.491308,-0.266617,2.022370,0.147700,0.012756,0.290808,-0.077739,-0.305962,-0.157793,0.587020,0.100305,0.601850,-38.267170,6.020309,17.832518,0.178007,1.727706,0.034652,0.000000,0.000000,0.000000,0.000000,0.000000,0.000000
12425789.000000,-0.344298,0.588825,0.438445,-1.491618,-0.266783,2.022951,0.147793,0.014645,0.290873,-0.078682,-0.308568,-0.163026,0.582261,0.103171,0.697065,-38.267170,6.095688,17.983274,0.237516,1.689254,0.028243,0.000000,0.000000,0.000000,0.000000,0.000000,0.000000
12425790.000000,-0.344291,0.589107,0.438357,-1.491936,-0.266940,2.023536,0.147882,0.012275,0.287538,-0.080413,-0.311564,-0.159421,0.581961,0.099216,0.796247,-38.120380,6.218674,18.177671,0.225614,1.714889,0.074935,0.000000,0.000000,0.000000,0.000000,0.000000,0.000000
12425791.000000,-0.344280,0.589410,0.438279,-1.492247,-0.267106,2.024104,0.147981,0.011595,0.286973,-0.078682,-0.307332,-0.163618,0.580680,0.098285,0.847822,-38.215595,6.218674,18.253050,0.267728,1.760665,0.074935,0.000000,0.000000,0.000000,0.000000,0.000000,0.000000
12425792.000000,-0.344267,0.589705,0.438193,-1.492560,-0.267266,2.024688,0.148078,0.011625,0.291815,-0.079095,-0.312601,-0.164244,0.575083,0.097570,0.895429,-38.144184,6.290085,18.376036,0.243009,1.793624,0.074935,0.000000,0.000000,0.000000,0.000000,0.000000,0.000000
12425793.000000,-0.344255,0.590004,0.438111,-1.492877,-0.267432,2.025261,0.148177,0.011021,0.295037,-0.078389,-0.311580,-0.159821,0.572917,0.097197,0.947004,-38.144184,6.313889,18.475218,0.219205,1.786300,0.048385,0.000000,0.000000,0.000000,0.000000,0.000000,0.000000
12425794.000000,-0.344243,0.590301,0.438022,-1.493192,-0.267603,2.025846,0.148275,0.011500,0.294219,-0.079278,-0.316057,-0.164179,0.571107,0.097482,0.970807,-38.167988,6.389267,18.697386,0.267728,1.779891,0.034652,0.000000,0.000000,0.000000,0.000000,0.000000,0.000000
12425795.000000,-0.344229,0.590597,0.437926,-1.493504,-0.267765,2.026425,0.148367,0.011519,0.294576,-0.085038,-0.310002,-0.161291,0.568578,0.095624,0.994611,-38.215595,6.559860,18.748960,0.279630,1.806442,0.061202,0.000000,0.000000,0.000000,0.000000,0.000000,0.000000
12425796.000000,-0.344219,0.590897,0.437843,-1.493822,-0.267929,2.026999,0.148466,0.010797,0.293719,-0.085850,-0.311299,-0.159496,0.571808,0.096181,1.046186,-38.215595,6.583664,18.895750,0.303434,1.832076,0.034652,0.000000,0.000000,0.000000,0.000000,0.000000,0.000000
12425797.000000,-0.344207,0.591197,0.437756,-1.494133,-0.268093,2.027572,0.148556,0.013366,0.293466,-0.087532,-0.311790,-0.163366,0.567885,0.094711,1.093793,-38.243366,6.659042,19.018736,0.339139,1.858627,0.061202,0.000000,0.000000,0.000000,0.000000,0.000000,0.000000
12425798.000000,-0.344190,0.591492,0.437667,-1.494451,-0.268246,2.028143,0.148657,0.014560,0.292221,-0.091039,-0.310201,-0.158034,0.572349,0.090940,1.046186,-38.215595,6.706650,19.070311,0.291532,1.844894,0.034652,0.000000,0.000000,0.000000,0.000000,0.000000,0.000000
12425799.000000,-0.344175,0.591792,0.437579,-1.494764,-0.268397,2.028714,0.148750,0.014443,0.287313,-0.089950,-0.314797,-0.158658,0.568370,0.090551,1.046186,-38.191792,6.706650,19.117918,0.249418,1.916305,0.067611,0.000000,0.000000,0.000000,0.000000,0.000000,0.000000
12425800.000000,-0.344160,0.592086,0.437490,-1.495071,-0.268560,2.029291,0.148847,0.013995,0.289036,-0.089818,-0.312484,-0.161555,0.571250,0.091949,1.046186,-38.215595,6.734421,19.141722,0.249418,1.942855,0.054794,0.000000,0.000000,0.000000,0.000000,0.000000,0.000000
12425801.000000,-0.344142,0.592383,0.437404,-1.495381,-0.268718,2.029861,0.148948,0.017318,0.287851,-0.088574,-0.313148,-0.156962,0.573368,0.094088,1.022382,-38.144184,6.706650,19.141722,0.195402,1.974899,0.009017,0.000000,0.000000,0.000000,0.000000,0.000000,0.000000
12425802.000000,-0.344128,0.592675,0.437316,-1.495691,-0.268884,2.030441,0.149042,0.015887,0.286363,-0.087740,-0.308550,-0.157937,0.575837,0.092121,1.046186,-38.045002,6.682846,19.193296,0.255826,1.962081,0.061202,0.000000,0.000000,0.000000,0.000000,0.000000,0.000000
12425803.000000,-0.344105,0.592973,0.437218,-1.496011,-0.269044,2.031027,0.149145,0.017392,0.291170,-0.090139,-0.311664,-0.162184,0.585372,0.093726,0.947004,-38.045002,6.782028,19.240904,0.297025,1.930038,0.034652,0.000000,0.000000,0.000000,0.000000,0.000000,0.000000
12425804.000000,-0.344085,0.593270,0.437135,-1.496337,-0.269202,2.031598,0.149243,0.019667,0.290433,-0.090884,-0.311983,-0.163911,0.585918,0.093537,0.923200,-37.898212,6.706650,19.340086,0.297025,1.903487,0.054794,0.000000,0.000000,0.000000,0.000000,0.000000,0.000000
12425805.000000,-0.344066,0.593573,0.437041,-1.496648,-0.269363,2.032181,0.149343,0.021503,0.299750,-0.088629,-0.309831,-0.162803,0.586623,0.094567,0.895429,-37.922016,6.782028,19.340086,0.356534,1.871444,0.034652,0.000000,0.000000,0.000000,0.000000,0.000000,0.000000
12425806.000000,-0.344045,0.593876,0.436961,-1.496965,-0.269518,2.032747,0.149443,0.023342,0.300733,-0.086650,-0.307687,-0.158649,0.581949,0.093956,0.847822,-37.898212,6.706650,19.340086,0.339139,1.851302,0.054794,0.000000,0.000000,0.000000,0.000000,0.000000,0.000000
12425807.000000,-0.344021,0.594178,0.436875,-1.497270,-0.269673,2.033316,0.149542,0.022557,0.296282,-0.086592,-0.305246,-0.155863,0.575012,0.099138,0.772443,-37.802998,6.682846,19.268675,0.315336,1.897079,0.048385,0.000000,0.000000,0.000000,0.000000,0.000000,0.000000
12425808.000000,-0.344001,0.594477,0.436791,-1.497581,-0.269836,2.033880,0.149640,0.019769,0.301379,-0.085420,-0.306374,-0.159062,0.571390,0.098891,0.772443,-37.751423,6.611435,19.169493,0.303434,1.936446,0.034652,0.000000,0.000000,0.000000,0.000000,0.000000,0.000000
12425809.000000,-0.343973,0.594788,0.436703,-1.497894,-0.269994,2.034444,0.149734,0.023202,0.301089,-0.086276,-0.302136,-0.159990,0.569071,0.097113,0.673261,-37.703815,6.611435,19.141722,0.249418,1.962081,0.061202,0.000000,0.000000,0.000000,0.000000,0.000000,0.000000
12425810.000000,-0.343952,0.595088,0.436626,-1.498185,-0.270153,2.035014,0.149833,0.020774,0.301617,-0.084327,-0.299223,-0.157831,0.563666,0.097775,0.649457,-37.604633,6.512253,18.971128,0.243009,1.923629,0.028243,0.000000,0.000000,0.000000,0.000000,0.000000,0.000000
12425811.000000,-0.343928,0.595392,0.436546,-1.498495,-0.270314,2.035584,0.149930,0.022153,0.304032,-0.081202,-0.297140,-0.156802,0.565136,0.096036,0.625654,-37.656208,6.460678,18.971128,0.261320,1.890670,0.048385,0.000000,0.000000,0.000000,0.000000,0.000000,0.000000
12425812.000000,-0.343904,0.595692,0.436461,-1.498793,-0.270470,2.036152,0.150026,0.019878,0.297972,-0.083902,-0.300517,-0.155662,0.566480,0.095300,0.625654,-37.557026,6.488449,18.947325,0.267728,1.865035,0.054794,0.000000,0.000000,0.000000,0.000000,0.000000,0.000000
12425813.000000,-0.343881,0.595985,0.436383,-1.499097,-0.270633,2.036733,0.150128,0.021158,0.294620,-0.082691,-0.302089,-0.156651,0.571366,0.096857,0.625654,-37.481647,6.389267,18.947325,0.327238,1.844894,0.009017,0.000000,0.000000,0.000000,0.000000,0.000000,0.000000
12425814.000000,-0.343855,0.596289,0.436300,-1.499403,-0.270787,2.037299,0.150217,0.023184,0.297662,-0.080652,-0.302039,-0.154854,0.569640,0.094215,0.574079,-37.481647,6.365463,18.919554,0.320829,1.851302,0.067611,0.000000,0.000000,0.000000,0.000000,0.000000,0.000000
12425815.000000,-0.343829,0.596601,0.436222,-1.499693,-0.270943,2.037874,0.150314,0.023912,0.296921,-0.077727,-0.294487,-0.153397,0.572344,0.094756,0.550275,-37.509418,6.290085,18.848143,0.308927,1.832076,0.054794,0.000000,0.000000,0.000000,0.000000,0.000000,0.000000
12425816.000000,-0.343800,0.596900,0.436148,-1.499993,-0.271100,2.038440,0.150414,0.022708,0.299402,-0.075170,-0.296744,-0.155776,0.569724,0.094697,0.474897,-37.533222,6.190903,18.848143,0.273221,1.844894,0.054794,0.000000,0.000000,0.000000,0.000000,0.000000,0.000000
12425817.000000,-0.343773,0.597207,0.436071,-1.500292,-0.271259,2.039011,0.150512,0.024705,0.304353,-0.077150,-0.303263,-0.162025,0.572474,0.094216,0.403486,-37.557026,6.119492,18.820372,0.243009,1.865035,0.067611,0.000000,0.000000,0.000000,0.000000,0.000000,0.000000
12425818.000000,-0.343746,0.597508,0.435995,-1.500581,-0.271414,2.039583,0.150615,0.025131,0.300407,-0.078468,-0.298734,-0.158706,0.568677,0.101168,0.375715,-37.533222,6.044113,18.748960,0.225614,1.909896,0.021835,0.000000,0.000000,0.000000,0.000000,0.000000,0.000000
12425819.000000,-0.343717,0.597817,0.435919,-1.500880,-0.271572,2.040153,0.150710,0.025392,0.302008,-0.077058,-0.298624,-0.158126,0.573643,0.098000,0.351911,-37.557026,5.996506,18.697386,0.261320,1.884261,0.054794,0.000000,0.000000,0.000000,0.000000,0.000000,0.000000
12425820.000000,-0.343691,0.598134,0.435840,-1.501180,-0.271726,2.040738,0.150810,0.025757,0.303285,-0.076424,-0.297951,-0.155459,0.572915,0.097972,0.351911,-37.580830,5.972702,18.748960,0.237516,1.819259,0.034652,0.000000,0.000000,0.000000,0.000000,0.000000,0.000000
12425821.000000,-0.343658,0.598441,0.435760,-1.501469,-0.271886,2.041311,0.150910,0.027178,0.300937,-0.076532,-0.295348,-0.160788,0.587157,0.102866,0.276533,-37.604633,5.972702,18.697386,0.285123,1.800033,0.028243,0.000000,0.000000,0.000000,0.000000,0.000000,0.000000
12425822.000000,-0.343629,0.598753,0.435684,-1.501756,-0.272043,2.041887,0.151002,0.026322,0.301666,-0.075980,-0.288834,-0.158317,0.584623,0.099372,0.276533,-37.628437,5.948898,18.598204,0.285123,1.832076,0.074935,0.000000,0.000000,0.000000,0.000000,0.000000,0.000000
12425823.000000,-0.343603,0.599066,0.435609,-1.502040,-0.272202,2.042461,0.151101,0.025873,0.310958,-0.077809,-0.285118,-0.160471,0.577969,0.104235,0.276533,-37.628437,5.897324,18.550596,0.267728,1.858627,0.048385,0.000000,0.000000,0.000000,0.000000,0.000000,0.000000
12425824.000000,-0.343571,0.599371,0.435538,-1.502319,-0.272369,2.043037,0.151197,0.026704,0.311355,-0.075138,-0.280055,-0.161860,0.575486,0.101697,0.228925,-37.557026,5.798141,18.427610,0.249418,1.851302,0.048385,0.000000,0.000000,0.000000,0.000000,0.000000,0.000000
12425825.000000,-0.343539,0.599693,0.435462,-1.502599,-0.272533,2.043622,0.151289,0.031468,0.310285,-0.074514,-0.278728,-0.159091,0.569799,0.099533,0.177350,-37.604633,5.750534,18.376036,0.243009,1.793624,0.081344,0.000000,0.000000,0.000000,0.000000,0.000000,0.000000
12425826.000000,-0.343513,0.600009,0.435385,-1.502884,-0.272698,2.044212,0.151387,0.029038,0.311254,-0.075102,-0.279995,-0.161497,0.574661,0.098915,0.205121,-37.703815,5.750534,18.427610,0.231107,1.760665,0.067611,0.000000,0.000000,0.000000,0.000000,0.000000,0.000000
12425827.000000,-0.343480,0.600330,0.435310,-1.503151,-0.272862,2.044789,0.151486,0.029136,0.311468,-0.074881,-0.278864,-0.158778,0.568623,0.098693,0.153547,-37.802998,5.726730,18.253050,0.225614,1.721298,0.041976,0.000000,0.000000,0.000000,0.000000,0.000000,0.000000
12425828.000000,-0.343452,0.600653,0.435227,-1.503422,-0.273029,2.045371,0.151581,0.027836,0.319570,-0.076132,-0.274406,-0.162800,0.571338,0.097540,0.153547,-37.874409,5.774338,18.205442,0.255826,1.708480,0.041976,0.000000,0.000000,0.000000,0.000000,0.000000,0.000000
12425829.000000,-0.343415,0.600962,0.435150,-1.503686,-0.273192,2.045936,0.151678,0.028775,0.316122,-0.078711,-0.267985,-0.159568,0.567748,0.095405,0.078168,-37.898212,5.774338,18.054686,0.255826,1.760665,0.067611,0.000000,0.000000,0.000000,0.000000,0.000000,0.000000
12425830.000000,-0.343386,0.601284,0.435069,-1.503954,-0.273356,2.046517,0.151783,0.028429,0.319710,-0.078584,-0.274903,-0.162530,0.577905,0.096902,0.078168,-37.922016,5.798141,18.007078,0.267728,1.747848,0.021835,0.000000,0.000000,0.000000,0.000000,0.000000,0.000000
12425831.000000,-0.343357,0.601605,0.434993,-1.504222,-0.273526,2.047097,0.151877,0.027466,0.313542,-0.077144,-0.270130,-0.163212,0.574904,0.093986,0.078168,-37.973591,5.774338,17.907896,0.237516,1.747848,0.081344,0.000000,0.000000,0.000000,0.000000,0.000000,0.000000
12425832.000000,-0.343324,0.601928,0.434916,-1.504493,-0.273697,2.047672,0.151985,0.030358,0.312394,-0.076276,-0.265123,-0.164363,0.578118,0.096525,0.054365,-38.021198,5.750534,17.907896,0.225614,1.735030,0.009017,0.000000,0.000000,0.000000,0.000000,0.000000,0.000000
12425833.000000,-0.343295,0.602254,0.434833,-1.504750,-0.273862,2.048261,0.152074,0.028790,0.316465,-0.077105,-0.263895,-0.166598,0.578523,0.093921,0.054365,-37.997395,5.798141,17.856321,0.243009,1.727706,0.061202,0.000000,0.000000,0.000000,0.000000,0.000000,0.000000
12425834.000000,-0.343271,0.602565,0.434749,-1.505016,-0.274028,2.048834,0.152173,0.025459,0.315095,-0.080996,-0.259578,-0.167074,0.590291,0.093829,0.153547,-37.922016,5.849716,17.832518,0.243009,1.727706,0.081344,0.000000,0.000000,0.000000,0.000000,0.000000,0.000000
12425835.000000,-0.343236,0.602888,0.434672,-1.505279,-0.274188,2.049420,0.152280,0.026578,0.314375,-0.079503,-0.268433,-0.171284,0.587598,0.096100,0.105939,-37.898212,5.849716,17.784910,0.237516,1.760665,0.028243,0.000000,0.000000,0.000000,0.000000,0.000000,0.000000
12425836.000000,-0.343205,0.603208,0.434589,-1.505537,-0.274349,2.050003,0.152381,0.025713,0.312639,-0.079453,-0.266339,-0.165833,0.590741,0.098722,0.129743,-37.850605,5.897324,17.733335,0.225614,1.793624,0.028243,0.000000,0.000000,0.000000,0.000000,0.000000,0.000000
12425837.000000,-0.343173,0.603529,0.434511,-1.505796,-0.274509,2.050589,0.152480,0.025700,0.314098,-0.077801,-0.260173,-0.165748,0.585249,0.097862,0.129743,-37.850605,5.873520,17.661924,0.201810,1.767074,0.015426,0.000000,0.000000,0.000000,0.000000,0.000000,0.000000
12425838.000000,-0.343143,0.603864,0.434422,-1.506048,-0.274673,2.051170,0.152572,0.025709,0.318573,-0.079417,-0.256800,-0.167110,0.585141,0.094482,0.153547,-37.973591,5.972702,17.610350,0.207303,1.735030,0.087753,0.000000,0.000000,0.000000,0.000000,0.000000,0.000000
12425839.000000,-0.343115,0.604194,0.434340,-1.506300,-0.274838,2.051755,0.152675,0.021948,0.321900,-0.081371,-0.251215,-0.162681,0.581588,0.096633,0.177350,-38.120380,5.972702,17.586546,0.195402,1.714889,0.034652,0.000000,0.000000,0.000000,0.000000,0.000000,0.000000
12425840.000000,-0.343080,0.604530,0.434257,-1.506546,-0.275009,2.052318,0.152773,0.023899,0.327156,-0.080382,-0.245384,-0.165963,0.572138,0.095951,0.129743,-38.267170,5.996506,17.487364,0.231107,1.727706,0.041976,0.000000,0.000000,0.000000,0.000000,0.000000,0.000000
12425841.000000,-0.343058,0.604873,0.434171,-1.506794,-0.275169,2.052899,0.152874,0.021894,0.333062,-0.079445,-0.247382,-0.162122,0.570922,0.095967,0.228925,-38.413960,6.020309,17.511168,0.225614,1.676437,0.067611,0.000000,0.000000,0.000000,0.000000,0.000000,0.000000
12425842.000000,-0.343023,0.605205,0.434091,-1.507037,-0.275334,2.053457,0.152979,0.027200,0.335892,-0.080350,-0.242871,-0.159668,0.564632,0.096991,0.177350,-38.560749,5.972702,17.463560,0.243009,1.682845,0.034652,0.000000,0.000000,0.000000,0.000000,0.000000,0.000000
12425843.000000,-0.342990,0.605539,0.433999,-1.507283,-0.275495,2.054030,0.153076,0.027876,0.334316,-0.081399,-0.244778,-0.161769,0.561055,0.099756,0.153547,-38.584553,6.067917,17.463560,0.231107,1.656295,0.067611,0.000000,0.000000,0.000000,0.000000,0.000000,0.000000
12425844.000000,-0.342958,0.605871,0.433911,-1.507531,-0.275653,2.054596,0.153182,0.027138,0.331785,-0.080364,-0.242794,-0.163184,0.555811,0.104955,0.153547,-38.659931,6.095688,17.463560,0.213712,1.695663,0.021835,0.000000,0.000000,0.000000,0.000000,0.000000,0.000000
12425845.000000,-0.342933,0.606202,0.433830,-1.507783,-0.275820,2.055154,0.153282,0.027857,0.329389,-0.077748,-0.243398,-0.164540,0.561084,0.107015,0.228925,-38.584553,6.044113,17.562742,0.201810,1.747848,0.028243,0.000000,0.000000,0.000000,0.000000,0.000000,0.000000
12425846.000000,-0.342904,0.606542,0.433743,-1.508027,-0.275985,2.055717,0.153376,0.029676,0.338788,-0.078263,-0.246331,-0.164861,0.554341,0.101642,0.252729,-38.608356,6.095688,17.634153,0.171598,1.800033,0.087753,0.000000,0.000000,0.000000,0.000000,0.000000,0.000000
12425847.000000,-0.342876,0.606875,0.433662,-1.508270,-0.276160,2.056276,0.153485,0.027444,0.336492,-0.082060,-0.245243,-0.167415,0.557199,0.102629,0.304304,-38.584553,6.044113,17.586546,0.207303,1.806442,0.015426,0.000000,0.000000,0.000000,0.000000,0.000000,0.000000
12425848.000000,-0.342844,0.607216,0.433569,-1.508521,-0.276321,2.056842,0.153580,0.031112,0.335231,-0.085953,-0.249726,-0.166542,0.559370,0.103158,0.304304,-38.608356,6.143295,17.661924,0.166105,1.812850,0.067611,0.000000,0.000000,0.000000,0.000000,0.000000,0.000000
12425849.000000,-0.342806,0.607550,0.433486,-1.508765,-0.276484,2.057410,0.153686,0.031574,0.335703,-0.084464,-0.249430,-0.167275,0.556882,0.098042,0.228925,-38.659931,6.067917,17.661924,0.159696,1.793624,0.021835,0.000000,0.000000,0.000000,0.000000,0.000000,0.000000
12425850.000000,-0.342778,0.607892,0.433395,-1.509017,-0.276656,2.057970,0.153786,0.031864,0.338346,-0.086622,-0.251842,-0.164157,0.559209,0.097072,0.276533,-38.659931,6.119492,17.634153,0.183500,1.793624,0.028243,0.000000,0.000000,0.000000,0.000000,0.000000,0.000000
12425851.000000,-0.342741,0.608241,0.433307,-1.509259,-0.276818,2.058531,0.153882,0.035803,0.335693,-0.087359,-0.248982,-0.165604,0.560508,0.096071,0.205121,-38.755146,6.143295,17.534971,0.183500,1.760665,0.034652,0.000000,0.000000,0.000000,0.000000,0.000000,0.000000
12425852.000000,-0.342711,0.608585,0.433218,-1.509498,-0.276985,2.059092,0.153979,0.032443,0.337778,-0.087401,-0.244046,-0.166597,0.572707,0.094601,0.228925,-38.878132,6.143295,17.463560,0.189908,1.747848,0.061202,0.000000,0.000000,0.000000,0.000000,0.000000,0.000000
12425853.000000,-0.342675,0.608934,0.433128,-1.509748,-0.277153,2.059655,0.154082,0.034164,0.337763,-0.091268,-0.245767,-0.167923,0.562770,0.096363,0.205121,-38.977314,6.167099,17.463560,0.201810,1.721298,0.034652,0.000000,0.000000,0.000000,0.000000,0.000000,0.000000
12425854.000000,-0.342640,0.609275,0.433040,-1.509991,-0.277326,2.060224,0.154180,0.032504,0.346366,-0.089677,-0.241358,-0.168941,0.558520,0.100875,0.177350,-39.048725,6.143295,17.388182,0.219205,1.708480,0.034652,0.000000,0.000000,0.000000,0.000000,0.000000,0.000000
12425855.000000,-0.342610,0.609624,0.432954,-1.510242,-0.277498,2.060780,0.154278,0.029878,0.344180,-0.088759,-0.240818,-0.168912,0.555722,0.097513,0.205121,-39.124104,6.119492,17.435789,0.219205,1.714889,0.074935,0.000000,0.000000,0.000000,0.000000,0.000000,0.000000
12425856.000000,-0.342577,0.609968,0.432867,-1.510489,-0.277662,2.061348,0.154386,0.032273,0.338201,-0.088148,-0.243041,-0.168425,0.558081,0.103253,0.228925,-39.171711,6.095688,17.435789,0.201810,1.689254,0.015426,0.000000,0.000000,0.000000,0.000000,0.000000,0.000000
12425857.000000,-0.342539,0.610297,0.432778,-1.510740,-0.277830,2.061917,0.154483,0.032263,0.337225,-0.088246,-0.244736,-0.169069,0.555655,0.100747,0.153547,-39.048725,6.095688,17.435789,0.213712,1.695663,0.021835,0.000000,0.000000,0.000000,0.000000,0.000000,0.000000
12425858.000000,-0.342507,0.610638,0.432691,-1.510993,-0.277995,2.062477,0.154577,0.029707,0.334554,-0.085123,-0.244257,-0.164512,0.562038,0.097260,0.177350,-39.001118,6.095688,17.511168,0.213712,1.721298,0.074935,0.000000,0.000000,0.000000,0.000000,0.000000,0.000000
12425859.000000,-0.342469,0.610981,0.432604,-1.511239,-0.278154,2.063045,0.154680,0.033311,0.345551,-0.085103,-0.242952,-0.159542,0.565115,0.103704,0.105939,-38.977314,6.067917,17.562742,0.171598,1.754256,0.021835,0.000000,0.000000,0.000000,0.000000,0.000000,0.000000
12425860.000000,-0.342431,0.611318,0.432513,-1.511488,-0.278322,2.063604,0.154775,0.031726,0.339558,-0.086677,-0.240483,-0.161697,0.564864,0.104349,0.078168,-38.854328,6.095688,17.562742,0.166105,1.773483,0.061202,0.000000,0.000000,0.000000,0.000000,0.000000,0.000000
12425861.000000,-0.342390,0.611659,0.432423,-1.511731,-0.278495,2.064169,0.154874,0.032232,0.340402,-0.086435,-0.241182,-0.164130,0.565698,0.106945,0.006757,-38.806721,6.067917,17.562742,0.171598,1.767074,0.067611,0.000000,0.000000,0.000000,0.000000,0.000000,0.000000
12425862.000000,-0.342351,0.612004,0.432332,-1.511974,-0.278668,2.064735,0.154973,0.031433,0.346469,-0.086304,-0.242048,-0.166080,0.568094,0.103118,-0.044818,-38.830524,6.044113,17.511168,0.183500,1.727706,0.087753,0.000000,0.000000,0.000000,0.000000,0.000000,0.000000
12425863.000000,-0.342316,0.612345,0.432240,-1.512227,-0.278838,2.065296,0.155072,0.032630,0.341521,-0.090543,-0.243984,-0.167299,0.563885,0.101933,-0.044818,-38.755146,6.067917,17.511168,0.189908,1.702071,0.067611,0.000000,0.000000,0.000000,0.000000,0.000000,0.000000
12425864.000000,-0.342281,0.612695,0.432156,-1.512468,-0.279009,2.065853,0.155173,0.033508,0.340009,-0.084929,-0.240265,-0.169856,0.553593,0.100397,-0.044818,-38.778950,5.996506,17.435789,0.237516,1.702071,0.061202,0.000000,0.000000,0.000000,0.000000,0.000000,0.000000
12425865.000000,-0.342242,0.613048,0.432068,-1.512712,-0.279180,2.066405,0.155271,0.031860,0.340610,-0.088004,-0.242225,-0.168876,0.555962,0.098007,-0.068621,-38.878132,5.972702,17.435789,0.219205,1.735030,0.081344,0.000000,0.000000,0.000000,0.000000,0.000000,0.000000
12425866.000000,-0.342206,0.613396,0.431978,-1.512960,-0.279346,2.066962,0.155377,0.034333,0.343472,-0.088166,-0.251701,-0.171645,0.548838,0.098764,-0.068621,-38.977314,5.972702,17.534971,0.189908,1.754256,0.054794,0.000000,0.000000,0.000000,0.000000,0.000000,0.000000
12425867.000000,-0.342169,0.613744,0.431889,-1.513206,-0.279518,2.067534,0.155478,0.035654,0.346291,-0.088124,-0.248187,-0.175150,0.553695,0.101869,-0.092425,-39.072529,5.972702,17.562742,0.166105,1.741439,0.067611,0.000000,0.000000,0.000000,0.000000,0.000000,0.000000
12425868.000000,-0.342133,0.614089,0.431799,-1.513464,-0.279700,2.068092,0.155587,0.035482,0.344217,-0.088212,-0.251464,-0.173490,0.552933,0.101538,-0.068621,-39.147907,5.972702,17.709532,0.154203,1.735030,0.021835,0.000000,0.000000,0.000000,0.000000,0.000000,0.000000
12425869.000000,-0.342101,0.614437,0.431708,-1.513712,-0.279881,2.068654,0.155688,0.035544,0.344399,-0.088589,-0.248191,-0.173296,0.554015,0.099392,-0.017047,-39.147907,5.996506,17.757139,0.171598,1.747848,0.028243,0.000000,0.000000,0.000000,0.000000,0.000000,0.000000
12425870.000000,-0.342072,0.614779,0.431622,-1.513976,-0.280065,2.069208,0.155785,0.033932,0.338027,-0.087452,-0.252965,-0.177856,0.561288,0.101732,0.078168,-39.147907,5.948898,17.955503,0.195402,1.812850,0.067611,0.000000,0.000000,0.000000,0.000000,0.000000,0.000000
12425871.000000,-0.342035,0.615122,0.431532,-1.514231,-0.280247,2.069774,0.155894,0.031911,0.337826,-0.087102,-0.253164,-0.178145,0.562051,0.106442,0.078168,-39.072529,5.921127,18.030882,0.255826,1.825668,0.021835,0.000000,0.000000,0.000000,0.000000,0.000000,0.000000
12425872.000000,-0.341999,0.615464,0.431433,-1.514482,-0.280424,2.070344,0.155992,0.033496,0.344441,-0.090117,-0.255178,-0.176160,0.558364,0.104290,0.078168,-39.048725,6.044113,18.177671,0.261320,1.819259,0.081344,0.000000,0.000000,0.000000,0.000000,0.000000,0.000000
12425873.000000,-0.341963,0.615809,0.431342,-1.514738,-0.280601,2.070903,0.156100,0.034172,0.345430,-0.090075,-0.254375,-0.178953,0.562423,0.108143,0.105939,-39.048725,6.067917,18.253050,0.261320,1.773483,0.034652,0.000000,0.000000,0.000000,0.000000,0.000000,0.000000
12425874.000000,-0.341929,0.616162,0.431256,-1.514994,-0.280778,2.071463,0.156201,0.035588,0.345482,-0.091999,-0.256099,-0.180078,0.561234,0.105868,0.129743,-39.048725,6.044113,18.399839,0.225614,1.793624,0.028243,0.000000,0.000000,0.000000,0.000000,0.000000,0.000000
12425875.000000,-0.341895,0.616506,0.431165,-1.515242,-0.280961,2.072021,0.156304,0.035651,0.342371,-0.090983,-0.253610,-0.182887,0.561661,0.102406,0.153547,-39.048725,6.044113,18.399839,0.243009,1.819259,0.041976,0.000000,0.000000,0.000000,0.000000,0.000000,0.000000
12425876.000000,-0.341862,0.616867,0.431074,-1.515493,-0.281140,2.072571,0.156409,0.032533,0.349600,-0.090862,-0.251785,-0.179643,0.556610,0.105599,0.177350,-39.195515,6.067917,18.376036,0.243009,1.865035,0.041976,0.000000,0.000000,0.000000,0.000000,0.000000,0.000000
12425877.000000,-0.341826,0.617222,0.430980,-1.515745,-0.281315,2.073115,0.156509,0.030146,0.351200,-0.093636,-0.248645,-0.177258,0.547605,0.102171,0.205121,-39.247089,6.095688,18.427610,0.243009,1.877853,0.061202,0.000000,0.000000,0.000000,0.000000,0.000000,0.000000
12425878.000000,-0.341794,0.617569,0.430893,-1.515995,-0.281491,2.073665,0.156621,0.027910,0.350404,-0.094136,-0.245650,-0.174990,0.548939,0.102002,0.252729,-39.270893,6.044113,18.475218,0.243009,1.851302,0.021835,0.000000,0.000000,0.000000,0.000000,0.000000,0.000000
12425879.000000,-0.341762,0.617923,0.430798,-1.516243,-0.281663,2.074221,0.156723,0.029290,0.348229,-0.093225,-0.253203,-0.172843,0.550955,0.098602,0.304304,-39.270893,6.067917,18.550596,0.219205,1.786300,0.061202,0.000000,0.000000,0.000000,0.000000,0.000000,0.000000
12425880.000000,-0.341727,0.618277,0.430701,-1.516495,-0.281836,2.074775,0.156828,0.031595,0.351443,-0.093074,-0.250142,-0.172399,0.554485,0.102811,0.304304,-39.417683,6.119492,18.625975,0.225614,1.786300,0.067611,0.000000,0.000000,0.000000,0.000000,0.000000,0.000000
12425881.000000,-0.341695,0.618625,0.430603,-1.516743,-0.282014,2.075316,0.156933,0.032608,0.348056,-0.093397,-0.246936,-0.172227,0.550429,0.101646,0.328107,-39.342304,6.190903,18.649778,0.237516,1.832076,0.041976,0.000000,0.000000,0.000000,0.000000,0.000000,0.000000
12425882.000000,-0.341668,0.618976,0.430512,-1.516990,-0.282194,2.075855,0.157030,0.031460,0.344903,-0.091195,-0.249572,-0.176681,0.545247,0.100592,0.427289,-39.366108,6.167099,18.748960,0.243009,1.897079,0.048385,0.000000,0.000000,0.000000,0.000000,0.000000,0.000000
12425883.000000,-0.341635,0.619320,0.430414,-1.517243,-0.282377,2.076395,0.157137,0.032778,0.343399,-0.095229,-0.249983,-0.176061,0.539527,0.100456,0.451093,-39.294697,6.242477,18.796568,0.279630,1.930038,0.015426,0.000000,0.000000,0.000000,0.000000,0.000000,0.000000
12425884.000000,-0.341598,0.619677,0.430319,-1.517499,-0.282548,2.076945,0.157233,0.034793,0.340692,-0.099442,-0.255077,-0.178391,0.542064,0.101704,0.427289,-39.318501,6.242477,18.947325,0.285123,1.916305,0.061202,0.000000,0.000000,0.000000,0.000000,0.000000,0.000000
12425885.000000,-0.341565,0.620019,0.430217,-1.517747,-0.282717,2.077504,0.157338,0.035752,0.342870,-0.098737,-0.252333,-0.175098,0.549638,0.101178,0.427289,-39.195515,6.341660,19.070311,0.255826,1.865035,0.028243,0.000000,0.000000,0.000000,0.000000,0.000000,0.000000
12425886.000000,-0.341530,0.620366,0.430127,-1.518001,-0.282894,2.078033,0.157436,0.035704,0.340468,-0.097756,-0.254115,-0.169461,0.542591,0.098589,0.451093,-39.048725,6.290085,19.217100,0.267728,1.903487,0.048385,0.000000,0.000000,0.000000,0.000000,0.000000,0.000000
12425887.000000,-0.341493,0.620716,0.430024,-1.518241,-0.283061,2.078569,0.157540,0.037826,0.341269,-0.096983,-0.247596,-0.169293,0.533775,0.098507,0.427289,-39.001118,6.365463,19.169493,0.261320,2.007858,0.021835,0.000000,0.000000,0.000000,0.000000,0.000000,0.000000
12425888.000000,-0.341461,0.621069,0.429926,-1.518486,-0.283233,2.079112,0.157640,0.033544,0.345540,-0.094529,-0.244088,-0.168508,0.540933,0.097233,0.474897,-38.953510,6.365463,19.169493,0.243009,2.079269,0.028243,0.000000,0.000000,0.000000,0.000000,0.000000,0.000000
12425889.000000,-0.341424,0.621419,0.429820,-1.518732,-0.283408,2.079659,0.157739,0.035140,0.344367,-0.101314,-0.250869,-0.173316,0.549234,0.095111,0.451093,-38.901936,6.460678,19.193296,0.231107,2.053634,0.067611,0.000000,0.000000,0.000000,0.000000,0.000000,0.000000
12425890.000000,-0.341391,0.621775,0.429721,-1.518978,-0.283582,2.080213,0.157847,0.035784,0.353287,-0.098160,-0.247813,-0.172791,0.550790,0.102604,0.451093,-38.901936,6.488449,19.240904,0.237516,1.981307,0.009017,0.000000,0.000000,0.000000,0.000000,0.000000,0.000000
12425891.000000,-0.341358,0.622126,0.429622,-1.519219,-0.283756,2.080755,0.157951,0.032588,0.348730,-0.097115,-0.244108,-0.172086,0.551548,0.104176,0.474897,-38.925739,6.559860,19.240904,0.243009,1.936446,0.041976,0.000000,0.000000,0.000000,0.000000,0.000000,0.000000
12425892.000000,-0.341328,0.622480,0.429532,-1.519450,-0.283927,2.081307,0.158056,0.032176,0.349211,-0.095345,-0.242509,-0.177870,0.549112,0.106659,0.550275,-38.977314,6.460678,19.268675,0.285123,1.936446,0.021835,0.000000,0.000000,0.000000,0.000000,0.000000,0.000000
12425893.000000,-0.341295,0.622835,0.429430,-1.519688,-0.284099,2.081861,0.158155,0.033180,0.346234,-0.094730,-0.237653,-0.176177,0.552794,0.106335,0.574079,-39.024921,6.512253,19.292479,0.297025,1.949264,0.074935,0.000000,0.000000,0.000000,0.000000,0.000000,0.000000
12425894.000000,-0.341251,0.623189,0.429331,-1.519921,-0.284270,2.082410,0.158262,0.039162,0.346965,-0.096697,-0.233008,-0.169589,0.549800,0.104323,0.502668,-39.072529,6.536057,19.268675,0.291532,1.981307,0.061202,0.000000,0.000000,0.000000,0.000000,0.000000,0.000000
12425895.000000,-0.341216,0.623546,0.429231,-1.520152,-0.284437,2.082959,0.158372,0.038776,0.357103,-0.097954,-0.230169,-0.167905,0.538258,0.108091,0.502668,-39.024921,6.559860,19.268675,0.243009,1.981307,0.021835,0.000000,0.000000,0.000000,0.000000,0.000000,0.000000
12425896.000000,-0.341181,0.623904,0.429132,-1.520394,-0.284614,2.083509,0.158478,0.037890,0.361229,-0.098529,-0.233566,-0.170889,0.537174,0.104156,0.526471,-39.171711,6.559860,19.391661,0.195402,1.949264,0.041976,0.000000,0.000000,0.000000,0.000000,0.000000,0.000000
12425897.000000,-0.341138,0.624262,0.429030,-1.520623,-0.284798,2.084067,0.158580,0.042716,0.359588,-0.099579,-0.235306,-0.172910,0.540938,0.105805,0.451093,-39.147907,6.583664,19.363890,0.249418,1.909896,0.081344,0.000000,0.000000,0.000000,0.000000,0.000000,0.000000
12425898.000000,-0.341096,0.624615,0.428930,-1.520855,-0.284980,2.084615,0.158689,0.043118,0.356910,-0.099780,-0.232523,-0.178144,0.544259,0.105540,0.375715,-39.171711,6.583664,19.391661,0.285123,1.968490,0.054794,0.000000,0.000000,0.000000,0.000000,0.000000,0.000000
12425899.000000,-0.341061,0.624972,0.428836,-1.521079,-0.285163,2.085161,0.158802,0.040802,0.356382,-0.098821,-0.225690,-0.182333,0.539883,0.110241,0.403486,-39.124104,6.536057,19.363890,0.327238,1.974899,-0.011124,0.000000,0.000000,0.000000,0.000000,0.000000,0.000000
12425900.000000,-0.341026,0.625335,0.428741,-1.521308,-0.285338,2.085706,0.158903,0.038584,0.357712,-0.098607,-0.228918,-0.179557,0.544375,0.108424,0.451093,-39.124104,6.512253,19.391661,0.339139,1.981307,0.054794,0.000000,0.000000,0.000000,0.000000,0.000000,0.000000
12425901.000000,-0.340979,0.625688,0.428642,-1.521529,-0.285510,2.086245,0.159015,0.044396,0.358359,-0.099838,-0.224327,-0.175141,0.548222,0.109117,0.328107,-39.124104,6.536057,19.292479,0.297025,2.020675,0.067611,0.000000,0.000000,0.000000,0.000000,0.000000,0.000000
12425902.000000,-0.340937,0.626061,0.428548,-1.521748,-0.285679,2.086794,0.159138,0.044841,0.360795,-0.098298,-0.226478,-0.171534,0.552389,0.114056,0.276533,-39.247089,6.460678,19.169493,0.231107,2.020675,-0.017533,0.000000,0.000000,0.000000,0.000000,0.000000,0.000000
12425903.000000,-0.340898,0.626429,0.428451,-1.521968,-0.285857,2.087357,0.159238,0.043930,0.362452,-0.098905,-0.227156,-0.174155,0.557258,0.111540,0.228925,-39.465290,6.460678,19.094114,0.178007,1.988631,0.061202,0.000000,0.000000,0.000000,0.000000,0.000000,0.000000
12425904.000000,-0.340859,0.626799,0.428360,-1.522190,-0.286037,2.087903,0.159351,0.041529,0.367698,-0.097796,-0.223049,-0.173353,0.555969,0.113527,0.252729,-39.588276,6.389267,18.971128,0.183500,1.949264,0.028243,0.000000,0.000000,0.000000,0.000000,0.000000,0.000000
12425905.000000,-0.340820,0.627171,0.428262,-1.522410,-0.286213,2.088461,0.159460,0.039876,0.365583,-0.095565,-0.221977,-0.173166,0.552103,0.114052,0.276533,-39.758869,6.389267,18.919554,0.195402,1.949264,0.015426,0.000000,0.000000,0.000000,0.000000,0.000000,0.000000
12425906.000000,-0.340778,0.627538,0.428163,-1.522629,-0.286395,2.089023,0.159569,0.040362,0.366108,-0.099616,-0.217815,-0.175031,0.562682,0.112894,0.228925,-39.858051,6.365463,18.871946,0.267728,1.923629,0.041976,0.000000,0.000000,0.000000,0.000000,0.000000,0.000000
12425907.000000,-0.340737,0.627915,0.428062,-1.522850,-0.286574,2.089582,0.159678,0.039482,0.364389,-0.101688,-0.221984,-0.174873,0.563493,0.109017,0.228925,-40.052448,6.436874,18.848143,0.297025,1.909896,0.034652,0.000000,0.000000,0.000000,0.000000,0.000000,0.000000
12425908.000000,-0.340694,0.628283,0.427968,-1.523066,-0.286745,2.090141,0.159779,0.039502,0.370653,-0.100585,-0.217509,-0.173283,0.559279,0.104228,0.205121,-40.052448,6.413071,18.796568,0.297025,1.884261,0.074935,0.000000,0.000000,0.000000,0.000000,0.000000,0.000000
12425909.000000,-0.340648,0.628651,0.427876,-1.523284,-0.286916,2.090692,0.159893,0.041379,0.367157,-0.100075,-0.214270,-0.169833,0.560862,0.109129,0.105939,-40.052448,6.389267,18.772764,0.237516,1.877853,0.001693,0.000000,0.000000,0.000000,0.000000,0.000000,0.000000
12425910.000000,-0.340599,0.629016,0.427780,-1.523496,-0.287093,2.091250,0.159999,0.041914,0.362807,-0.099207,-0.212210,-0.173399,0.556491,0.111209,0.030561,-39.981037,6.341660,18.748960,0.201810,1.871444,-0.004716,0.000000,0.000000,0.000000,0.000000,0.000000,0.000000
12425911.000000,-0.340550,0.629372,0.427685,-1.523706,-0.287273,2.091794,0.160094,0.046015,0.361085,-0.095906,-0.208198,-0.172002,0.550811,0.109747,-0.068621,-39.782673,6.313889,18.625975,0.183500,1.949264,0.067611,0.000000,0.000000,0.000000,0.000000,0.000000,0.000000
12425912.000000,-0.340505,0.629740,0.427587,-1.523917,-0.287454,2.092333,0.160206,0.047089,0.360895,-0.097988,-0.206223,-0.175919,0.543118,0.112748,-0.092425,-39.782673,6.341660,18.526793,0.171598,2.007858,0.021835,0.000000,0.000000,0.000000,0.000000,0.000000,0.000000
12425913.000000,-0.340466,0.630113,0.427496,-1.524122,-0.287633,2.092876,0.160314,0.046155,0.371230,-0.096172,-0.205884,-0.175751,0.539137,0.112093,-0.044818,-39.735065,6.242477,18.475218,0.201810,1.981307,0.041976,0.000000,0.000000,0.000000,0.000000,0.000000,0.000000
12425914.000000,-0.340419,0.630479,0.427397,-1.524325,-0.287811,2.093419,0.160426,0.048170,0.369447,-0.100031,-0.205205,-0.174358,0.541642,0.113449,-0.092425,-39.758869,6.242477,18.427610,0.213712,1.968490,0.015426,0.000000,0.000000,0.000000,0.000000,0.000000,0.000000
12425915.000000,-0.340370,0.630856,0.427293,-1.524525,-0.287983,2.093973,0.160529,0.045910,0.371148,-0.099527,-0.209550,-0.177357,0.541295,0.111864,-0.116229,-39.810444,6.341660,18.328428,0.225614,1.884261,0.054794,0.000000,0.000000,0.000000,0.000000,0.000000,0.000000
12425916.000000,-0.340327,0.631229,0.427201,-1.524729,-0.288161,2.094530,0.160640,0.046268,0.368469,-0.098462,-0.208252,-0.175230,0.542900,0.109752,-0.092425,-39.957233,6.290085,18.276854,0.219205,1.865035,0.009017,0.000000,0.000000,0.000000,0.000000,0.000000,0.000000
12425917.000000,-0.340283,0.631602,0.427106,-1.524933,-0.288343,2.095075,0.160745,0.042851,0.370850,-0.098484,-0.203698,-0.177834,0.539220,0.110211,-0.044818,-40.004841,6.266281,18.229246,0.201810,1.851302,0.015426,0.000000,0.000000,0.000000,0.000000,0.000000,0.000000
12425918.000000,-0.340232,0.631980,0.427007,-1.525131,-0.288520,2.095625,0.160848,0.046126,0.369591,-0.096434,-0.201096,-0.175146,0.540147,0.106633,-0.116229,-40.076252,6.290085,18.205442,0.183500,1.838485,0.041976,0.000000,0.000000,0.000000,0.000000,0.000000,0.000000
12425919.000000,-0.340180,0.632347,0.426908,-1.525334,-0.288705,2.096164,0.160955,0.045732,0.370482,-0.094900,-0.201761,-0.179574,0.550887,0.104282,-0.191607,-40.076252,6.313889,18.153868,0.213712,1.884261,0.028243,0.000000,0.000000,0.000000,0.000000,0.000000,0.000000
12425920.000000,-0.340136,0.632721,0.426814,-1.525537,-0.288884,2.096715,0.161055,0.045987,0.368270,-0.095800,-0.205725,-0.182182,0.550791,0.099886,-0.167803,-39.981037,6.290085,18.153868,0.219205,1.865035,0.074935,0.000000,0.000000,0.000000,0.000000,0.000000,0.000000
12425921.000000,-0.340093,0.633083,0.426715,-1.525738,-0.289058,2.097264,0.161163,0.046355,0.375296,-0.096290,-0.204055,-0.182458,0.544127,0.100602,-0.144000,-39.881855,6.266281,18.205442,0.183500,1.877853,0.021835,0.000000,0.000000,0.000000,0.000000,0.000000,0.000000
12425922.000000,-0.340046,0.633454,0.426621,-1.525934,-0.289236,2.097799,0.161267,0.047233,0.375376,-0.096329,-0.201265,-0.180556,0.541079,0.098925,-0.144000,-39.735065,6.218674,18.205442,0.219205,1.851302,0.021835,0.000000,0.000000,0.000000,0.000000,0.000000,0.000000
12425923.000000,-0.339993,0.633821,0.426521,-1.526132,-0.289413,2.098340,0.161374,0.049622,0.369722,-0.098043,-0.202294,-0.181492,0.535577,0.102296,-0.215411,-39.635883,6.242477,18.177671,0.189908,1.884261,0.009017,0.000000,0.000000,0.000000,0.000000,0.000000,0.000000
12425924.000000,-0.339949,0.634189,0.426424,-1.526328,-0.289599,2.098886,0.161475,0.048509,0.372184,-0.098233,-0.198430,-0.179037,0.544695,0.102576,-0.167803,-39.512897,6.218674,18.106260,0.201810,1.877853,0.074935,0.000000,0.000000,0.000000,0.000000,0.000000,0.000000
12425925.000000,-0.339908,0.634565,0.426329,-1.526520,-0.289782,2.099422,0.161589,0.043901,0.373924,-0.098897,-0.195280,-0.176821,0.543673,0.106630,-0.092425,-39.564472,6.218674,18.007078,0.207303,1.916305,0.041976,0.000000,0.000000,0.000000,0.000000,0.000000,0.000000
12425926.000000,-0.339864,0.634943,0.426234,-1.526704,-0.289958,2.099961,0.161699,0.044554,0.378878,-0.096101,-0.187738,-0.175144,0.538283,0.106082,-0.044818,-39.564472,6.218674,17.832518,0.207303,1.930038,0.009017,0.000000,0.000000,0.000000,0.000000,0.000000,0.000000
12425927.000000,-0.339815,0.635307,0.426140,-1.526898,-0.290138,2.100505,0.161803,0.043573,0.373785,-0.096706,-0.191031,-0.178439,0.547611,0.101509,-0.068621,-39.540668,6.190903,17.757139,0.207303,1.858627,0.054794,0.000000,0.000000,0.000000,0.000000,0.000000,0.000000
12425928.000000,-0.339773,0.635681,0.426038,-1.527091,-0.290309,2.101060,0.161910,0.041008,0.370753,-0.099000,-0.193332,-0.175939,0.550127,0.104896,-0.017047,-39.564472,6.242477,17.709532,0.195402,1.773483,0.028243,0.000000,0.000000,0.000000,0.000000,0.000000,0.000000
12425929.000000,-0.339726,0.636049,0.425941,-1.527283,-0.290483,2.101615,0.162017,0.040292,0.368366,-0.098860,-0.189794,-0.178835,0.549675,0.101955,-0.017047,-39.564472,6.218674,17.685728,0.183500,1.754256,0.034652,0.000000,0.000000,0.000000,0.000000,0.000000,0.000000
12425930.000000,-0.339685,0.636418,0.425848,-1.527469,-0.290667,2.102156,0.162128,0.041093,0.365684,-0.098169,-0.187093,-0.176849,0.547315,0.105598,0.054365,-39.540668,6.167099,17.661924,0.189908,1.786300,0.021835,0.000000,0.000000,0.000000,0.000000,0.000000,0.000000
12425931.000000,-0.339638,0.636793,0.425750,-1.527647,-0.290850,2.102696,0.162232,0.040811,0.366822,-0.098736,-0.182576,-0.180224,0.539742,0.102011,0.030561,-39.489094,6.167099,17.534971,0.195402,1.819259,0.041976,0.000000,0.000000,0.000000,0.000000,0.000000,0.000000
12425932.000000,-0.339590,0.637154,0.425654,-1.527837,-0.291027,2.103239,0.162338,0.040724,0.363158,-0.099364,-0.185433,-0.176579,0.541016,0.105496,0.006757,-39.393879,6.190903,17.534971,0.178007,1.832076,0.041976,0.000000,0.000000,0.000000,0.000000,0.000000,0.000000
12425933.000000,-0.339552,0.637524,0.425556,-1.528014,-0.291203,2.103788,0.162447,0.036532,0.365381,-0.100353,-0.184375,-0.182695,0.538291,0.104516,0.153547,-39.247089,6.218674,17.435789,0.159696,1.812850,0.009017,0.000000,0.000000,0.000000,0.000000,0.000000,0.000000
12425934.000000,-0.339510,0.637881,0.425464,-1.528192,-0.291380,2.104349,0.162549,0.039018,0.360108,-0.095996,-0.182118,-0.179383,0.541884,0.106850,0.205121,-39.048725,6.167099,17.364378,0.154203,1.767074,0.048385,0.000000,0.000000,0.000000,0.000000,0.000000,0.000000
12425935.000000,-0.339465,0.638251,0.425367,-1.528373,-0.291558,2.104895,0.162660,0.038325,0.360445,-0.097857,-0.181297,-0.181837,0.540101,0.109682,0.228925,-38.878132,6.190903,17.340574,0.159696,1.714889,0.021835,0.000000,0.000000,0.000000,0.000000,0.000000,0.000000
12425936.000000,-0.339416,0.638631,0.425271,-1.528543,-0.291741,2.105438,0.162766,0.038954,0.362667,-0.095274,-0.177841,-0.184517,0.543424,0.105653,0.205121,-38.925739,6.190903,17.189817,0.183500,1.754256,0.028243,0.000000,0.000000,0.000000,0.000000,0.000000,0.000000
12425937.000000,-0.339374,0.639006,0.425175,-1.528715,-0.291927,2.105972,0.162871,0.041340,0.366052,-0.093509,-0.172221,-0.184449,0.552808,0.101671,0.228925,-38.925739,6.190903,17.066832,0.159696,1.812850,0.061202,0.000000,0.000000,0.000000,0.000000,0.000000,0.000000
12425938.000000,-0.339329,0.639380,0.425084,-1.528888,-0.292113,2.106517,0.162984,0.040442,0.360854,-0.093707,-0.175755,-0.185378,0.551744,0.107181,0.228925,-38.925739,6.119492,17.019224,0.154203,1.806442,0.009017,0.000000,0.000000,0.000000,0.000000,0.000000,0.000000
12425939.000000,-0.339285,0.639757,0.424983,-1.529057,-0.292301,2.107074,0.163084,0.041073,0.374644,-0.096582,-0.173813,-0.186522,0.552408,0.102943,0.228925,-39.024921,6.167099,17.019224,0.159696,1.735030,0.061202,0.000000,0.000000,0.000000,0.000000,0.000000,0.000000
12425940.000000,-0.339242,0.640134,0.424884,-1.529227,-0.292488,2.107610,0.163193,0.042808,0.369338,-0.095071,-0.171138,-0.186878,0.546658,0.106775,0.252729,-39.100300,6.190903,16.991453,0.159696,1.721298,0.028243,0.000000,0.000000,0.000000,0.000000,0.000000,0.000000
12425941.000000,-0.339196,0.640516,0.424786,-1.529399,-0.292668,2.108158,0.163296,0.041055,0.372884,-0.093911,-0.170089,-0.187224,0.544252,0.102249,0.276533,-39.219318,6.218674,16.991453,0.154203,1.754256,0.054794,0.000000,0.000000,0.000000,0.000000,0.000000,0.000000
12425942.000000,-0.339156,0.640890,0.424690,-1.529575,-0.292850,2.108713,0.163406,0.041719,0.369619,-0.092365,-0.170637,-0.183101,0.545764,0.106192,0.351911,-39.219318,6.218674,17.043028,0.159696,1.727706,0.015426,0.000000,0.000000,0.000000,0.000000,0.000000,0.000000
12425943.000000,-0.339111,0.641265,0.424591,-1.529748,-0.293037,2.109262,0.163508,0.040810,0.367232,-0.094952,-0.170832,-0.185204,0.541230,0.107325,0.351911,-39.270893,6.242477,17.090635,0.171598,1.721298,0.041976,0.000000,0.000000,0.000000,0.000000,0.000000,0.000000
12425944.000000,-0.339061,0.641643,0.424492,-1.529920,-0.293223,2.109811,0.163610,0.044419,0.375940,-0.096140,-0.167457,-0.186107,0.537388,0.104472,0.304304,-39.219318,6.242477,17.142210,0.171598,1.702071,0.041976,0.000000,0.000000,0.000000,0.000000,0.000000,0.000000
12425945.000000,-0.339014,0.642019,0.424392,-1.530092,-0.293414,2.110349,0.163718,0.043386,0.373633,-0.095171,-0.167541,-0.182204,0.540377,0.103089,0.276533,-39.294697,6.290085,17.166014,0.183500,1.689254,0.009017,0.000000,0.000000,0.000000,0.000000,0.000000,0.000000
12425946.000000,-0.338974,0.642402,0.424296,-1.530262,-0.293595,2.110888,0.163817,0.041315,0.372809,-0.096484,-0.167193,-0.178536,0.535292,0.103727,0.351911,-39.294697,6.290085,17.166014,0.171598,1.727706,0.067611,0.000000,0.000000,0.000000,0.000000,0.000000,0.000000
12425947.000000,-0.338929,0.642775,0.424193,-1.530444,-0.293779,2.111424,0.163930,0.040525,0.373045,-0.100616,-0.166904,-0.177376,0.532200,0.108331,0.351911,-39.294697,6.290085,17.312803,0.195402,1.760665,0.028243,0.000000,0.000000,0.000000,0.000000,0.000000,0.000000
12425948.000000,-0.338882,0.643160,0.424091,-1.530607,-0.293963,2.111953,0.164035,0.039793,0.374153,-0.101139,-0.164099,-0.175875,0.531378,0.109301,0.351911,-39.342304,6.313889,17.213621,0.207303,1.747848,0.041976,0.000000,0.000000,0.000000,0.000000,0.000000,0.000000
12425949.000000,-0.338841,0.643545,0.423988,-1.530776,-0.294138,2.112475,0.164142,0.038551,0.375385,-0.098893,-0.165799,-0.172976,0.523853,0.104825,0.375715,-39.393879,6.365463,17.265196,0.171598,1.767074,0.061202,0.000000,0.000000,0.000000,0.000000,0.000000,0.000000
12425950.000000,-0.338794,0.643924,0.423889,-1.530949,-0.294323,2.112995,0.164255,0.040877,0.379740,-0.101740,-0.165563,-0.175933,0.518832,0.108297,0.403486,-39.441486,6.365463,17.265196,0.154203,1.800033,0.028243,0.000000,0.000000,0.000000,0.000000,0.000000,0.000000
12425951.000000,-0.338751,0.644321,0.423788,-1.531121,-0.294511,2.113524,0.164359,0.042137,0.379483,-0.101368,-0.172013,-0.182051,0.516643,0.108320,0.451093,-39.687458,6.365463,17.289000,0.129484,1.800033,0.061202,0.000000,0.000000,0.000000,0.000000,0.000000,0.000000
12425952.000000,-0.338702,0.644696,0.423681,-1.531294,-0.294701,2.114065,0.164470,0.041699,0.377794,-0.102218,-0.170895,-0.184824,0.521592,0.112008,0.427289,-39.687458,6.413071,17.312803,0.154203,1.741439,0.009017,0.000000,0.000000,0.000000,0.000000,0.000000,0.000000
12425953.000000,-0.338660,0.645081,0.423576,-1.531470,-0.294892,2.114588,0.164574,0.042070,0.376743,-0.102268,-0.171200,-0.187721,0.523770,0.111521,0.502668,-39.711262,6.436874,17.388182,0.207303,1.714889,0.021835,0.000000,0.000000,0.000000,0.000000,0.000000,0.000000
12425954.000000,-0.338614,0.645469,0.423470,-1.531644,-0.295070,2.115113,0.164677,0.044295,0.380956,-0.102808,-0.171892,-0.182691,0.522365,0.106290,0.502668,-39.782673,6.488449,17.487364,0.195402,1.741439,0.081344,0.000000,0.000000,0.000000,0.000000,0.000000,0.000000
12425955.000000,-0.338572,0.645851,0.423364,-1.531819,-0.295250,2.115645,0.164785,0.044744,0.377734,-0.105910,-0.174062,-0.180008,0.533588,0.104238,0.550275,-39.735065,6.512253,17.511168,0.213712,1.760665,0.061202,0.000000,0.000000,0.000000,0.000000,0.000000,0.000000
12425956.000000,-0.338524,0.646236,0.423259,-1.531998,-0.295429,2.116165,0.164894,0.046724,0.378859,-0.108183,-0.174171,-0.181848,0.531092,0.106957,0.526471,-39.711262,6.536057,17.610350,0.201810,1.786300,0.061202,0.000000,0.000000,0.000000,0.000000,0.000000,0.000000
12425957.000000,-0.338480,0.646622,0.423153,-1.532171,-0.295608,2.116695,0.165006,0.047117,0.382638,-0.106570,-0.173073,-0.176833,0.528664,0.105526,0.550275,-39.588276,6.559860,17.661924,0.147794,1.806442,0.015426,0.000000,0.000000,0.000000,0.000000,0.000000,0.000000
12425958.000000,-0.338436,0.647000,0.423048,-1.532350,-0.295793,2.117212,0.165114,0.043791,0.382205,-0.106266,-0.174108,-0.179203,0.523143,0.105671,0.601850,-39.512897,6.611435,17.808714,0.135892,1.825668,0.054794,0.000000,0.000000,0.000000,0.000000,0.000000,0.000000
12425959.000000,-0.338395,0.647388,0.422948,-1.532520,-0.295981,2.117732,0.165232,0.043270,0.381746,-0.104014,-0.173312,-0.183205,0.520606,0.108426,0.697065,-39.417683,6.583664,17.884092,0.171598,1.903487,0.015426,0.000000,0.000000,0.000000,0.000000,0.000000,0.000000
12425960.000000,-0.338350,0.647770,0.422841,-1.532692,-0.296166,2.118257,0.165341,0.041531,0.380851,-0.104243,-0.171773,-0.184496,0.516974,0.108867,0.724836,-39.441486,6.635239,17.907896,0.166105,1.949264,0.041976,0.000000,0.000000,0.000000,0.000000,0.000000,0.000000
12425961.000000,-0.338305,0.648157,0.422734,-1.532869,-0.296353,2.118786,0.165450,0.043327,0.381674,-0.104358,-0.171922,-0.181951,0.522001,0.109445,0.748639,-39.417683,6.682846,17.983274,0.195402,1.884261,0.054794,0.000000,0.000000,0.000000,0.000000,0.000000,0.000000
12425962.000000,-0.338264,0.648544,0.422624,-1.533044,-0.296529,2.119322,0.165564,0.044125,0.391642,-0.107371,-0.172350,-0.177886,0.524696,0.108269,0.796247,-39.441486,6.734421,18.078489,0.166105,1.825668,0.021835,0.000000,0.000000,0.000000,0.000000,0.000000,0.000000
12425963.000000,-0.338219,0.648933,0.422518,-1.533211,-0.296712,2.119840,0.165668,0.042065,0.392868,-0.108733,-0.169424,-0.183704,0.521527,0.107439,0.824018,-39.540668,6.734421,18.054686,0.129484,1.800033,0.081344,0.000000,0.000000,0.000000,0.000000,0.000000,0.000000
12425964.000000,-0.338173,0.649323,0.422405,-1.533379,-0.296907,2.120364,0.165784,0.044285,0.389182,-0.110946,-0.172111,-0.185662,0.520846,0.106287,0.824018,-39.612080,6.782028,18.106260,0.141385,1.851302,0.028243,0.000000,0.000000,0.000000,0.000000,0.000000,0.000000
12425965.000000,-0.338130,0.649709,0.422296,-1.533553,-0.297107,2.120888,0.165894,0.042261,0.389264,-0.108679,-0.171060,-0.188175,0.520018,0.108923,0.847822,-39.635883,6.805832,18.130064,0.183500,1.916305,0.001693,0.000000,0.000000,0.000000,0.000000,0.000000,0.000000
12425966.000000,-0.338088,0.650095,0.422189,-1.533732,-0.297300,2.121415,0.165995,0.039397,0.385721,-0.110229,-0.172506,-0.192935,0.521743,0.107189,0.923200,-39.635883,6.829636,18.253050,0.183500,1.930038,0.081344,0.000000,0.000000,0.000000,0.000000,0.000000,0.000000
12425967.000000,-0.338051,0.650496,0.422081,-1.533907,-0.297497,2.121946,0.166105,0.036142,0.392800,-0.108133,-0.173053,-0.188672,0.518278,0.111166,1.046186,-39.758869,6.853439,18.352232,0.225614,1.897079,0.021835,0.000000,0.000000,0.000000,0.000000,0.000000,0.000000
12425968.000000,-0.338008,0.650879,0.421971,-1.534084,-0.297687,2.122474,0.166207,0.039533,0.386887,-0.113474,-0.170843,-0.183645,0.524312,0.106066,1.069990,-39.711262,6.928818,18.499022,0.231107,1.806442,0.048385,0.000000,0.000000,0.000000,0.000000,0.000000,0.000000
12425969.000000,-0.337961,0.651268,0.421864,-1.534261,-0.297874,2.123008,0.166313,0.042434,0.387530,-0.111156,-0.173791,-0.188267,0.524829,0.107207,1.069990,-39.612080,6.976425,18.598204,0.225614,1.806442,0.067611,0.000000,0.000000,0.000000,0.000000,0.000000,0.000000
