chaoyuefei/paper-gmrm-data/robot_logs/s2_dq_mrm_min_0.30_log_20260314_172502.csv
# time_ms,q_0,q_1,q_2,q_3,q_4,q_5,q_6,dq_0,dq_1,dq_2,dq_3,dq_4,dq_5,dq_6,tau_J_0,tau_J_1,tau_J_2,tau_J_3,tau_J_4,tau_J_5,tau_J_6,O_dP_EE_c_0,O_dP_EE_c_1,O_dP_EE_c_2,O_dP_EE_c_3,O_dP_EE_c_4,O_dP_EE_c_5
11764575.000000,-2.418264,-1.662599,1.039426,-1.352481,1.798433,1.078667,-0.546412,-0.000613,0.000843,0.000838,0.000958,-0.000474,0.000224,-0.000358,-0.044818,41.578411,-20.953262,-5.848207,0.906766,1.337692,0.028243,0.000000,0.000000,0.000000,0.000000,0.000000,0.000000
11764576.000000,-2.418264,-1.662603,1.039426,-1.352483,1.798429,1.078666,-0.546413,-0.000409,-0.000644,0.000002,-0.000011,-0.000757,-0.000088,-0.000476,-0.044818,41.629986,-20.929459,-5.820436,0.918668,1.344100,0.034652,0.000000,0.000000,0.000000,0.000000,0.000000,0.000000
11764577.000000,-2.418266,-1.662601,1.039428,-1.352483,1.798435,1.078665,-0.546410,-0.000273,0.000777,0.001115,-0.000007,0.000615,-0.000296,0.000632,-0.044818,41.578411,-20.977066,-5.820436,0.888456,1.350509,0.009017,0.000000,0.000000,0.000000,0.000000,0.000000,0.000000
11764578.000000,-2.418264,-1.662604,1.039424,-1.352483,1.798435,1.078665,-0.546408,-0.000182,-0.000132,-0.000370,-0.000005,0.000172,-0.000197,0.000930,-0.044818,41.606182,-20.929459,-5.820436,0.894864,1.350509,-0.004716,0.000000,0.000000,0.000000,0.000000,0.000000,0.000000
11764579.000000,-2.418258,-1.662605,1.039426,-1.352482,1.798432,1.078665,-0.546419,0.010021,-0.002026,-0.000247,0.002614,0.000997,-0.001352,-0.000838,0.205121,41.554607,-20.929459,-5.796632,0.871061,1.383468,0.034652,0.000000,0.000000,0.000000,0.000000,0.000000,0.000000
11764580.000000,-2.418252,-1.662608,1.039430,-1.352481,1.798435,1.078660,-0.546424,0.017081,-0.006054,-0.000721,0.004427,-0.000028,-0.002470,-0.001912,1.292158,41.336407,-20.905655,-5.626039,0.763029,1.552840,-0.056901,0.000000,0.000000,0.000000,0.000000,0.000000,0.000000
11764581.000000,-2.418219,-1.662611,1.039440,-1.352477,1.798433,1.078658,-0.546457,0.027239,-0.005817,0.004973,0.004181,-0.000697,-0.000364,-0.012035,2.803693,40.967449,-20.877884,-5.376100,0.644010,1.786300,-0.031266,0.000000,0.000000,0.000000,0.000000,0.000000,0.000000
11764582.000000,-2.418173,-1.662606,1.039456,-1.352479,1.798420,1.078679,-0.546503,0.030542,-0.001172,0.005873,0.002560,-0.003083,0.006433,-0.023584,4.707990,40.380291,-20.830276,-5.054750,0.566190,1.890670,-0.023942,0.000000,0.000000,0.000000,0.000000,0.000000,0.000000
11764583.000000,-2.418113,-1.662607,1.039476,-1.352499,1.798389,1.078729,-0.546555,0.036572,-0.000714,0.008439,-0.007918,-0.014036,0.023357,-0.034565,6.592451,39.892315,-20.731094,-4.586610,0.613798,1.800033,-0.070634,0.000000,0.000000,0.000000,0.000000,0.000000,0.000000
11764584.000000,-2.418021,-1.662605,1.039504,-1.352523,1.798354,1.078810,-0.546636,0.050143,-0.000666,0.011175,-0.013007,-0.021332,0.040585,-0.046000,8.175397,39.400372,-20.659683,-4.213686,0.649503,1.572067,-0.031266,0.000000,0.000000,0.000000,0.000000,0.000000,0.000000
11764585.000000,-2.417916,-1.662601,1.039541,-1.352568,1.798306,1.078911,-0.546720,0.063544,0.002028,0.020047,-0.028200,-0.031076,0.064951,-0.060100,9.587750,38.912395,-20.608109,-3.745546,0.667814,1.396285,-0.103593,0.000000,0.000000,0.000000,0.000000,0.000000,0.000000
11764586.000000,-2.417799,-1.662596,1.039591,-1.352618,1.798238,1.079022,-0.546838,0.078478,0.003587,0.030551,-0.036497,-0.048385,0.083033,-0.078941,10.797772,38.448223,-20.584305,-3.400392,0.709928,1.337692,-0.064225,0.000000,0.000000,0.000000,0.000000,0.000000,0.000000
11764587.000000,-2.417671,-1.662595,1.039648,-1.352684,1.798164,1.079159,-0.546973,0.091066,0.004996,0.037810,-0.046561,-0.063191,0.105027,-0.099412,11.912580,38.103069,-20.536697,-3.027467,0.673307,1.305648,-0.083451,0.000000,0.000000,0.000000,0.000000,0.000000,0.000000
11764588.000000,-2.417530,-1.662590,1.039717,-1.352749,1.798073,1.079307,-0.547133,0.103316,0.006141,0.047223,-0.051434,-0.076216,0.121443,-0.118702,12.904401,37.761883,-20.536697,-2.904482,0.566190,1.416427,-0.037675,0.000000,0.000000,0.000000,0.000000,0.000000,0.000000
11764589.000000,-2.417383,-1.662575,1.039795,-1.352839,1.797957,1.079479,-0.547304,0.116550,0.008469,0.054524,-0.064158,-0.088163,0.138311,-0.131210,13.820844,37.369122,-20.536697,-2.682314,0.494779,1.552840,-0.023942,0.000000,0.000000,0.000000,0.000000,0.000000,0.000000
11764590.000000,-2.417206,-1.662563,1.039898,-1.352938,1.797823,1.079689,-0.547470,0.134740,0.008443,0.069662,-0.074479,-0.104794,0.162536,-0.142577,14.487348,37.051739,-20.683487,-2.559328,0.381254,1.630660,-0.103593,0.000000,0.000000,0.000000,0.000000,0.000000,0.000000
11764591.000000,-2.417024,-1.662544,1.040010,-1.353052,1.797662,1.079927,-0.547662,0.152664,0.013380,0.082715,-0.090680,-0.121709,0.184124,-0.156647,15.082440,36.658978,-20.782669,-2.460146,0.386747,1.617843,-0.017533,0.000000,0.000000,0.000000,0.000000,0.000000,0.000000
11764592.000000,-2.416823,-1.662523,1.040140,-1.353191,1.797479,1.080201,-0.547839,0.165447,0.013792,0.100323,-0.106262,-0.140482,0.212031,-0.161614,15.550580,36.270184,-20.953262,-2.261781,0.428861,1.526290,-0.097184,0.000000,0.000000,0.000000,0.000000,0.000000,0.000000
11764593.000000,-2.416588,-1.662502,1.040281,-1.353346,1.797273,1.080486,-0.548028,0.190105,0.017312,0.115976,-0.119115,-0.164255,0.236433,-0.169401,15.725141,35.877422,-21.123856,-2.138796,0.482877,1.474105,-0.077042,0.000000,0.000000,0.000000,0.000000,0.000000,0.000000
11764594.000000,-2.416355,-1.662490,1.040439,-1.353510,1.797043,1.080804,-0.548222,0.206011,0.017049,0.127510,-0.134820,-0.182601,0.262375,-0.175601,15.971112,35.607647,-21.270645,-2.039613,0.566190,1.467696,-0.037675,0.000000,0.000000,0.000000,0.000000,0.000000,0.000000
11764595.000000,-2.416107,-1.662473,1.040605,-1.353696,1.796799,1.081146,-0.548406,0.215008,0.016518,0.141215,-0.150743,-0.203307,0.281463,-0.183262,16.296431,35.361675,-21.369827,-2.015810,0.584501,1.467696,-0.103593,0.000000,0.000000,0.000000,0.000000,0.000000,0.000000
11764596.000000,-2.415839,-1.662458,1.040785,-1.353898,1.796533,1.081503,-0.548604,0.232786,0.020890,0.152162,-0.166108,-0.225721,0.305583,-0.186241,16.443220,35.191082,-21.492813,-2.015810,0.547880,1.467696,-0.050492,0.000000,0.000000,0.000000,0.000000,0.000000,0.000000
11764597.000000,-2.415555,-1.662454,1.040965,-1.354116,1.796259,1.081874,-0.548789,0.248592,0.017822,0.157469,-0.182080,-0.242417,0.325142,-0.184610,16.590010,35.167278,-21.492813,-1.964235,0.482877,1.559249,-0.110001,0.000000,0.000000,0.000000,0.000000,0.000000,0.000000
11764598.000000,-2.415252,-1.662443,1.041161,-1.354352,1.795969,1.082266,-0.548984,0.263427,0.014049,0.171254,-0.195541,-0.254507,0.350375,-0.185631,16.689192,35.091900,-21.516617,-1.841249,0.405057,1.676437,-0.110001,0.000000,0.000000,0.000000,0.000000,0.000000,0.000000
11764599.000000,-2.414934,-1.662442,1.041364,-1.354605,1.795658,1.082677,-0.549183,0.280899,0.009020,0.179392,-0.218246,-0.269758,0.370383,-0.183627,16.689192,35.119671,-21.417435,-1.718263,0.351041,1.721298,-0.050492,0.000000,0.000000,0.000000,0.000000,0.000000,0.000000
11764600.000000,-2.414602,-1.662441,1.041571,-1.354876,1.795321,1.083123,-0.549367,0.298469,0.005127,0.186394,-0.234550,-0.289275,0.392002,-0.187808,16.740767,35.167278,-21.346024,-1.619081,0.393156,1.695663,-0.097184,0.000000,0.000000,0.000000,0.000000,0.000000,0.000000
11764601.000000,-2.414257,-1.662446,1.041792,-1.355165,1.794975,1.083589,-0.549559,0.316585,0.002475,0.191455,-0.250583,-0.305988,0.410634,-0.187576,16.764570,35.214886,-21.270645,-1.496095,0.381254,1.611434,-0.083451,0.000000,0.000000,0.000000,0.000000,0.000000,0.000000
11764602.000000,-2.413888,-1.662446,1.042025,-1.355471,1.794607,1.084069,-0.549753,0.332801,0.001778,0.204548,-0.266552,-0.328792,0.436291,-0.188944,16.740767,35.214886,-21.175430,-1.349306,0.440763,1.572067,-0.056901,0.000000,0.000000,0.000000,0.000000,0.000000,0.000000
11764603.000000,-2.413522,-1.662450,1.042265,-1.355782,1.794219,1.084587,-0.549939,0.343340,0.000075,0.213607,-0.278077,-0.351771,0.465299,-0.187754,16.962934,35.266460,-21.052444,-1.321535,0.482877,1.532699,-0.083451,0.000000,0.000000,0.000000,0.000000,0.000000,0.000000
11764604.000000,-2.413140,-1.662453,1.042521,-1.356100,1.793808,1.085120,-0.550130,0.357103,-0.000991,0.225518,-0.290343,-0.368796,0.488106,-0.192413,17.038313,35.314068,-21.000870,-1.297731,0.530485,1.467696,-0.077042,0.000000,0.000000,0.000000,0.000000,0.000000,0.000000
11764605.000000,-2.412754,-1.662453,1.042777,-1.356439,1.793398,1.085674,-0.550309,0.369215,-0.000607,0.236654,-0.303293,-0.380403,0.510588,-0.192560,17.359663,35.314068,-20.905655,-1.250124,0.535978,1.474105,-0.130143,0.000000,0.000000,0.000000,0.000000,0.000000,0.000000
11764606.000000,-2.412354,-1.662455,1.043051,-1.356784,1.792962,1.086232,-0.550493,0.380310,-0.000921,0.246436,-0.310749,-0.395204,0.525280,-0.192934,17.581831,35.337872,-20.905655,-1.297731,0.470060,1.578475,-0.097184,0.000000,0.000000,0.000000,0.000000,0.000000,0.000000
11764607.000000,-2.411935,-1.662458,1.043329,-1.357144,1.792509,1.086824,-0.550668,0.391844,-0.001697,0.256934,-0.327853,-0.408023,0.543148,-0.186497,17.803999,35.385479,-20.877884,-1.273927,0.422452,1.630660,-0.097184,0.000000,0.000000,0.000000,0.000000,0.000000,0.000000
11764608.000000,-2.411506,-1.662457,1.043625,-1.357526,1.792052,1.087450,-0.550838,0.401513,-0.000552,0.268611,-0.339671,-0.424128,0.564739,-0.181503,18.053938,35.361675,-20.877884,-1.127138,0.434354,1.591293,-0.122819,0.000000,0.000000,0.000000,0.000000,0.000000,0.000000
11764609.000000,-2.411065,-1.662452,1.043926,-1.357918,1.791567,1.088096,-0.551016,0.408743,0.001320,0.274346,-0.365863,-0.439289,0.592427,-0.180047,18.248335,35.290264,-20.754898,-0.976381,0.410551,1.494247,-0.077042,0.000000,0.000000,0.000000,0.000000,0.000000,0.000000
11764610.000000,-2.410601,-1.662445,1.044244,-1.358323,1.791078,1.088768,-0.551180,0.427684,0.003213,0.285963,-0.380055,-0.454659,0.612136,-0.180442,18.375288,35.191082,-20.806473,-0.877199,0.470060,1.377059,-0.097184,0.000000,0.000000,0.000000,0.000000,0.000000,0.000000
11764611.000000,-2.410125,-1.662437,1.044565,-1.358754,1.790558,1.089452,-0.551346,0.441777,0.003822,0.294453,-0.396308,-0.476798,0.647651,-0.172539,18.573652,35.119671,-20.731094,-0.655031,0.566190,1.259872,-0.110001,0.000000,0.000000,0.000000,0.000000,0.000000,0.000000
11764612.000000,-2.409640,-1.662429,1.044887,-1.359188,1.790037,1.090153,-0.551517,0.452020,0.004318,0.302542,-0.410808,-0.488766,0.661365,-0.172988,18.446699,35.044292,-20.584305,-0.484438,0.679716,1.220504,-0.083451,0.000000,0.000000,0.000000,0.000000,0.000000,0.000000
11764613.000000,-2.409152,-1.662416,1.045228,-1.359645,1.789520,1.090870,-0.551672,0.454292,0.006318,0.316571,-0.428955,-0.501087,0.672255,-0.172489,17.827803,34.897503,-20.215347,-0.508241,0.757535,1.279098,-0.142960,0.000000,0.000000,0.000000,0.000000,0.000000,0.000000
11764614.000000,-2.408669,-1.662407,1.045603,-1.360110,1.788991,1.091585,-0.551835,0.458170,0.001978,0.333412,-0.438790,-0.509050,0.688954,-0.171968,16.542402,34.726910,-19.846390,-0.853395,0.828947,1.389877,-0.130143,0.000000,0.000000,0.000000,0.000000,0.000000,0.000000
11764615.000000,-2.408198,-1.662390,1.045995,-1.360582,1.788474,1.092332,-0.551998,0.459225,0.007393,0.352888,-0.448775,-0.509478,0.706744,-0.169578,14.884076,34.310345,-19.334610,-1.273927,0.840848,1.448470,-0.130143,0.000000,0.000000,0.000000,0.000000,0.000000,0.000000
11764616.000000,-2.407728,-1.662377,1.046407,-1.361070,1.787961,1.093091,-0.552157,0.464646,0.007145,0.368726,-0.458354,-0.502638,0.719398,-0.168476,13.027387,33.917583,-18.620499,-1.718263,0.661405,1.454879,-0.163102,0.000000,0.000000,0.000000,0.000000,0.000000,0.000000
11764617.000000,-2.407271,-1.662367,1.046860,-1.361561,1.787449,1.093870,-0.552325,0.466389,0.009669,0.389802,-0.466244,-0.499631,0.726470,-0.166743,11.194501,33.528790,-17.957962,-2.063417,0.535978,1.383468,-0.089860,0.000000,0.000000,0.000000,0.000000,0.000000,0.000000
11764618.000000,-2.406803,-1.662362,1.047321,-1.362061,1.786957,1.094665,-0.552481,0.469657,0.007731,0.414327,-0.474888,-0.499256,0.743194,-0.165407,9.314008,33.159832,-17.271622,-2.436342,0.315336,1.227828,-0.142960,0.000000,0.000000,0.000000,0.000000,0.000000,0.000000
11764619.000000,-2.406348,-1.662360,1.047807,-1.362566,1.786463,1.095451,-0.552648,0.468752,0.005621,0.432437,-0.485094,-0.496184,0.761316,-0.162692,7.754865,32.818645,-16.708267,-2.658510,0.159696,1.058456,-0.103593,0.000000,0.000000,0.000000,0.000000,0.000000,0.000000
11764620.000000,-2.405898,-1.662361,1.048291,-1.363056,1.785968,1.096233,-0.552805,0.468221,0.002925,0.445082,-0.483251,-0.505308,0.759050,-0.158782,6.366315,32.525066,-16.069534,-2.880678,0.112089,0.928451,-0.103593,0.000000,0.000000,0.000000,0.000000,0.000000,0.000000
11764621.000000,-2.405453,-1.662363,1.048790,-1.363544,1.785482,1.097014,-0.552958,0.458901,0.000845,0.458220,-0.478352,-0.496995,0.759396,-0.157578,5.279279,32.231487,-15.478409,-3.178224,0.081876,0.857040,-0.083451,0.000000,0.000000,0.000000,0.000000,0.000000,0.000000
11764622.000000,-2.405016,-1.662372,1.049288,-1.364012,1.784988,1.097785,-0.553109,0.451458,-0.002904,0.466926,-0.471936,-0.491474,0.764067,-0.154726,4.386640,32.033123,-14.815872,-3.523378,0.219205,0.817672,-0.103593,0.000000,0.000000,0.000000,0.000000,0.000000,0.000000
11764623.000000,-2.404566,-1.662378,1.049777,-1.364487,1.784507,1.098549,-0.553262,0.447903,-0.005522,0.473588,-0.471567,-0.493974,0.757754,-0.156065,3.569379,31.838726,-14.153336,-3.820925,0.285123,0.869857,-0.130143,0.000000,0.000000,0.000000,0.000000,0.000000,0.000000
11764624.000000,-2.404116,-1.662384,1.050289,-1.364969,1.784026,1.099301,-0.553421,0.444221,-0.007410,0.482592,-0.475906,-0.484239,0.755010,-0.156432,2.851301,31.640362,-13.712967,-3.920107,0.320829,0.922042,-0.089860,0.000000,0.000000,0.000000,0.000000,0.000000,0.000000
11764625.000000,-2.403660,-1.662391,1.050783,-1.365448,1.783556,1.100060,-0.553568,0.448552,-0.006208,0.484918,-0.477512,-0.480999,0.744699,-0.152216,2.109418,31.469769,-13.173416,-3.797121,0.327238,0.974227,-0.149369,0.000000,0.000000,0.000000,0.000000,0.000000,0.000000
11764626.000000,-2.403192,-1.662393,1.051290,-1.365935,1.783085,1.100829,-0.553718,0.453058,-0.003970,0.491395,-0.477294,-0.478105,0.747251,-0.156874,1.391340,31.251568,-12.705276,-3.547182,0.315336,0.974227,-0.149369,0.000000,0.000000,0.000000,0.000000,0.000000,0.000000
11764627.000000,-2.402712,-1.662392,1.051810,-1.366428,1.782622,1.101583,-0.553877,0.461230,-0.001525,0.499326,-0.491198,-0.468297,0.751426,-0.151910,0.574079,31.005596,-12.387894,-3.102846,0.243009,0.922042,-0.089860,0.000000,0.000000,0.000000,0.000000,0.000000,0.000000
11764628.000000,-2.402236,-1.662387,1.052330,-1.366925,1.782174,1.102340,-0.554026,0.466837,-0.001882,0.505310,-0.492318,-0.466276,0.746894,-0.153843,-0.068621,30.712017,-12.213333,-2.733888,0.159696,0.901900,-0.130143,0.000000,0.000000,0.000000,0.000000,0.000000,0.000000
11764629.000000,-2.401761,-1.662373,1.052852,-1.367400,1.781713,1.103093,-0.554177,0.467321,0.002597,0.509349,-0.487102,-0.461700,0.759519,-0.153404,-0.540728,30.343060,-11.971329,-2.606935,0.117582,0.876266,-0.122819,0.000000,0.000000,0.000000,0.000000,0.000000,0.000000
11764630.000000,-2.401296,-1.662361,1.053377,-1.367859,1.781255,1.103846,-0.554331,0.465816,0.007689,0.510090,-0.479385,-0.453703,0.759900,-0.153404,-0.909686,30.025677,-11.820572,-2.682314,0.081876,0.857040,-0.103593,0.000000,0.000000,0.000000,0.000000,0.000000,0.000000
11764631.000000,-2.400829,-1.662338,1.053910,-1.368331,1.780800,1.104593,-0.554485,0.463959,0.014326,0.519022,-0.478309,-0.458124,0.754325,-0.159189,-1.131854,29.585308,-11.673782,-2.682314,0.064481,0.966903,-0.130143,0.000000,0.000000,0.000000,0.000000,0.000000,0.000000
11764632.000000,-2.400371,-1.662318,1.054461,-1.368789,1.780334,1.105327,-0.554644,0.469049,0.017820,0.526881,-0.468207,-0.457227,0.753083,-0.157300,-1.306414,29.196514,-11.602371,-2.833071,0.088285,1.149093,-0.116410,0.000000,0.000000,0.000000,0.000000,0.000000,0.000000
11764633.000000,-2.399896,-1.662295,1.055013,-1.369239,1.779884,1.106067,-0.554795,0.469887,0.021005,0.536868,-0.464927,-0.454458,0.740617,-0.158077,-1.580157,28.779949,-11.550797,-2.956056,0.166105,1.247054,-0.149369,0.000000,0.000000,0.000000,0.000000,0.000000,0.000000
11764634.000000,-2.399422,-1.662275,1.055570,-1.369688,1.779420,1.106835,-0.554956,0.469141,0.021613,0.540168,-0.454918,-0.450377,0.748940,-0.157786,-1.802325,28.434795,-11.380203,-3.102846,0.195402,1.155502,-0.110001,0.000000,0.000000,0.000000,0.000000,0.000000,0.000000
11764635.000000,-2.398949,-1.662251,1.056149,-1.370132,1.778964,1.107606,-0.555113,0.470333,0.022042,0.548922,-0.448257,-0.447044,0.762288,-0.155515,-2.099871,28.093609,-11.308792,-3.249635,0.219205,0.974227,-0.116410,0.000000,0.000000,0.000000,0.000000,0.000000,0.000000
11764636.000000,-2.398461,-1.662236,1.056717,-1.370579,1.778524,1.108381,-0.555269,0.480383,0.024745,0.559322,-0.447202,-0.447439,0.758336,-0.154620,-2.544207,27.923016,-11.134232,-3.249635,0.195402,0.857040,-0.110001,0.000000,0.000000,0.000000,0.000000,0.000000,0.000000
11764637.000000,-2.397982,-1.662221,1.057289,-1.371016,1.778071,1.109128,-0.555418,0.481918,0.020261,0.558315,-0.439614,-0.447373,0.757401,-0.151359,-2.917132,27.776226,-10.888260,-3.400392,0.183500,0.850631,-0.155778,0.000000,0.000000,0.000000,0.000000,0.000000,0.000000
11764638.000000,-2.397493,-1.662213,1.057868,-1.371445,1.777623,1.109882,-0.555576,0.482810,0.013756,0.564512,-0.438766,-0.448518,0.754560,-0.152982,-3.210711,27.776226,-10.618484,-3.475771,0.178007,0.908309,-0.110001,0.000000,0.000000,0.000000,0.000000,0.000000,0.000000
11764639.000000,-2.396994,-1.662205,1.058454,-1.371881,1.777196,1.110643,-0.555728,0.490765,0.011860,0.567557,-0.434657,-0.446553,0.753403,-0.151997,-3.631243,27.800030,-10.277298,-3.523378,0.093778,0.941268,-0.122819,0.000000,0.000000,0.000000,0.000000,0.000000,0.000000
11764640.000000,-2.396506,-1.662203,1.059050,-1.372299,1.776754,1.111378,-0.555878,0.490138,0.006631,0.577584,-0.434138,-0.447553,0.757320,-0.150145,-3.956561,27.871441,-9.955948,-3.622560,0.081876,0.987045,-0.155778,0.000000,0.000000,0.000000,0.000000,0.000000,0.000000
11764641.000000,-2.396002,-1.662194,1.059650,-1.372709,1.776329,1.112139,-0.556035,0.496116,0.004717,0.581233,-0.426794,-0.439598,0.752691,-0.151493,-4.377093,27.871441,-9.737747,-3.892336,0.076383,0.934859,-0.097184,0.000000,0.000000,0.000000,0.000000,0.000000,0.000000
11764642.000000,-2.395502,-1.662192,1.060272,-1.373122,1.775897,1.112889,-0.556178,0.494828,0.004779,0.591214,-0.420548,-0.435482,0.749350,-0.149236,-4.722247,27.946819,-9.638565,-4.090700,0.010465,0.908309,-0.149369,0.000000,0.000000,0.000000,0.000000,0.000000,0.000000
11764643.000000,-2.395004,-1.662198,1.060889,-1.373527,1.775457,1.113641,-0.556330,0.497394,0.000183,0.601813,-0.412991,-0.437509,0.742718,-0.150277,-5.095171,28.093609,-9.491776,-4.265260,0.064481,0.869857,-0.122819,0.000000,0.000000,0.000000,0.000000,0.000000,0.000000
11764644.000000,-2.394509,-1.662201,1.061537,-1.373928,1.775039,1.114397,-0.556476,0.492783,-0.002431,0.616557,-0.410995,-0.431611,0.744651,-0.145865,-5.364947,28.216595,-9.515579,-4.388246,0.052579,0.908309,-0.116410,0.000000,0.000000,0.000000,0.000000,0.000000,0.000000
11764645.000000,-2.394004,-1.662199,1.062200,-1.374324,1.774612,1.115143,-0.556615,0.496175,-0.001378,0.632580,-0.414109,-0.429176,0.745286,-0.139604,-5.737872,28.216595,-9.638565,-4.511232,-0.007845,0.960494,-0.163102,0.000000,0.000000,0.000000,0.000000,0.000000,0.000000
11764646.000000,-2.393493,-1.662198,1.062874,-1.374721,1.774190,1.115892,-0.556764,0.502351,-0.000737,0.646833,-0.409807,-0.430160,0.735987,-0.144416,-6.134600,28.216595,-9.860733,-4.610414,-0.019747,0.993453,-0.089860,0.000000,0.000000,0.000000,0.000000,0.000000,0.000000
11764647.000000,-2.392981,-1.662197,1.063556,-1.375113,1.773778,1.116650,-0.556909,0.503848,0.000202,0.656673,-0.401905,-0.424362,0.755660,-0.144440,-6.455950,28.192791,-9.983719,-4.757204,-0.079257,0.857040,-0.130143,0.000000,0.000000,0.000000,0.000000,0.000000,0.000000
11764648.000000,-2.392470,-1.662204,1.064241,-1.375501,1.773345,1.117416,-0.557056,0.504198,-0.001434,0.679738,-0.399376,-0.423425,0.762875,-0.145575,-6.824908,28.264202,-10.102737,-4.784975,-0.055453,0.798446,-0.142960,0.000000,0.000000,0.000000,0.000000,0.000000,0.000000
11764649.000000,-2.391956,-1.662204,1.064947,-1.375893,1.772921,1.118153,-0.557208,0.503348,-0.000879,0.683501,-0.395674,-0.423787,0.746435,-0.147348,-7.174029,28.264202,-10.301102,-4.856386,-0.001437,1.012679,-0.089860,0.000000,0.000000,0.000000,0.000000,0.000000,0.000000
11764650.000000,-2.391443,-1.662212,1.065660,-1.376285,1.772505,1.118881,-0.557343,0.516911,-0.002849,0.692633,-0.396986,-0.420152,0.747998,-0.149561,-7.542986,28.363384,-10.372513,-4.884157,-0.019747,1.169235,-0.169511,0.000000,0.000000,0.000000,0.000000,0.000000,0.000000
11764651.000000,-2.390926,-1.662229,1.066375,-1.376673,1.772077,1.119629,-0.557497,0.520775,-0.007517,0.702935,-0.394763,-0.429580,0.746024,-0.152318,-7.864336,28.605389,-10.424088,-4.931764,0.081876,1.194869,-0.110001,0.000000,0.000000,0.000000,0.000000,0.000000,0.000000
11764652.000000,-2.390407,-1.662239,1.067098,-1.377069,1.771650,1.120382,-0.557635,0.518432,-0.008412,0.703753,-0.394141,-0.427637,0.740357,-0.150679,-8.161883,28.752178,-10.372513,-4.884157,0.135892,1.182052,-0.142960,0.000000,0.000000,0.000000,0.000000,0.000000,0.000000
11764653.000000,-2.389895,-1.662246,1.067841,-1.377470,1.771233,1.121110,-0.557777,0.521902,-0.007347,0.709967,-0.396458,-0.422504,0.742621,-0.145421,-8.459430,28.827557,-10.348709,-4.757204,0.100187,1.234237,-0.155778,0.000000,0.000000,0.000000,0.000000,0.000000,0.000000
11764654.000000,-2.389381,-1.662256,1.068577,-1.377874,1.770816,1.121851,-0.557919,0.516999,-0.010364,0.716043,-0.400863,-0.420260,0.735544,-0.142796,-8.681598,28.926739,-10.277298,-4.634218,0.088285,1.220504,-0.136552,0.000000,0.000000,0.000000,0.000000,0.000000,0.000000
11764655.000000,-2.388874,-1.662271,1.069329,-1.378282,1.770402,1.122593,-0.558059,0.515842,-0.011707,0.723871,-0.401670,-0.418373,0.745195,-0.138951,-8.733172,29.121136,-10.102737,-4.487428,0.088285,1.104232,-0.163102,0.000000,0.000000,0.000000,0.000000,0.000000,0.000000
11764656.000000,-2.388379,-1.662287,1.070079,-1.378672,1.769990,1.123335,-0.558207,0.515931,-0.012539,0.728786,-0.395706,-0.417274,0.741996,-0.138816,-8.756976,29.315533,-9.955948,-4.463624,0.076383,1.012679,-0.122819,0.000000,0.000000,0.000000,0.000000,0.000000,0.000000
11764657.000000,-2.387882,-1.662295,1.070851,-1.379072,1.769578,1.124072,-0.558345,0.507924,-0.009707,0.742017,-0.394757,-0.416692,0.737648,-0.136425,-8.733172,29.367107,-9.785355,-4.412050,0.069974,1.090499,-0.142960,0.000000,0.000000,0.000000,0.000000,0.000000,0.000000
11764658.000000,-2.387396,-1.662306,1.071631,-1.379458,1.769169,1.124798,-0.558490,0.500511,-0.011972,0.747476,-0.396655,-0.414975,0.738916,-0.135663,-8.610187,29.462322,-9.563187,-4.439821,0.046171,1.169235,-0.122819,0.000000,0.000000,0.000000,0.000000,0.000000,0.000000
11764659.000000,-2.386911,-1.662308,1.072403,-1.379846,1.768768,1.125544,-0.558627,0.496529,-0.007211,0.752125,-0.392086,-0.414489,0.734873,-0.133541,-8.534808,29.414715,-9.222000,-4.562807,0.027860,1.110641,-0.155778,0.000000,0.000000,0.000000,0.000000,0.000000,0.000000
11764660.000000,-2.386418,-1.662311,1.073195,-1.380236,1.768351,1.126286,-0.558770,0.492954,-0.003951,0.758813,-0.387254,-0.414972,0.737434,-0.138255,-8.483233,29.367107,-8.952225,-4.610414,0.040677,1.058456,-0.149369,0.000000,0.000000,0.000000,0.000000,0.000000,0.000000
11764661.000000,-2.385940,-1.662309,1.073996,-1.380623,1.767937,1.127042,-0.558914,0.489821,0.000050,0.777130,-0.386907,-0.405689,0.740494,-0.137939,-8.360248,29.244122,-8.876846,-4.661989,0.046171,0.974227,-0.116410,0.000000,0.000000,0.000000,0.000000,0.000000,0.000000
11764662.000000,-2.385449,-1.662306,1.074812,-1.381015,1.767537,1.127818,-0.559041,0.494751,0.002209,0.786381,-0.387591,-0.403656,0.749083,-0.134392,-8.360248,29.144939,-8.777664,-4.661989,0.046171,0.836898,-0.169511,0.000000,0.000000,0.000000,0.000000,0.000000,0.000000
11764663.000000,-2.384973,-1.662290,1.075636,-1.381406,1.767132,1.128571,-0.559182,0.491982,0.010484,0.792443,-0.391547,-0.402403,0.752923,-0.134809,-8.261065,29.021954,-8.829239,-4.661989,0.081876,0.771896,-0.136552,0.000000,0.000000,0.000000,0.000000,0.000000,0.000000
11764664.000000,-2.384491,-1.662290,1.076444,-1.381793,1.766744,1.129328,-0.559320,0.489765,0.010692,0.789857,-0.389472,-0.395541,0.748728,-0.137899,-8.038898,29.414715,-9.222000,-4.733400,0.064481,0.850631,-0.136552,0.000000,0.000000,0.000000,0.000000,0.000000,0.000000
11764665.000000,-2.384009,-1.662284,1.077254,-1.382184,1.766361,1.130077,-0.559462,0.486372,0.008009,0.788987,-0.388681,-0.390508,0.758672,-0.141126,-7.594561,29.978069,-9.932144,-4.757204,0.040677,1.006271,-0.136552,0.000000,0.000000,0.000000,0.000000,0.000000,0.000000
11764666.000000,-2.383544,-1.662283,1.078045,-1.382563,1.765970,1.130838,-0.559603,0.483194,0.007441,0.787830,-0.384932,-0.386368,0.760021,-0.144863,-6.951861,30.787395,-10.840652,-4.808778,0.015958,1.090499,-0.097184,0.000000,0.000000,0.000000,0.000000,0.000000,0.000000
11764667.000000,-2.383067,-1.662265,1.078836,-1.382944,1.765591,1.131621,-0.559735,0.475544,0.009230,0.791680,-0.386397,-0.384936,0.767282,-0.139389,-6.356768,31.545147,-11.872147,-4.931764,0.027860,1.104232,-0.155778,0.000000,0.000000,0.000000,0.000000,0.000000,0.000000
11764668.000000,-2.382581,-1.662250,1.079637,-1.383327,1.765211,1.132389,-0.559877,0.485820,0.010711,0.792393,-0.381271,-0.380278,0.768118,-0.137934,-5.983843,32.326702,-13.026627,-4.931764,0.105680,1.142684,-0.130143,0.000000,0.000000,0.000000,0.000000,0.000000,0.000000
11764669.000000,-2.382087,-1.662225,1.080419,-1.383711,1.764829,1.133144,-0.560015,0.487034,0.012412,0.790756,-0.386034,-0.390518,0.758751,-0.140889,-5.737872,32.965435,-14.081924,-4.832582,0.213712,1.292831,-0.136552,0.000000,0.000000,0.000000,0.000000,0.000000,0.000000
11764670.000000,-2.381591,-1.662193,1.081213,-1.384101,1.764443,1.133911,-0.560149,0.489152,0.017362,0.790347,-0.385870,-0.390151,0.757478,-0.138288,-5.515704,33.453411,-14.990433,-4.709596,0.303434,1.454879,-0.149369,0.000000,0.000000,0.000000,0.000000,0.000000,0.000000
11764671.000000,-2.381106,-1.662168,1.082012,-1.384485,1.764048,1.134673,-0.560285,0.486478,0.019622,0.789674,-0.388570,-0.391857,0.766936,-0.137811,-5.293536,33.992962,-15.799759,-4.634218,0.458158,1.467696,-0.116410,0.000000,0.000000,0.000000,0.000000,0.000000,0.000000
11764672.000000,-2.380617,-1.662135,1.082808,-1.384875,1.763674,1.135423,-0.560413,0.487799,0.022546,0.794956,-0.386232,-0.390600,0.751037,-0.133631,-5.142779,34.334148,-16.486099,-4.610414,0.416959,1.552840,-0.155778,0.000000,0.000000,0.000000,0.000000,0.000000,0.000000
11764673.000000,-2.380142,-1.662102,1.083623,-1.385258,1.763298,1.136159,-0.560546,0.487962,0.028088,0.797973,-0.383907,-0.383474,0.748093,-0.133844,-4.845232,34.651531,-17.196243,-4.610414,0.339139,1.695663,-0.136552,0.000000,0.000000,0.000000,0.000000,0.000000,0.000000
11764674.000000,-2.379657,-1.662079,1.084436,-1.385632,1.762919,1.136907,-0.560676,0.488217,0.026441,0.804959,-0.379656,-0.380257,0.748818,-0.131361,-4.623065,35.068096,-17.735794,-4.709596,0.291532,1.760665,-0.163102,0.000000,0.000000,0.000000,0.000000,0.000000,0.000000
11764675.000000,-2.379192,-1.662059,1.085251,-1.386002,1.762551,1.137662,-0.560806,0.472802,0.022566,0.806233,-0.371842,-0.381284,0.748463,-0.131329,-4.202532,35.460857,-18.080948,-4.856386,0.207303,1.714889,-0.169511,0.000000,0.000000,0.000000,0.000000,0.000000,0.000000
11764676.000000,-2.378720,-1.662047,1.086082,-1.386374,1.762162,1.138390,-0.560943,0.472440,0.022331,0.807189,-0.377850,-0.380259,0.742955,-0.132533,-4.055743,35.877422,-18.398331,-4.983339,0.219205,1.793624,-0.136552,0.000000,0.000000,0.000000,0.000000,0.000000,0.000000
11764677.000000,-2.378248,-1.662035,1.086912,-1.386741,1.761783,1.139124,-0.561075,0.469271,0.016931,0.810989,-0.372340,-0.379134,0.733891,-0.135525,-3.881182,36.242413,-18.818863,-5.106325,0.195402,1.851302,-0.149369,0.000000,0.000000,0.000000,0.000000,0.000000,0.000000
11764678.000000,-2.377774,-1.662042,1.087754,-1.387104,1.761400,1.139866,-0.561208,0.469439,0.008765,0.817029,-0.369320,-0.378961,0.738998,-0.135388,-3.706622,36.781963,-19.160049,-5.304689,0.195402,1.760665,-0.130143,0.000000,0.000000,0.000000,0.000000,0.000000,0.000000
11764679.000000,-2.377309,-1.662052,1.088580,-1.387453,1.760988,1.140625,-0.561338,0.471753,0.003339,0.816779,-0.363753,-0.389900,0.747829,-0.134010,-3.607440,37.297710,-19.382217,-5.526857,0.369352,1.507064,-0.136552,0.000000,0.000000,0.000000,0.000000,0.000000,0.000000
11764680.000000,-2.376828,-1.662067,1.089436,-1.387799,1.760601,1.141381,-0.561466,0.471785,-0.003655,0.826762,-0.359386,-0.392245,0.747903,-0.129604,-3.659014,37.809490,-19.751175,-5.872011,0.398649,1.402694,-0.116410,0.000000,0.000000,0.000000,0.000000,0.000000,0.000000
11764681.000000,-2.376351,-1.662091,1.090290,-1.388148,1.760217,1.142098,-0.561590,0.476598,-0.013092,0.828337,-0.353480,-0.387912,0.743730,-0.127662,-3.758196,38.372845,-20.020950,-6.094179,0.410551,1.559249,-0.155778,0.000000,0.000000,0.000000,0.000000,0.000000,0.000000
11764682.000000,-2.375870,-1.662118,1.091133,-1.388484,1.759823,1.142810,-0.561720,0.474079,-0.015862,0.832584,-0.348736,-0.398983,0.728606,-0.128335,-3.881182,38.888592,-20.266922,-6.340150,0.476469,1.754256,-0.149369,0.000000,0.000000,0.000000,0.000000,0.000000,0.000000
11764683.000000,-2.375385,-1.662162,1.091975,-1.388836,1.759447,1.143529,-0.561858,0.482556,-0.025514,0.828457,-0.347230,-0.390203,0.723842,-0.129956,-4.055743,39.598736,-20.389908,-6.463136,0.393156,1.832076,-0.130143,0.000000,0.000000,0.000000,0.000000,0.000000,0.000000
11764684.000000,-2.374901,-1.662200,1.092816,-1.389183,1.759069,1.144258,-0.561987,0.486612,-0.028283,0.832604,-0.348365,-0.386490,0.725191,-0.129363,-4.277911,40.134319,-20.584305,-6.514711,0.374845,1.903487,-0.155778,0.000000,0.000000,0.000000,0.000000,0.000000,0.000000
11764685.000000,-2.374411,-1.662237,1.093659,-1.389535,1.758690,1.144986,-0.562121,0.487957,-0.028866,0.830433,-0.348333,-0.388139,0.719363,-0.133591,-4.476275,40.602459,-20.707291,-6.590089,0.344633,1.995040,-0.149369,0.000000,0.000000,0.000000,0.000000,0.000000,0.000000
11764686.000000,-2.373928,-1.662272,1.094508,-1.389884,1.758310,1.145709,-0.562249,0.491346,-0.031900,0.833547,-0.345364,-0.383586,0.724992,-0.131983,-4.722247,41.042828,-20.806473,-6.661500,0.308927,1.988631,-0.175919,0.000000,0.000000,0.000000,0.000000,0.000000,0.000000
11764687.000000,-2.373437,-1.662307,1.095336,-1.390225,1.757938,1.146448,-0.562383,0.494938,-0.032557,0.836843,-0.348373,-0.379406,0.731213,-0.132021,-5.019793,41.407818,-20.854080,-6.784486,0.356534,1.930038,-0.163102,0.000000,0.000000,0.000000,0.000000,0.000000,0.000000
11764688.000000,-2.372949,-1.662352,1.096172,-1.390566,1.757561,1.147199,-0.562514,0.489805,-0.035760,0.836810,-0.341984,-0.380401,0.731722,-0.132105,-5.194354,41.875957,-20.806473,-6.959047,0.398649,1.832076,-0.163102,0.000000,0.000000,0.000000,0.000000,0.000000,0.000000
11764689.000000,-2.372466,-1.662387,1.097012,-1.390893,1.757183,1.147922,-0.562642,0.489323,-0.037782,0.835847,-0.338872,-0.375162,0.732855,-0.132565,-5.464129,42.193340,-20.806473,-7.232790,0.416959,1.825668,-0.142960,0.000000,0.000000,0.000000,0.000000,0.000000,0.000000
11764690.000000,-2.371987,-1.662413,1.097846,-1.391221,1.756812,1.148655,-0.562771,0.484063,-0.033627,0.837096,-0.334533,-0.371471,0.729604,-0.128715,-5.563311,42.387737,-20.782669,-7.478761,0.434354,1.890670,-0.116410,0.000000,0.000000,0.000000,0.000000,0.000000,0.000000
11764691.000000,-2.371512,-1.662448,1.098689,-1.391539,1.756453,1.149386,-0.562893,0.483517,-0.033712,0.834514,-0.325778,-0.365703,0.727640,-0.126957,-5.563311,42.705120,-20.806473,-7.800111,0.381254,1.871444,-0.169511,0.000000,0.000000,0.000000,0.000000,0.000000,0.000000
11764692.000000,-2.371033,-1.662480,1.099506,-1.391855,1.756082,1.150124,-0.563028,0.484609,-0.029094,0.827925,-0.321131,-0.362814,0.724629,-0.130080,-5.714068,42.951092,-20.560501,-8.069887,0.351041,1.760665,-0.116410,0.000000,0.000000,0.000000,0.000000,0.000000,0.000000
11764693.000000,-2.370562,-1.662504,1.100348,-1.392173,1.755727,1.150859,-0.563149,0.479328,-0.029168,0.827605,-0.317579,-0.360369,0.727706,-0.124012,-5.761675,43.074078,-20.608109,-8.319826,0.320829,1.754256,-0.163102,0.000000,0.000000,0.000000,0.000000,0.000000,0.000000
11764694.000000,-2.370088,-1.662522,1.101194,-1.392490,1.755376,1.151586,-0.563272,0.478480,-0.027236,0.825581,-0.325566,-0.352980,0.729581,-0.124505,-5.884661,43.097881,-20.631912,-8.466616,0.273221,1.754256,-0.182328,0.000000,0.000000,0.000000,0.000000,0.000000,0.000000
11764695.000000,-2.369607,-1.662547,1.102015,-1.392801,1.755028,1.152322,-0.563405,0.477214,-0.024335,0.822890,-0.318699,-0.353128,0.729013,-0.128529,-6.106829,43.173260,-20.584305,-8.688784,0.243009,1.767074,-0.103593,0.000000,0.000000,0.000000,0.000000,0.000000,0.000000
11764696.000000,-2.369140,-1.662571,1.102845,-1.393112,1.754664,1.153047,-0.563525,0.471443,-0.021052,0.820959,-0.311981,-0.352054,0.746513,-0.122852,-6.134600,43.197063,-20.485123,-8.839540,0.303434,1.741439,-0.149369,0.000000,0.000000,0.000000,0.000000,0.000000,0.000000
11764697.000000,-2.368676,-1.662592,1.103669,-1.393412,1.754313,1.153783,-0.563652,0.465374,-0.019043,0.822366,-0.309437,-0.347340,0.737855,-0.120990,-6.233782,43.220867,-20.536697,-9.160891,0.261320,1.773483,-0.130143,0.000000,0.000000,0.000000,0.000000,0.000000,0.000000
11764698.000000,-2.368214,-1.662611,1.104524,-1.393714,1.753972,1.154514,-0.563772,0.467831,-0.019179,0.824437,-0.305485,-0.349068,0.728638,-0.118811,-6.182208,43.173260,-20.806473,-9.430666,0.225614,1.871444,-0.136552,0.000000,0.000000,0.000000,0.000000,0.000000,0.000000
11764699.000000,-2.367760,-1.662625,1.105364,-1.394013,1.753628,1.155231,-0.563892,0.472605,-0.015592,0.821723,-0.302193,-0.347598,0.725691,-0.120762,-6.134600,43.097881,-20.905655,-9.728212,0.129484,1.897079,-0.142960,0.000000,0.000000,0.000000,0.000000,0.000000,0.000000
11764700.000000,-2.367306,-1.662643,1.106195,-1.394307,1.753283,1.155980,-0.564016,0.468329,-0.016781,0.822803,-0.300743,-0.345752,0.726423,-0.125086,-6.083025,43.050274,-21.024673,-9.997988,0.123990,1.806442,-0.103593,0.000000,0.000000,0.000000,0.000000,0.000000,0.000000
11764701.000000,-2.366857,-1.662662,1.107037,-1.394611,1.752941,1.156724,-0.564128,0.460390,-0.015126,0.824881,-0.296563,-0.339871,0.735970,-0.119051,-5.912432,43.026470,-21.246841,-10.097170,0.123990,1.754256,-0.175919,0.000000,0.000000,0.000000,0.000000,0.000000,0.000000
11764702.000000,-2.366410,-1.662678,1.107871,-1.394903,1.752599,1.157430,-0.564256,0.457714,-0.015924,0.826999,-0.297689,-0.338255,0.726701,-0.119064,-5.837054,42.951092,-21.445206,-10.295534,0.076383,1.871444,-0.136552,0.000000,0.000000,0.000000,0.000000,0.000000,0.000000
11764703.000000,-2.365975,-1.662693,1.108706,-1.395197,1.752262,1.158163,-0.564378,0.444281,-0.014213,0.828271,-0.293114,-0.338461,0.722690,-0.120234,-5.587115,42.903484,-21.516617,-10.446291,0.058073,1.890670,-0.155778,0.000000,0.000000,0.000000,0.000000,0.000000,0.000000
11764704.000000,-2.365561,-1.662708,1.109555,-1.395487,1.751924,1.158893,-0.564505,0.435620,-0.016056,0.827708,-0.292447,-0.332719,0.724597,-0.120198,-5.166583,42.851910,-21.687210,-10.616884,0.034269,1.812850,-0.103593,0.000000,0.000000,0.000000,0.000000,0.000000,0.000000
11764705.000000,-2.365134,-1.662723,1.110379,-1.395777,1.751587,1.159624,-0.564623,0.430353,-0.018061,0.828399,-0.293206,-0.334707,0.722389,-0.121841,-4.845232,42.828106,-21.714981,-10.739870,0.034269,1.819259,-0.122819,0.000000,0.000000,0.000000,0.000000,0.000000,0.000000
11764706.000000,-2.364717,-1.662732,1.111219,-1.396073,1.751254,1.160347,-0.564741,0.421605,-0.014505,0.826068,-0.292174,-0.333935,0.722072,-0.123551,-4.424700,42.728924,-21.762589,-10.767641,-0.019747,1.909896,-0.142960,0.000000,0.000000,0.000000,0.000000,0.000000,0.000000
11764707.000000,-2.364309,-1.662748,1.112056,-1.396364,1.750916,1.161065,-0.564867,0.416976,-0.014391,0.826809,-0.292041,-0.335896,0.723679,-0.121987,-4.079546,42.728924,-21.762589,-10.767641,-0.007845,1.968490,-0.110001,0.000000,0.000000,0.000000,0.000000,0.000000,0.000000
11764708.000000,-2.363908,-1.662766,1.112897,-1.396666,1.750582,1.161807,-0.564979,0.411581,-0.017855,0.828156,-0.297431,-0.336062,0.729120,-0.117786,-3.607440,42.756695,-21.933182,-10.668459,0.088285,1.884261,-0.163102,0.000000,0.000000,0.000000,0.000000,0.000000,0.000000
11764709.000000,-2.363491,-1.662779,1.113740,-1.396977,1.750263,1.162532,-0.565104,0.412347,-0.015460,0.826192,-0.302126,-0.333513,0.726807,-0.118691,-3.361468,42.705120,-22.056168,-10.517702,0.010465,1.760665,-0.110001,0.000000,0.000000,0.000000,0.000000,0.000000,0.000000
11764710.000000,-2.363090,-1.662794,1.114574,-1.397297,1.749920,1.163275,-0.565218,0.407699,-0.019205,0.826501,-0.312165,-0.331529,0.730719,-0.116410,-3.063921,42.756695,-22.179153,-10.220156,0.040677,1.721298,-0.130143,0.000000,0.000000,0.000000,0.000000,0.000000,0.000000
11764711.000000,-2.362697,-1.662810,1.115435,-1.397625,1.749590,1.164008,-0.565331,0.403327,-0.018146,0.839623,-0.319219,-0.334371,0.730664,-0.115748,-2.690997,42.780499,-22.548111,-9.898806,0.064481,1.741439,-0.130143,0.000000,0.000000,0.000000,0.000000,0.000000,0.000000
11764712.000000,-2.362309,-1.662829,1.116290,-1.397943,1.749263,1.164728,-0.565447,0.401152,-0.017858,0.841448,-0.326796,-0.330374,0.730770,-0.114384,-2.369647,42.828106,-22.742508,-9.676638,0.069974,1.786300,-0.142960,0.000000,0.000000,0.000000,0.000000,0.000000,0.000000
11764713.000000,-2.361914,-1.662853,1.117140,-1.398273,1.748925,1.165446,-0.565560,0.400380,-0.019857,0.846213,-0.326347,-0.339023,0.728571,-0.118383,-2.099871,42.974895,-23.111465,-9.506044,0.112089,1.981307,-0.136552,0.000000,0.000000,0.000000,0.000000,0.000000,0.000000
11764714.000000,-2.361526,-1.662877,1.117993,-1.398605,1.748587,1.166161,-0.565676,0.394768,-0.020457,0.839672,-0.325005,-0.339222,0.733005,-0.122434,-1.750750,43.097881,-23.409012,-9.383059,0.117582,2.079269,-0.116410,0.000000,0.000000,0.000000,0.000000,0.000000,0.000000
11764715.000000,-2.361143,-1.662900,1.118845,-1.398938,1.748245,1.166902,-0.565785,0.392410,-0.020349,0.863210,-0.328570,-0.337780,0.735677,-0.113083,-1.480975,43.197063,-23.849380,-9.208498,0.201810,2.053634,-0.175919,0.000000,0.000000,0.000000,0.000000,0.000000,0.000000
11764716.000000,-2.360755,-1.662926,1.119699,-1.399282,1.747915,1.167636,-0.565899,0.392014,-0.020788,0.860862,-0.328902,-0.340593,0.736865,-0.113837,-1.306414,43.320049,-24.043777,-8.986330,0.273221,2.027084,-0.155778,0.000000,0.000000,0.000000,0.000000,0.000000,0.000000
11764717.000000,-2.360372,-1.662951,1.120552,-1.399637,1.747570,1.168351,-0.566012,0.396085,-0.020851,0.864720,-0.333157,-0.344460,0.731054,-0.114148,-1.131854,43.439068,-24.190567,-8.613405,0.279630,2.072860,-0.136552,0.000000,0.000000,0.000000,0.000000,0.000000,0.000000
11764718.000000,-2.359982,-1.662987,1.121406,-1.399995,1.747224,1.169066,-0.566125,0.393284,-0.023359,0.864619,-0.341989,-0.349480,0.725813,-0.112902,-1.008868,43.661236,-24.464310,-8.244448,0.381254,2.112228,-0.163102,0.000000,0.000000,0.000000,0.000000,0.000000,0.000000
11764719.000000,-2.359605,-1.663017,1.122261,-1.400348,1.746891,1.169781,-0.566240,0.387432,-0.026470,0.863582,-0.344085,-0.340883,0.721316,-0.113735,-0.762896,43.808025,-24.611099,-8.022280,0.362943,2.060043,-0.142960,0.000000,0.000000,0.000000,0.000000,0.000000,0.000000
11764720.000000,-2.359237,-1.663054,1.123113,-1.400704,1.746559,1.170496,-0.566349,0.382877,-0.033492,0.858271,-0.350477,-0.338842,0.718735,-0.112537,-0.489153,44.026226,-24.658707,-7.776308,0.327238,1.981307,-0.163102,0.000000,0.000000,0.000000,0.000000,0.000000,0.000000
11764721.000000,-2.358865,-1.663081,1.123946,-1.401063,1.746219,1.171211,-0.566462,0.380354,-0.035254,0.852269,-0.352445,-0.339483,0.717343,-0.114749,-0.215411,44.101604,-24.611099,-7.649354,0.339139,1.981307,-0.110001,0.000000,0.000000,0.000000,0.000000,0.000000,0.000000
11764722.000000,-2.358499,-1.663112,1.124792,-1.401425,1.745881,1.171910,-0.566565,0.378041,-0.034737,0.848165,-0.355806,-0.334649,0.710349,-0.107512,0.078168,44.224590,-24.611099,-7.454957,0.351041,2.039901,-0.163102,0.000000,0.000000,0.000000,0.000000,0.000000,0.000000
11764723.000000,-2.358133,-1.663143,1.125620,-1.401785,1.745546,1.172616,-0.566675,0.370753,-0.034352,0.846572,-0.356569,-0.333183,0.713854,-0.107843,0.304304,44.347576,-24.464310,-7.328004,0.405057,2.112228,-0.196061,0.000000,0.000000,0.000000,0.000000,0.000000,0.000000
11764724.000000,-2.357757,-1.663171,1.126457,-1.402163,1.745214,1.173335,-0.566797,0.370989,-0.032360,0.835811,-0.361421,-0.335844,0.715461,-0.106613,0.403486,44.395184,-24.341324,-7.006654,0.446256,2.098495,-0.130143,0.000000,0.000000,0.000000,0.000000,0.000000,0.000000
11764725.000000,-2.357386,-1.663201,1.127295,-1.402534,1.744874,1.174059,-0.566903,0.370981,-0.032210,0.832472,-0.372071,-0.333622,0.712772,-0.101458,0.526471,44.494366,-24.218338,-6.836061,0.506681,1.936446,-0.175919,0.000000,0.000000,0.000000,0.000000,0.000000,0.000000
11764726.000000,-2.357006,-1.663226,1.128135,-1.402921,1.744542,1.174785,-0.567016,0.376237,-0.029747,0.833841,-0.373639,-0.331600,0.712385,-0.105171,0.550275,44.494366,-24.388931,-6.514711,0.542386,1.800033,-0.155778,0.000000,0.000000,0.000000,0.000000,0.000000,0.000000
11764727.000000,-2.356629,-1.663244,1.128973,-1.403314,1.744221,1.175493,-0.567129,0.379171,-0.026361,0.830587,-0.380721,-0.326554,0.710983,-0.106904,0.550275,44.418987,-24.365128,-6.193361,0.488370,1.851302,-0.163102,0.000000,0.000000,0.000000,0.000000,0.000000,0.000000
11764728.000000,-2.356254,-1.663268,1.129793,-1.403707,1.743884,1.176221,-0.567240,0.380118,-0.023388,0.823009,-0.386362,-0.330569,0.717721,-0.103455,0.474897,44.442791,-24.313553,-5.848207,0.506681,1.838485,-0.163102,0.000000,0.000000,0.000000,0.000000,0.000000,0.000000
11764729.000000,-2.355879,-1.663289,1.130637,-1.404103,1.743555,1.176949,-0.567353,0.378789,-0.020030,0.824922,-0.390818,-0.329754,0.714033,-0.105092,0.474897,44.418987,-24.412735,-5.598268,0.554288,1.806442,-0.142960,0.000000,0.000000,0.000000,0.000000,0.000000,0.000000
11764730.000000,-2.355506,-1.663306,1.131475,-1.404490,1.743235,1.177650,-0.567456,0.369254,-0.019554,0.821956,-0.389020,-0.321512,0.718586,-0.105386,0.474897,44.347576,-24.488113,-5.475282,0.542386,1.962081,-0.182328,0.000000,0.000000,0.000000,0.000000,0.000000,0.000000
11764731.000000,-2.355129,-1.663320,1.132299,-1.404886,1.742923,1.178356,-0.567564,0.368769,-0.018081,0.818895,-0.390600,-0.321494,0.711134,-0.107560,0.451093,44.224590,-24.535721,-5.229311,0.547880,2.131454,-0.163102,0.000000,0.000000,0.000000,0.000000,0.000000,0.000000
11764732.000000,-2.354754,-1.663333,1.133130,-1.405274,1.742592,1.179070,-0.567668,0.369179,-0.017754,0.815859,-0.387346,-0.327780,0.722229,-0.108458,0.403486,44.125408,-24.634903,-5.153932,0.601896,2.163497,-0.175919,0.000000,0.000000,0.000000,0.000000,0.000000,0.000000
11764733.000000,-2.354385,-1.663351,1.133968,-1.405666,1.742261,1.179802,-0.567777,0.369200,-0.018950,0.833860,-0.389131,-0.328032,0.727420,-0.104793,0.474897,44.077801,-24.781693,-4.931764,0.655912,2.014266,-0.175919,0.000000,0.000000,0.000000,0.000000,0.000000,0.000000
11764734.000000,-2.354004,-1.663359,1.134787,-1.406060,1.741943,1.180536,-0.567888,0.372526,-0.011141,0.828135,-0.387958,-0.321651,0.726147,-0.108344,0.427289,43.931011,-24.857071,-4.808778,0.667814,1.962081,-0.136552,0.000000,0.000000,0.000000,0.000000,0.000000,0.000000
11764735.000000,-2.353629,-1.663365,1.135613,-1.406458,1.741619,1.181247,-0.567998,0.378639,-0.009179,0.822503,-0.389280,-0.321036,0.727492,-0.108033,0.403486,43.808025,-24.880875,-4.610414,0.679716,1.995040,-0.155778,0.000000,0.000000,0.000000,0.000000,0.000000,0.000000
11764736.000000,-2.353253,-1.663372,1.136421,-1.406850,1.741292,1.181965,-0.568107,0.376005,-0.007738,0.817485,-0.388267,-0.328644,0.725496,-0.108626,0.427289,43.685040,-24.857071,-4.487428,0.698026,1.968490,-0.175919,0.000000,0.000000,0.000000,0.000000,0.000000,0.000000
11764737.000000,-2.352879,-1.663378,1.137238,-1.407238,1.740966,1.182694,-0.568213,0.372514,-0.007211,0.814377,-0.384750,-0.327711,0.720405,-0.109598,0.451093,43.585857,-24.757889,-4.463624,0.733732,1.923629,-0.182328,0.000000,0.000000,0.000000,0.000000,0.000000,0.000000
11764738.000000,-2.352515,-1.663378,1.138046,-1.407615,1.740658,1.183403,-0.568324,0.372461,-0.001477,0.808574,-0.380851,-0.318754,0.713574,-0.107189,0.526471,43.391460,-24.583328,-4.535036,0.667814,1.968490,-0.142960,0.000000,0.000000,0.000000,0.000000,0.000000,0.000000
11764739.000000,-2.352139,-1.663373,1.138852,-1.407994,1.740353,1.184125,-0.568424,0.373004,0.000049,0.806040,-0.378717,-0.316856,0.710076,-0.105839,0.550275,43.173260,-24.488113,-4.586610,0.596403,2.047225,-0.188737,0.000000,0.000000,0.000000,0.000000,0.000000,0.000000
11764740.000000,-2.351770,-1.663366,1.139668,-1.408379,1.740037,1.184835,-0.568531,0.371760,0.001656,0.802612,-0.379889,-0.311953,0.715094,-0.108139,0.625654,42.927288,-24.511917,-4.535036,0.578092,2.098495,-0.175919,0.000000,0.000000,0.000000,0.000000,0.000000,0.000000
11764741.000000,-2.351401,-1.663362,1.140463,-1.408754,1.739720,1.185572,-0.568638,0.371496,0.001602,0.798245,-0.376811,-0.310513,0.721474,-0.104872,0.574079,42.728924,-24.388931,-4.487428,0.601896,2.079269,-0.163102,0.000000,0.000000,0.000000,0.000000,0.000000,0.000000
11764742.000000,-2.351024,-1.663354,1.141272,-1.409142,1.739417,1.186313,-0.568740,0.375078,0.002000,0.797740,-0.380082,-0.304719,0.723117,-0.102040,0.526471,42.510723,-24.412735,-4.312868,0.632108,2.007858,-0.169511,0.000000,0.000000,0.000000,0.000000,0.000000,0.000000
11764743.000000,-2.350653,-1.663342,1.142094,-1.409520,1.739110,1.187031,-0.568842,0.374078,0.003584,0.803582,-0.387034,-0.309155,0.718168,-0.100336,0.474897,42.240948,-24.559525,-4.142274,0.661405,1.974899,-0.155778,0.000000,0.000000,0.000000,0.000000,0.000000,0.000000
11764744.000000,-2.350274,-1.663329,1.142903,-1.409898,1.738805,1.187764,-0.568935,0.374880,0.007130,0.802774,-0.387065,-0.307750,0.719956,-0.101636,0.403486,41.994976,-24.757889,-4.019289,0.673307,2.014266,-0.202470,0.000000,0.000000,0.000000,0.000000,0.000000,0.000000
11764745.000000,-2.349902,-1.663324,1.143710,-1.410277,1.738503,1.188483,-0.569046,0.372055,0.006778,0.799378,-0.383050,-0.301657,0.724954,-0.107324,0.403486,41.875957,-24.805496,-3.920107,0.679716,2.007858,-0.130143,0.000000,0.000000,0.000000,0.000000,0.000000,0.000000
11764746.000000,-2.349540,-1.663320,1.144507,-1.410638,1.738213,1.189205,-0.569149,0.367659,0.005712,0.796448,-0.377471,-0.295904,0.718286,-0.103401,0.502668,41.800579,-24.904678,-3.943910,0.655912,2.007858,-0.142960,0.000000,0.000000,0.000000,0.000000,0.000000,0.000000
11764747.000000,-2.349186,-1.663317,1.145322,-1.411008,1.737926,1.189913,-0.569245,0.362666,0.004495,0.801881,-0.370561,-0.292065,0.716822,-0.103848,0.724836,41.752972,-25.051468,-3.943910,0.637601,2.169906,-0.196061,0.000000,0.000000,0.000000,0.000000,0.000000,0.000000
11764748.000000,-2.348829,-1.663320,1.146124,-1.411379,1.737628,1.190605,-0.569355,0.359805,0.007474,0.796878,-0.368346,-0.289106,0.707521,-0.107355,0.895429,41.824383,-25.075272,-3.844728,0.632108,2.326461,-0.142960,0.000000,0.000000,0.000000,0.000000,0.000000,0.000000
11764749.000000,-2.348476,-1.663323,1.146905,-1.411741,1.737341,1.191314,-0.569455,0.356281,0.004075,0.792588,-0.367252,-0.287380,0.698627,-0.106416,1.093793,41.875957,-24.952286,-3.844728,0.625699,2.352096,-0.188737,0.000000,0.000000,0.000000,0.000000,0.000000,0.000000
11764750.000000,-2.348124,-1.663326,1.147692,-1.412112,1.737049,1.192027,-0.569557,0.354898,0.001827,0.783939,-0.365219,-0.287849,0.719929,-0.107883,1.268354,41.923565,-24.805496,-3.745546,0.667814,2.190048,-0.196061,0.000000,0.000000,0.000000,0.000000,0.000000,0.000000
11764751.000000,-2.347773,-1.663325,1.148469,-1.412479,1.736763,1.192756,-0.569663,0.354487,0.002500,0.798756,-0.370220,-0.287128,0.723363,-0.106242,1.415143,41.875957,-24.706314,-3.646364,0.679716,2.085677,-0.149369,0.000000,0.000000,0.000000,0.000000,0.000000,0.000000
11764752.000000,-2.347415,-1.663332,1.149255,-1.412846,1.736478,1.193480,-0.569767,0.355737,-0.000435,0.796900,-0.365027,-0.289133,0.727920,-0.106833,1.466718,41.971172,-24.559525,-3.523378,0.637601,2.007858,-0.149369,0.000000,0.000000,0.000000,0.000000,0.000000,0.000000
11764753.000000,-2.347077,-1.663333,1.150034,-1.413207,1.736186,1.194190,-0.569863,0.350316,-0.000195,0.794967,-0.363158,-0.288573,0.722038,-0.102749,1.740461,41.971172,-24.265945,-3.448000,0.673307,1.955673,-0.169511,0.000000,0.000000,0.000000,0.000000,0.000000,0.000000
11764754.000000,-2.346733,-1.663340,1.150799,-1.413561,1.735901,1.194920,-0.569959,0.346618,-0.002379,0.785960,-0.359498,-0.291243,0.727680,-0.099172,1.835676,42.070354,-23.996170,-3.475771,0.703519,1.877853,-0.208878,0.000000,0.000000,0.000000,0.000000,0.000000,0.000000
11764755.000000,-2.346395,-1.663332,1.151571,-1.413915,1.735628,1.195647,-0.570062,0.343372,0.000230,0.780855,-0.356842,-0.287185,0.717715,-0.100075,2.085615,41.994976,-23.678787,-3.475771,0.649503,1.812850,-0.155778,0.000000,0.000000,0.000000,0.000000,0.000000,0.000000
11764756.000000,-2.346055,-1.663329,1.152343,-1.414261,1.735343,1.196360,-0.570152,0.343772,0.001864,0.772934,-0.354066,-0.289998,0.716042,-0.097040,2.208601,41.923565,-23.409012,-3.547182,0.620206,1.838485,-0.182328,0.000000,0.000000,0.000000,0.000000,0.000000,0.000000
11764757.000000,-2.345712,-1.663319,1.153106,-1.414614,1.735055,1.197088,-0.570252,0.345593,0.004706,0.769533,-0.351121,-0.288279,0.715933,-0.097805,2.383161,41.776775,-23.258255,-3.523378,0.620206,1.806442,-0.142960,0.000000,0.000000,0.000000,0.000000,0.000000,0.000000
11764758.000000,-2.345363,-1.663308,1.153875,-1.414974,1.734769,1.197826,-0.570347,0.347291,0.006037,0.764867,-0.353915,-0.286225,0.720815,-0.100460,2.430768,41.653790,-23.111465,-3.424196,0.608304,1.676437,-0.169511,0.000000,0.000000,0.000000,0.000000,0.000000,0.000000
11764759.000000,-2.345020,-1.663295,1.154626,-1.415332,1.734476,1.198560,-0.570446,0.344115,0.010644,0.759419,-0.354452,-0.284772,0.726882,-0.098537,2.406965,41.507000,-22.917068,-3.249635,0.709928,1.617843,-0.182328,0.000000,0.000000,0.000000,0.000000,0.000000,0.000000
11764760.000000,-2.344672,-1.663273,1.155394,-1.415689,1.734199,1.199289,-0.570545,0.346185,0.014240,0.757117,-0.354975,-0.279727,0.719681,-0.098826,2.406965,41.213421,-22.817886,-3.154421,0.721830,1.611434,-0.136552,0.000000,0.000000,0.000000,0.000000,0.000000,0.000000
11764761.000000,-2.344322,-1.663256,1.156173,-1.416038,1.733912,1.200010,-0.570633,0.346681,0.015455,0.760305,-0.358208,-0.276516,0.717211,-0.094924,2.331586,40.967449,-22.893265,-3.154421,0.751127,1.649886,-0.202470,0.000000,0.000000,0.000000,0.000000,0.000000,0.000000
11764762.000000,-2.343970,-1.663238,1.156931,-1.416390,1.733636,1.200745,-0.570727,0.346459,0.018709,0.757662,-0.354605,-0.277682,0.718352,-0.090723,2.283979,40.749249,-22.817886,-3.102846,0.745634,1.578475,-0.188737,0.000000,0.000000,0.000000,0.000000,0.000000,0.000000
11764763.000000,-2.343622,-1.663218,1.157697,-1.416739,1.733369,1.201465,-0.570823,0.346896,0.021220,0.754360,-0.348679,-0.271836,0.713781,-0.096795,2.260175,40.527081,-22.770279,-3.178224,0.679716,1.565658,-0.175919,0.000000,0.000000,0.000000,0.000000,0.000000,0.000000
11764764.000000,-2.343274,-1.663195,1.158462,-1.417084,1.733098,1.202178,-0.570919,0.350754,0.023627,0.755733,-0.346132,-0.274808,0.713985,-0.100712,2.160993,40.281109,-22.841690,-3.202028,0.685209,1.708480,-0.175919,0.000000,0.000000,0.000000,0.000000,0.000000,0.000000
11764765.000000,-2.342919,-1.663171,1.159230,-1.417428,1.732832,1.202884,-0.571014,0.349785,0.021531,0.755558,-0.345898,-0.269981,0.701564,-0.102080,2.061811,40.062908,-22.964676,-3.249635,0.625699,1.936446,-0.182328,0.000000,0.000000,0.000000,0.000000,0.000000,0.000000
11764766.000000,-2.342573,-1.663150,1.159997,-1.417773,1.732563,1.203600,-0.571107,0.355272,0.022025,0.751916,-0.346453,-0.262108,0.706007,-0.099071,2.010236,39.892315,-22.964676,-3.178224,0.589994,1.949264,-0.202470,0.000000,0.000000,0.000000,0.000000,0.000000,0.000000
11764767.000000,-2.342216,-1.663128,1.160750,-1.418115,1.732298,1.204328,-0.571207,0.350225,0.022588,0.752321,-0.343338,-0.263691,0.710730,-0.103571,1.911054,39.721722,-22.940872,-3.102846,0.601896,1.832076,-0.142960,0.000000,0.000000,0.000000,0.000000,0.000000,0.000000
11764768.000000,-2.341856,-1.663105,1.161516,-1.418450,1.732034,1.205057,-0.571293,0.350231,0.023569,0.754786,-0.339483,-0.259386,0.716762,-0.099422,1.764264,39.523357,-22.964676,-3.202028,0.608304,1.735030,-0.188737,0.000000,0.000000,0.000000,0.000000,0.000000,0.000000
11764769.000000,-2.341508,-1.663080,1.162285,-1.418783,1.731769,1.205776,-0.571385,0.351451,0.021087,0.758018,-0.333694,-0.260120,0.715953,-0.098264,1.712690,39.328960,-22.964676,-3.178224,0.589994,1.754256,-0.182328,0.000000,0.000000,0.000000,0.000000,0.000000,0.000000
11764770.000000,-2.341147,-1.663054,1.163037,-1.419104,1.731506,1.206497,-0.571479,0.354163,0.023038,0.758682,-0.329916,-0.261771,0.714551,-0.097031,1.565900,39.106792,-22.893265,-3.400392,0.601896,1.779891,-0.188737,0.000000,0.000000,0.000000,0.000000,0.000000,0.000000
11764771.000000,-2.340796,-1.663037,1.163780,-1.419432,1.731240,1.207210,-0.571572,0.361849,0.024108,0.749654,-0.327691,-0.264158,0.715315,-0.096445,1.514325,39.035381,-22.571915,-3.475771,0.661405,1.786300,-0.175919,0.000000,0.000000,0.000000,0.000000,0.000000,0.000000
11764772.000000,-2.340444,-1.663019,1.164521,-1.419743,1.730987,1.207916,-0.571669,0.357506,0.021510,0.751133,-0.327209,-0.266220,0.708419,-0.095688,1.490522,38.983807,-22.401321,-3.646364,0.637601,1.858627,-0.182328,0.000000,0.000000,0.000000,0.000000,0.000000,0.000000
11764773.000000,-2.340082,-1.663000,1.165279,-1.420063,1.730744,1.208625,-0.571762,0.357359,0.020378,0.750055,-0.321419,-0.262547,0.707953,-0.099815,1.268354,38.912395,-22.302139,-3.769350,0.559781,1.936446,-0.188737,0.000000,0.000000,0.000000,0.000000,0.000000,0.000000
11764774.000000,-2.339725,-1.662975,1.166040,-1.420378,1.730494,1.209335,-0.571858,0.355492,0.024867,0.750942,-0.319310,-0.259668,0.714275,-0.099725,1.145368,38.741802,-22.254532,-3.820925,0.470060,1.838485,-0.149369,0.000000,0.000000,0.000000,0.000000,0.000000,0.000000
11764775.000000,-2.339359,-1.662960,1.166784,-1.420689,1.730238,1.210065,-0.571946,0.355509,0.021057,0.750176,-0.321027,-0.254692,0.711597,-0.091677,0.947004,38.741802,-22.155350,-3.991518,0.416959,1.656295,-0.182328,0.000000,0.000000,0.000000,0.000000,0.000000,0.000000
11764776.000000,-2.338992,-1.662941,1.167547,-1.421006,1.729973,1.210777,-0.572041,0.358618,0.023289,0.751636,-0.319634,-0.259933,0.716746,-0.088915,0.796247,38.666424,-22.202957,-4.019289,0.488370,1.546432,-0.149369,0.000000,0.000000,0.000000,0.000000,0.000000,0.000000
11764777.000000,-2.338632,-1.662930,1.168305,-1.421310,1.729727,1.211468,-0.572127,0.357362,0.018949,0.755833,-0.314161,-0.253346,0.711769,-0.083539,0.601850,38.717999,-22.325943,-4.090700,0.410551,1.676437,-0.196061,0.000000,0.000000,0.000000,0.000000,0.000000,0.000000
11764778.000000,-2.338270,-1.662916,1.169065,-1.421615,1.729474,1.212171,-0.572215,0.361534,0.016731,0.754168,-0.311499,-0.256696,0.707479,-0.086705,0.427289,38.741802,-22.401321,-4.213686,0.422452,1.812850,-0.188737,0.000000,0.000000,0.000000,0.000000,0.000000,0.000000
11764779.000000,-2.337917,-1.662909,1.169822,-1.421909,1.729208,1.212878,-0.572310,0.359964,0.015803,0.751508,-0.310706,-0.264036,0.704017,-0.085281,0.375715,38.864788,-22.401321,-4.364442,0.458158,1.747848,-0.149369,0.000000,0.000000,0.000000,0.000000,0.000000,0.000000
11764780.000000,-2.337557,-1.662900,1.170562,-1.422196,1.728949,1.213589,-0.572392,0.363194,0.013502,0.748986,-0.306463,-0.255349,0.701688,-0.085778,0.304304,38.936199,-22.401321,-4.610414,0.476469,1.735030,-0.196061,0.000000,0.000000,0.000000,0.000000,0.000000,0.000000
11764781.000000,-2.337195,-1.662887,1.171322,-1.422496,1.728693,1.214268,-0.572483,0.358132,0.013551,0.751777,-0.301700,-0.257734,0.696512,-0.089461,0.228925,38.936199,-22.524307,-4.661989,0.482877,1.865035,-0.155778,0.000000,0.000000,0.000000,0.000000,0.000000,0.000000
11764782.000000,-2.336838,-1.662884,1.172070,-1.422776,1.728448,1.214959,-0.572574,0.355910,0.007456,0.753814,-0.293442,-0.252629,0.692560,-0.086108,0.078168,39.059185,-22.571915,-4.784975,0.428861,2.007858,-0.149369,0.000000,0.000000,0.000000,0.000000,0.000000,0.000000
11764783.000000,-2.336482,-1.662884,1.172819,-1.423065,1.728195,1.215678,-0.572656,0.354460,0.001955,0.754666,-0.291824,-0.253959,0.703184,-0.086461,0.054365,39.229778,-22.472733,-4.832582,0.512174,1.890670,-0.196061,0.000000,0.000000,0.000000,0.000000,0.000000,0.000000
11764784.000000,-2.336123,-1.662884,1.173564,-1.423351,1.727937,1.216389,-0.572747,0.356467,0.001773,0.750272,-0.290299,-0.256100,0.707995,-0.085195,-0.068621,39.376568,-22.278336,-4.907960,0.524076,1.747848,-0.155778,0.000000,0.000000,0.000000,0.000000,0.000000,0.000000
11764785.000000,-2.335762,-1.662880,1.174311,-1.423623,1.727688,1.217090,-0.572831,0.360242,0.000788,0.749070,-0.284429,-0.259015,0.706609,-0.080955,-0.144000,39.428143,-22.302139,-5.030946,0.470060,1.786300,-0.202470,0.000000,0.000000,0.000000,0.000000,0.000000,0.000000
11764786.000000,-2.335409,-1.662883,1.175065,-1.423903,1.727443,1.217797,-0.572925,0.354053,0.000251,0.742762,-0.283735,-0.248566,0.704079,-0.081871,-0.116229,39.598736,-22.278336,-5.130128,0.410551,1.793624,-0.142960,0.000000,0.000000,0.000000,0.000000,0.000000,0.000000
11764787.000000,-2.335070,-1.662885,1.175800,-1.424170,1.727194,1.218516,-0.573011,0.348419,-0.003664,0.733136,-0.278723,-0.247554,0.712329,-0.084452,-0.044818,39.793133,-22.008560,-5.304689,0.405057,1.670028,-0.149369,0.000000,0.000000,0.000000,0.000000,0.000000,0.000000
11764788.000000,-2.334719,-1.662894,1.176538,-1.424434,1.726951,1.219238,-0.573100,0.345606,-0.007659,0.732103,-0.271933,-0.246937,0.716423,-0.086609,-0.044818,40.039104,-21.861771,-5.475282,0.398649,1.546432,-0.130143,0.000000,0.000000,0.000000,0.000000,0.000000,0.000000
11764789.000000,-2.334364,-1.662900,1.177291,-1.424700,1.726713,1.219946,-0.573175,0.348447,-0.005079,0.736268,-0.269465,-0.243156,0.715887,-0.085596,-0.092425,40.185894,-21.810196,-5.673646,0.315336,1.559249,-0.202470,0.000000,0.000000,0.000000,0.000000,0.000000,0.000000
11764790.000000,-2.334020,-1.662896,1.178029,-1.424954,1.726465,1.220651,-0.573262,0.348074,-0.002829,0.735142,-0.264129,-0.240468,0.712580,-0.088411,-0.044818,40.185894,-21.663406,-5.895814,0.344633,1.649886,-0.188737,0.000000,0.000000,0.000000,0.000000,0.000000,0.000000
11764791.000000,-2.333666,-1.662898,1.178764,-1.425214,1.726222,1.221367,-0.573353,0.345267,-0.003139,0.729448,-0.261817,-0.243295,0.705050,-0.087210,-0.167803,40.257305,-21.445206,-6.018800,0.386747,1.611434,-0.136552,0.000000,0.000000,0.000000,0.000000,0.000000,0.000000
11764792.000000,-2.333324,-1.662893,1.179508,-1.425476,1.725983,1.222093,-0.573428,0.349030,-0.001223,0.727273,-0.261135,-0.244294,0.713446,-0.080937,-0.243182,40.233501,-21.322220,-6.117982,0.410551,1.474105,-0.208878,0.000000,0.000000,0.000000,0.000000,0.000000,0.000000
11764793.000000,-2.332967,-1.662883,1.180249,-1.425741,1.725756,1.222810,-0.573518,0.350765,0.001740,0.732116,-0.261668,-0.242845,0.708578,-0.087063,-0.389971,40.134319,-21.322220,-6.169557,0.362943,1.461288,-0.136552,0.000000,0.000000,0.000000,0.000000,0.000000,0.000000
11764794.000000,-2.332614,-1.662875,1.181003,-1.426003,1.725523,1.223521,-0.573598,0.352879,0.004120,0.737358,-0.259722,-0.241303,0.709620,-0.083268,-0.489153,40.015301,-21.346024,-6.169557,0.303434,1.494247,-0.155778,0.000000,0.000000,0.000000,0.000000,0.000000,0.000000
11764795.000000,-2.332260,-1.662865,1.181744,-1.426265,1.725287,1.224243,-0.573679,0.352201,0.005756,0.742898,-0.262140,-0.236884,0.715313,-0.079970,-0.612139,39.892315,-21.393631,-6.141786,0.267728,1.519881,-0.188737,0.000000,0.000000,0.000000,0.000000,0.000000,0.000000
11764796.000000,-2.331919,-1.662857,1.182493,-1.426523,1.725051,1.224968,-0.573762,0.347259,0.006256,0.743762,-0.258154,-0.235507,0.713773,-0.079924,-0.588336,39.793133,-21.417435,-6.193361,0.291532,1.565658,-0.155778,0.000000,0.000000,0.000000,0.000000,0.000000,0.000000
11764797.000000,-2.331572,-1.662848,1.183250,-1.426782,1.724817,1.225672,-0.573838,0.345232,0.009742,0.742430,-0.257436,-0.227791,0.715332,-0.076897,-0.687518,39.693951,-21.492813,-6.169557,0.279630,1.676437,-0.202470,0.000000,0.000000,0.000000,0.000000,0.000000,0.000000
11764798.000000,-2.331226,-1.662833,1.184000,-1.427048,1.724592,1.226385,-0.573928,0.346640,0.013946,0.743840,-0.257348,-0.227613,0.708559,-0.082047,-0.687518,39.523357,-21.687210,-6.117982,0.285123,1.721298,-0.149369,0.000000,0.000000,0.000000,0.000000,0.000000,0.000000
11764799.000000,-2.330875,-1.662825,1.184766,-1.427313,1.724354,1.227095,-0.574008,0.347907,0.011470,0.743686,-0.259091,-0.228547,0.721021,-0.079606,-0.762896,39.451946,-21.909378,-6.117982,0.308927,1.741439,-0.169511,0.000000,0.000000,0.000000,0.000000,0.000000,0.000000
11764800.000000,-2.330536,-1.662812,1.185523,-1.427578,1.724117,1.227813,-0.574088,0.346630,0.012966,0.763224,-0.259535,-0.228611,0.722560,-0.077776,-0.762896,39.376568,-22.155350,-6.018800,0.327238,1.702071,-0.188737,0.000000,0.000000,0.000000,0.000000,0.000000,0.000000
11764801.000000,-2.330195,-1.662802,1.186284,-1.427844,1.723889,1.228520,-0.574177,0.339896,0.013478,0.763140,-0.262074,-0.228048,0.714713,-0.078676,-0.834307,39.328960,-22.278336,-5.947389,0.327238,1.735030,-0.149369,0.000000,0.000000,0.000000,0.000000,0.000000,0.000000
11764802.000000,-2.329860,-1.662799,1.187048,-1.428119,1.723658,1.229210,-0.574261,0.339937,0.007990,0.759772,-0.265610,-0.227426,0.712777,-0.076557,-0.810504,39.400372,-22.401321,-5.820436,0.339139,1.806442,-0.169511,0.000000,0.000000,0.000000,0.000000,0.000000,0.000000
11764803.000000,-2.329524,-1.662784,1.187805,-1.428382,1.723438,1.229902,-0.574345,0.338026,0.010649,0.760958,-0.265367,-0.229031,0.707189,-0.076751,-0.735125,39.328960,-22.524307,-5.796632,0.303434,1.897079,-0.155778,0.000000,0.000000,0.000000,0.000000,0.000000,0.000000
11764804.000000,-2.329187,-1.662777,1.188561,-1.428653,1.723208,1.230602,-0.574422,0.336247,0.007184,0.754481,-0.268572,-0.227161,0.704472,-0.074209,-0.663714,39.352764,-22.524307,-5.749025,0.267728,1.930038,-0.202470,0.000000,0.000000,0.000000,0.000000,0.000000,0.000000
11764805.000000,-2.328855,-1.662773,1.189321,-1.428929,1.722964,1.231293,-0.574514,0.332814,0.007209,0.753934,-0.272021,-0.226994,0.696266,-0.081639,-0.612139,39.400372,-22.500504,-5.673646,0.267728,1.877853,-0.136552,0.000000,0.000000,0.000000,0.000000,0.000000,0.000000
11764806.000000,-2.328526,-1.662760,1.190068,-1.429208,1.722732,1.231997,-0.574594,0.330507,0.009572,0.752125,-0.271585,-0.227260,0.692031,-0.082483,-0.540728,39.352764,-22.425125,-5.598268,0.273221,1.851302,-0.163102,0.000000,0.000000,0.000000,0.000000,0.000000,0.000000
11764807.000000,-2.328191,-1.662749,1.190826,-1.429496,1.722491,1.232681,-0.574674,0.329081,0.007653,0.754265,-0.276889,-0.228090,0.693829,-0.079125,-0.512957,39.328960,-22.401321,-5.399904,0.308927,1.858627,-0.202470,0.000000,0.000000,0.000000,0.000000,0.000000,0.000000
11764808.000000,-2.327861,-1.662745,1.191573,-1.429784,1.722257,1.233368,-0.574763,0.331871,0.004524,0.756734,-0.280906,-0.227713,0.692826,-0.084947,-0.465350,39.376568,-22.353714,-5.205507,0.320829,1.930038,-0.149369,0.000000,0.000000,0.000000,0.000000,0.000000,0.000000
11764809.000000,-2.327532,-1.662736,1.192340,-1.430072,1.722018,1.234081,-0.574837,0.330731,0.003418,0.762497,-0.282164,-0.233763,0.699706,-0.081119,-0.342364,39.376568,-22.472733,-5.054750,0.362943,1.793624,-0.188737,0.000000,0.000000,0.000000,0.000000,0.000000,0.000000
11764810.000000,-2.327217,-1.662724,1.193104,-1.430363,1.721776,1.234779,-0.574923,0.320613,0.006863,0.758678,-0.286732,-0.237156,0.704400,-0.085995,-0.167803,39.328960,-22.524307,-4.832582,0.398649,1.656295,-0.142960,0.000000,0.000000,0.000000,0.000000,0.000000,0.000000
11764811.000000,-2.326894,-1.662718,1.193865,-1.430661,1.721542,1.235476,-0.574997,0.321594,0.007650,0.758919,-0.287900,-0.235025,0.700351,-0.081283,-0.116229,39.352764,-22.718704,-4.634218,0.416959,1.670028,-0.175919,0.000000,0.000000,0.000000,0.000000,0.000000,0.000000
11764812.000000,-2.326571,-1.662711,1.194630,-1.430960,1.721312,1.236145,-0.575072,0.318684,0.005729,0.754800,-0.292385,-0.230989,0.684660,-0.078887,-0.017047,39.352764,-22.817886,-4.412050,0.374845,1.819259,-0.196061,0.000000,0.000000,0.000000,0.000000,0.000000,0.000000
11764813.000000,-2.326252,-1.662712,1.195395,-1.431254,1.721071,1.236836,-0.575157,0.315962,0.001971,0.759395,-0.295075,-0.233143,0.684576,-0.084452,0.078168,39.451946,-23.040054,-4.213686,0.458158,1.916305,-0.155778,0.000000,0.000000,0.000000,0.000000,0.000000,0.000000
11764814.000000,-2.325936,-1.662707,1.196164,-1.431550,1.720842,1.237530,-0.575234,0.314676,0.001111,0.765036,-0.294956,-0.232053,0.685857,-0.080957,0.252729,39.475750,-23.210648,-4.090700,0.476469,1.981307,-0.188737,0.000000,0.000000,0.000000,0.000000,0.000000,0.000000
11764815.000000,-2.325624,-1.662706,1.196941,-1.431844,1.720611,1.238217,-0.575318,0.313854,-0.000664,0.764215,-0.292456,-0.232804,0.683956,-0.080085,0.328107,39.547161,-23.456619,-3.967714,0.434354,2.007858,-0.169511,0.000000,0.000000,0.000000,0.000000,0.000000,0.000000
11764816.000000,-2.325314,-1.662703,1.197711,-1.432149,1.720376,1.238906,-0.575391,0.314063,-0.000893,0.764184,-0.299107,-0.232440,0.684844,-0.081584,0.403486,39.574932,-23.726395,-3.745546,0.464567,2.053634,-0.208878,0.000000,0.000000,0.000000,0.000000,0.000000,0.000000
11764817.000000,-2.325001,-1.662706,1.198472,-1.432448,1.720141,1.239600,-0.575475,0.312118,-0.002673,0.757553,-0.297381,-0.231979,0.702825,-0.086063,0.502668,39.670147,-23.774002,-3.646364,0.500272,1.942855,-0.175919,0.000000,0.000000,0.000000,0.000000,0.000000,0.000000
11764818.000000,-2.324692,-1.662714,1.199220,-1.432742,1.719901,1.240303,-0.575560,0.305591,-0.004547,0.772481,-0.296719,-0.229061,0.705317,-0.084115,0.625654,39.793133,-23.726395,-3.547182,0.589994,1.858627,-0.142960,0.000000,0.000000,0.000000,0.000000,0.000000,0.000000
11764819.000000,-2.324368,-1.662715,1.199983,-1.433040,1.719675,1.240990,-0.575634,0.314576,-0.003504,0.771797,-0.294561,-0.228746,0.695870,-0.083950,0.550275,39.816936,-23.774002,-3.523378,0.608304,1.930038,-0.182328,0.000000,0.000000,0.000000,0.000000,0.000000,0.000000
11764820.000000,-2.324063,-1.662724,1.200742,-1.433340,1.719445,1.241669,-0.575709,0.319949,-0.004593,0.768834,-0.296970,-0.225861,0.688983,-0.080905,0.673261,39.916119,-23.726395,-3.475771,0.571683,2.014266,-0.202470,0.000000,0.000000,0.000000,0.000000,0.000000,0.000000
11764821.000000,-2.323758,-1.662737,1.201486,-1.433629,1.719205,1.242363,-0.575789,0.315324,-0.012742,0.762593,-0.294264,-0.234530,0.690670,-0.080291,0.748639,40.062908,-23.603409,-3.499574,0.589994,1.974899,-0.175919,0.000000,0.000000,0.000000,0.000000,0.000000,0.000000
11764822.000000,-2.323455,-1.662745,1.202231,-1.433921,1.718984,1.243071,-0.575873,0.311045,-0.011304,0.756563,-0.290392,-0.231585,0.695711,-0.085324,0.923200,40.162090,-23.357437,-3.570986,0.566190,1.903487,-0.136552,0.000000,0.000000,0.000000,0.000000,0.000000,0.000000
11764823.000000,-2.323156,-1.662749,1.202984,-1.434212,1.718765,1.243762,-0.575942,0.309615,-0.008460,0.753442,-0.289470,-0.228492,0.701644,-0.079574,1.069990,40.185894,-23.186844,-3.598757,0.518583,1.890670,-0.215287,0.000000,0.000000,0.000000,0.000000,0.000000,0.000000
11764824.000000,-2.322844,-1.662746,1.203732,-1.434505,1.718549,1.244466,-0.576025,0.311033,-0.004708,0.749902,-0.290170,-0.227687,0.697877,-0.080656,1.069990,40.134319,-23.135269,-3.570986,0.500272,1.916305,-0.163102,0.000000,0.000000,0.000000,0.000000,0.000000,0.000000
11764825.000000,-2.322542,-1.662755,1.204475,-1.434805,1.718331,1.245175,-0.576097,0.308086,-0.006222,0.741863,-0.289469,-0.221474,0.703017,-0.078339,1.216779,40.257305,-22.893265,-3.448000,0.476469,1.793624,-0.182328,0.000000,0.000000,0.000000,0.000000,0.000000,0.000000
11764826.000000,-2.322234,-1.662759,1.205210,-1.435098,1.718104,1.245895,-0.576167,0.305258,-0.005509,0.738929,-0.292309,-0.228693,0.703335,-0.076454,1.169172,40.308880,-22.718704,-3.325014,0.506681,1.630660,-0.202470,0.000000,0.000000,0.000000,0.000000,0.000000,0.000000
11764827.000000,-2.321929,-1.662747,1.205964,-1.435393,1.717885,1.246607,-0.576246,0.307669,0.000851,0.741236,-0.296635,-0.224547,0.702036,-0.078510,1.121564,40.110516,-22.718704,-3.202028,0.542386,1.611434,-0.142960,0.000000,0.000000,0.000000,0.000000,0.000000,0.000000
11764828.000000,-2.321628,-1.662738,1.206720,-1.435683,1.717675,1.247293,-0.576313,0.309229,0.003914,0.739566,-0.293779,-0.218068,0.693579,-0.075043,1.145368,39.963726,-22.742508,-3.102846,0.494779,1.676437,-0.208878,0.000000,0.000000,0.000000,0.000000,0.000000,0.000000
11764829.000000,-2.321315,-1.662729,1.207455,-1.435966,1.717456,1.247995,-0.576394,0.309370,0.004771,0.738496,-0.285311,-0.217761,0.692586,-0.081627,1.069990,39.868511,-22.647293,-3.126650,0.554288,1.695663,-0.142960,0.000000,0.000000,0.000000,0.000000,0.000000,0.000000
11764830.000000,-2.321002,-1.662720,1.208201,-1.436253,1.717242,1.248688,-0.576465,0.309227,0.006009,0.737042,-0.287004,-0.217233,0.698233,-0.075031,0.994611,39.745525,-22.595718,-3.079042,0.608304,1.714889,-0.149369,0.000000,0.000000,0.000000,0.000000,0.000000,0.000000
11764831.000000,-2.320702,-1.662709,1.208941,-1.436535,1.717029,1.249381,-0.576527,0.308659,0.007403,0.742707,-0.281697,-0.213438,0.691694,-0.071345,0.970807,39.598736,-22.623489,-3.055238,0.571683,1.760665,-0.241837,0.000000,0.000000,0.000000,0.000000,0.000000,0.000000
11764832.000000,-2.320396,-1.662690,1.209698,-1.436816,1.716812,1.250078,-0.576611,0.306283,0.011218,0.748908,-0.280630,-0.217281,0.691444,-0.072113,0.847822,39.328960,-22.742508,-3.027467,0.584501,1.812850,-0.130143,0.000000,0.000000,0.000000,0.000000,0.000000,0.000000
11764833.000000,-2.320093,-1.662680,1.210449,-1.437105,1.716608,1.250764,-0.576671,0.299336,0.010892,0.748747,-0.281341,-0.212700,0.683458,-0.069447,0.824018,39.182171,-22.817886,-2.956056,0.535978,1.825668,-0.215287,0.000000,0.000000,0.000000,0.000000,0.000000,0.000000
11764834.000000,-2.319782,-1.662671,1.211185,-1.437387,1.716400,1.251474,-0.576744,0.304130,0.009566,0.741886,-0.281153,-0.215068,0.684182,-0.070719,0.772443,39.082989,-22.865494,-2.904482,0.542386,1.760665,-0.196061,0.000000,0.000000,0.000000,0.000000,0.000000,0.000000
11764835.000000,-2.319468,-1.662663,1.211934,-1.437666,1.716192,1.252163,-0.576812,0.306139,0.008686,0.737845,-0.277241,-0.215105,0.688419,-0.071846,0.673261,38.983807,-23.016251,-2.856874,0.584501,1.747848,-0.196061,0.000000,0.000000,0.000000,0.000000,0.000000,0.000000
11764836.000000,-2.319168,-1.662652,1.212675,-1.437942,1.715998,1.252857,-0.576883,0.301580,0.008566,0.752272,-0.280153,-0.210371,0.689891,-0.068267,0.673261,38.864788,-23.111465,-2.856874,0.512174,1.793624,-0.188737,0.000000,0.000000,0.000000,0.000000,0.000000,0.000000
11764837.000000,-2.318873,-1.662645,1.213420,-1.438212,1.715793,1.253549,-0.576951,0.295613,0.008024,0.746753,-0.276802,-0.213736,0.685209,-0.069153,0.724836,38.765606,-23.135269,-2.956056,0.488370,1.838485,-0.196061,0.000000,0.000000,0.000000,0.000000,0.000000,0.000000
11764838.000000,-2.318577,-1.662634,1.214161,-1.438486,1.715580,1.254230,-0.577022,0.297523,0.011399,0.742214,-0.273221,-0.216461,0.682761,-0.065950,0.748639,38.642620,-23.040054,-2.979860,0.488370,1.877853,-0.188737,0.000000,0.000000,0.000000,0.000000,0.000000,0.000000
11764839.000000,-2.318277,-1.662624,1.214890,-1.438752,1.715372,1.254925,-0.577095,0.297265,0.010738,0.740264,-0.271328,-0.212124,0.682201,-0.063864,0.796247,38.519634,-22.940872,-3.102846,0.458158,1.858627,-0.182328,0.000000,0.000000,0.000000,0.000000,0.000000,0.000000
11764840.000000,-2.317975,-1.662617,1.215628,-1.439025,1.715167,1.255615,-0.577163,0.296033,0.009025,0.735680,-0.269349,-0.212240,0.682059,-0.066473,0.824018,38.448223,-22.865494,-3.102846,0.488370,1.858627,-0.188737,0.000000,0.000000,0.000000,0.000000,0.000000,0.000000
11764841.000000,-2.317676,-1.662607,1.216366,-1.439295,1.714962,1.256296,-0.577236,0.295538,0.008483,0.732740,-0.267379,-0.207156,0.680328,-0.064807,0.772443,38.349041,-22.742508,-3.003664,0.518583,1.890670,-0.163102,0.000000,0.000000,0.000000,0.000000,0.000000,0.000000
11764842.000000,-2.317378,-1.662597,1.217090,-1.439565,1.714761,1.256992,-0.577300,0.294322,0.010469,0.732073,-0.267476,-0.208306,0.677284,-0.061191,0.748639,38.277630,-22.595718,-2.956056,0.542386,1.819259,-0.202470,0.000000,0.000000,0.000000,0.000000,0.000000,0.000000
11764843.000000,-2.317082,-1.662587,1.217829,-1.439833,1.714550,1.257688,-0.577371,0.293712,0.008521,0.731869,-0.267621,-0.209220,0.680991,-0.061316,0.724836,38.226055,-22.500504,-2.904482,0.584501,1.735030,-0.169511,0.000000,0.000000,0.000000,0.000000,0.000000,0.000000
11764844.000000,-2.316798,-1.662580,1.218557,-1.440091,1.714346,1.258388,-0.577438,0.289369,0.008537,0.734676,-0.263417,-0.206423,0.684481,-0.064343,0.847822,38.249859,-22.472733,-2.904482,0.530485,1.637069,-0.175919,0.000000,0.000000,0.000000,0.000000,0.000000,0.000000
11764845.000000,-2.316502,-1.662573,1.219298,-1.440352,1.714153,1.259094,-0.577503,0.291799,0.008229,0.735450,-0.261926,-0.200548,0.689505,-0.061725,0.871625,38.301434,-22.524307,-2.956056,0.488370,1.572067,-0.196061,0.000000,0.000000,0.000000,0.000000,0.000000,0.000000
11764846.000000,-2.316218,-1.662564,1.220037,-1.440613,1.713950,1.259777,-0.577574,0.288973,0.008713,0.735524,-0.267070,-0.198128,0.689102,-0.066485,0.970807,38.325237,-22.571915,-2.956056,0.512174,1.637069,-0.155778,0.000000,0.000000,0.000000,0.000000,0.000000,0.000000
11764847.000000,-2.315923,-1.662558,1.220770,-1.440870,1.713761,1.260469,-0.577640,0.289896,0.009129,0.734681,-0.261849,-0.193950,0.682360,-0.067194,0.947004,38.349041,-22.595718,-3.003664,0.464567,1.714889,-0.196061,0.000000,0.000000,0.000000,0.000000,0.000000,0.000000
11764848.000000,-2.315631,-1.662558,1.221513,-1.441125,1.713560,1.261157,-0.577712,0.289413,0.007631,0.734613,-0.261312,-0.195539,0.685948,-0.070512,0.970807,38.448223,-22.694901,-3.055238,0.542386,1.735030,-0.163102,0.000000,0.000000,0.000000,0.000000,0.000000,0.000000
11764849.000000,-2.315342,-1.662555,1.222246,-1.441379,1.713365,1.261841,-0.577780,0.290072,0.007337,0.750914,-0.257854,-0.192510,0.682160,-0.070766,0.947004,38.519634,-22.841690,-3.102846,0.512174,1.812850,-0.188737,0.000000,0.000000,0.000000,0.000000,0.000000,0.000000
11764850.000000,-2.315052,-1.662553,1.222985,-1.441633,1.713162,1.262547,-0.577851,0.289328,0.007193,0.743005,-0.258175,-0.192326,0.680996,-0.067012,0.970807,38.595013,-23.016251,-3.154421,0.530485,1.825668,-0.196061,0.000000,0.000000,0.000000,0.000000,0.000000,0.000000
11764851.000000,-2.314755,-1.662558,1.223726,-1.441888,1.712963,1.263243,-0.577920,0.291289,0.001743,0.741550,-0.255570,-0.191250,0.683378,-0.069184,0.895429,38.765606,-23.111465,-3.202028,0.542386,1.773483,-0.188737,0.000000,0.000000,0.000000,0.000000,0.000000,0.000000
11764852.000000,-2.314459,-1.662560,1.224456,-1.442138,1.712769,1.263949,-0.577988,0.293306,0.001576,0.741400,-0.252715,-0.195522,0.686644,-0.069341,0.847822,38.912395,-23.135269,-3.301210,0.578092,1.767074,-0.215287,0.000000,0.000000,0.000000,0.000000,0.000000,0.000000
11764853.000000,-2.314166,-1.662563,1.225189,-1.442393,1.712574,1.264642,-0.578056,0.293714,0.001398,0.739358,-0.254608,-0.198497,0.693840,-0.067200,0.796247,39.059185,-23.111465,-3.348818,0.578092,1.793624,-0.188737,0.000000,0.000000,0.000000,0.000000,0.000000,0.000000
11764854.000000,-2.313879,-1.662566,1.225914,-1.442639,1.712387,1.265344,-0.578126,0.288484,0.002625,0.736665,-0.253597,-0.190343,0.690074,-0.069054,0.748639,39.158367,-23.087662,-3.376589,0.554288,1.819259,-0.188737,0.000000,0.000000,0.000000,0.000000,0.000000,0.000000
11764855.000000,-2.313595,-1.662567,1.226650,-1.442884,1.712204,1.266051,-0.578196,0.287218,0.001532,0.731865,-0.249905,-0.183742,0.696838,-0.071121,0.847822,39.205975,-23.111465,-3.523378,0.512174,1.800033,-0.169511,0.000000,0.000000,0.000000,0.000000,0.000000,0.000000
11764856.000000,-2.313305,-1.662574,1.227385,-1.443130,1.712016,1.266754,-0.578263,0.288752,-0.000627,0.725471,-0.245750,-0.183109,0.696887,-0.066366,0.824018,39.305157,-23.063858,-3.622560,0.464567,1.695663,-0.196061,0.000000,0.000000,0.000000,0.000000,0.000000,0.000000
11764857.000000,-2.313016,-1.662579,1.228106,-1.443360,1.711819,1.267451,-0.578332,0.285268,-0.001028,0.725014,-0.237312,-0.185921,0.696851,-0.068649,0.847822,39.352764,-22.988480,-3.797121,0.500272,1.702071,-0.196061,0.000000,0.000000,0.000000,0.000000,0.000000,0.000000
11764858.000000,-2.312723,-1.662576,1.228836,-1.443604,1.711642,1.268143,-0.578401,0.284577,0.000806,0.725908,-0.239880,-0.180201,0.690481,-0.066417,0.772443,39.305157,-22.841690,-3.844728,0.458158,1.735030,-0.175919,0.000000,0.000000,0.000000,0.000000,0.000000,0.000000
11764859.000000,-2.312441,-1.662580,1.229575,-1.443837,1.711456,1.268824,-0.578466,0.282507,0.000264,0.724196,-0.234689,-0.182986,0.686447,-0.062940,0.772443,39.328960,-22.841690,-3.943910,0.488370,1.773483,-0.196061,0.000000,0.000000,0.000000,0.000000,0.000000,0.000000
11764860.000000,-2.312154,-1.662581,1.230288,-1.444074,1.711277,1.269522,-0.578535,0.285017,0.000389,0.724214,-0.233172,-0.179610,0.690099,-0.062856,0.724836,39.328960,-22.623489,-3.943910,0.488370,1.721298,-0.155778,0.000000,0.000000,0.000000,0.000000,0.000000,0.000000
11764861.000000,-2.311864,-1.662581,1.231018,-1.444300,1.711098,1.270223,-0.578595,0.286906,-0.000138,0.721695,-0.232165,-0.180941,0.691770,-0.063626,0.673261,39.352764,-22.500504,-4.066896,0.470060,1.605026,-0.208878,0.000000,0.000000,0.000000,0.000000,0.000000,0.000000
11764862.000000,-2.311576,-1.662580,1.231745,-1.444525,1.710917,1.270920,-0.578662,0.288256,0.000027,0.728935,-0.228845,-0.186271,0.695038,-0.061694,0.625654,39.352764,-22.548111,-4.166078,0.434354,1.559249,-0.208878,0.000000,0.000000,0.000000,0.000000,0.000000,0.000000
11764863.000000,-2.311279,-1.662584,1.232473,-1.444748,1.710739,1.271610,-0.578734,0.291009,-0.000449,0.725699,-0.226860,-0.185380,0.687842,-0.063110,0.474897,39.376568,-22.500504,-4.241457,0.393156,1.630660,-0.130143,0.000000,0.000000,0.000000,0.000000,0.000000,0.000000
11764864.000000,-2.310993,-1.662583,1.233201,-1.444968,1.710551,1.272292,-0.578788,0.289315,0.000325,0.722367,-0.228072,-0.183036,0.686748,-0.062605,0.375715,39.352764,-22.425125,-4.289064,0.440763,1.727706,-0.215287,0.000000,0.000000,0.000000,0.000000,0.000000,0.000000
11764865.000000,-2.310698,-1.662583,1.233917,-1.445193,1.710367,1.272972,-0.578859,0.289789,0.000267,0.718609,-0.229434,-0.186885,0.680005,-0.067378,0.228925,39.352764,-22.302139,-4.364442,0.512174,1.793624,-0.163102,0.000000,0.000000,0.000000,0.000000,0.000000,0.000000
11764866.000000,-2.310400,-1.662580,1.234656,-1.445414,1.710188,1.273664,-0.578923,0.293960,0.001329,0.721052,-0.226566,-0.181830,0.696648,-0.064645,0.030561,39.305157,-22.448929,-4.463624,0.500272,1.747848,-0.155778,0.000000,0.000000,0.000000,0.000000,0.000000,0.000000
11764867.000000,-2.310107,-1.662576,1.235389,-1.445626,1.710020,1.274367,-0.578983,0.295442,0.002121,0.723184,-0.221490,-0.175265,0.701863,-0.060432,-0.116229,39.253582,-22.595718,-4.562807,0.410551,1.617843,-0.208878,0.000000,0.000000,0.000000,0.000000,0.000000,0.000000
11764868.000000,-2.309805,-1.662573,1.236126,-1.445840,1.709853,1.275073,-0.579051,0.297314,0.002549,0.724770,-0.218094,-0.177413,0.697736,-0.059804,-0.314593,39.205975,-22.742508,-4.634218,0.369352,1.559249,-0.202470,0.000000,0.000000,0.000000,0.000000,0.000000,0.000000
11764869.000000,-2.309511,-1.662576,1.236863,-1.446060,1.709671,1.275757,-0.579117,0.290228,0.000602,0.724232,-0.215758,-0.176938,0.697164,-0.059682,-0.441546,39.253582,-22.817886,-4.709596,0.405057,1.584884,-0.182328,0.000000,0.000000,0.000000,0.000000,0.000000,0.000000
11764870.000000,-2.309215,-1.662573,1.237598,-1.446269,1.709492,1.276428,-0.579188,0.289436,0.001527,0.729882,-0.212732,-0.182705,0.683157,-0.060193,-0.588336,39.205975,-23.016251,-4.832582,0.381254,1.812850,-0.136552,0.000000,0.000000,0.000000,0.000000,0.000000,0.000000
11764871.000000,-2.308917,-1.662575,1.238336,-1.446481,1.709316,1.277105,-0.579245,0.289735,0.000470,0.730186,-0.210762,-0.183641,0.676678,-0.061534,-0.786700,39.229778,-23.111465,-4.931764,0.362943,1.968490,-0.196061,0.000000,0.000000,0.000000,0.000000,0.000000,0.000000
11764872.000000,-2.308628,-1.662573,1.239063,-1.446679,1.709144,1.277785,-0.579312,0.291255,0.001434,0.735182,-0.210012,-0.179408,0.669955,-0.066486,-0.885882,39.182171,-23.210648,-5.153932,0.339139,1.936446,-0.155778,0.000000,0.000000,0.000000,0.000000,0.000000,0.000000
11764873.000000,-2.308336,-1.662572,1.239798,-1.446888,1.708974,1.278485,-0.579368,0.288977,0.001518,0.732178,-0.207736,-0.177378,0.677879,-0.065890,-0.933489,39.158367,-23.309830,-5.328493,0.339139,1.773483,-0.208878,0.000000,0.000000,0.000000,0.000000,0.000000,0.000000
11764874.000000,-2.308032,-1.662573,1.240535,-1.447100,1.708802,1.279160,-0.579431,0.291043,0.001016,0.727312,-0.208974,-0.175455,0.675362,-0.068016,-1.131854,39.158367,-23.333633,-5.376100,0.344633,1.721298,-0.208878,0.000000,0.000000,0.000000,0.000000,0.000000,0.000000
11764875.000000,-2.307738,-1.662571,1.241254,-1.447307,1.708630,1.279838,-0.579500,0.293379,0.001329,0.726729,-0.207627,-0.174169,0.678562,-0.067491,-1.282611,39.130596,-23.286026,-5.376100,0.339139,1.793624,-0.149369,0.000000,0.000000,0.000000,0.000000,0.000000,0.000000
11764876.000000,-2.307445,-1.662574,1.241978,-1.447519,1.708455,1.280506,-0.579555,0.293587,-0.000318,0.723332,-0.207902,-0.173920,0.670210,-0.062194,-1.405596,39.182171,-23.135269,-5.304689,0.362943,1.897079,-0.215287,0.000000,0.000000,0.000000,0.000000,0.000000,0.000000
11764877.000000,-2.307152,-1.662579,1.242703,-1.447726,1.708272,1.281176,-0.579624,0.292809,-0.001881,0.718786,-0.207054,-0.173933,0.671475,-0.062977,-1.580157,39.253582,-22.988480,-5.276918,0.398649,1.930038,-0.155778,0.000000,0.000000,0.000000,0.000000,0.000000,0.000000
11764878.000000,-2.306860,-1.662585,1.243423,-1.447926,1.708104,1.281864,-0.579687,0.293781,-0.003016,0.716935,-0.204056,-0.170164,0.679944,-0.065704,-1.651568,39.328960,-22.893265,-5.352296,0.332731,1.871444,-0.149369,0.000000,0.000000,0.000000,0.000000,0.000000,0.000000
11764879.000000,-2.306572,-1.662582,1.244158,-1.448124,1.707942,1.282551,-0.579740,0.291448,-0.003412,0.716935,-0.197961,-0.167483,0.674745,-0.061342,-1.627764,39.253582,-22.940872,-5.451478,0.261320,1.760665,-0.202470,0.000000,0.000000,0.000000,0.000000,0.000000,0.000000
11764880.000000,-2.306293,-1.662588,1.244888,-1.448322,1.707771,1.283240,-0.579802,0.290089,-0.004301,0.723503,-0.198624,-0.168296,0.682136,-0.061701,-1.552386,39.328960,-23.087662,-5.475282,0.255826,1.721298,-0.163102,0.000000,0.000000,0.000000,0.000000,0.000000,0.000000
11764881.000000,-2.306007,-1.662597,1.245610,-1.448527,1.707599,1.283921,-0.579855,0.286866,-0.005942,0.720514,-0.199861,-0.170810,0.678571,-0.058736,-1.580157,39.451946,-23.016251,-5.451478,0.308927,1.793624,-0.208878,0.000000,0.000000,0.000000,0.000000,0.000000,0.000000
11764882.000000,-2.305725,-1.662602,1.246343,-1.448730,1.707424,1.284593,-0.579914,0.288148,-0.005779,0.719163,-0.204058,-0.169147,0.674414,-0.058543,-1.603961,39.523357,-23.111465,-5.376100,0.410551,1.923629,-0.196061,0.000000,0.000000,0.000000,0.000000,0.000000,0.000000
11764883.000000,-2.305450,-1.662611,1.247075,-1.448933,1.707256,1.285264,-0.579969,0.286856,-0.006284,0.722886,-0.201168,-0.168499,0.666498,-0.057091,-1.528582,39.622540,-23.286026,-5.328493,0.398649,2.027084,-0.215287,0.000000,0.000000,0.000000,0.000000,0.000000,0.000000
11764884.000000,-2.305167,-1.662619,1.247821,-1.449131,1.707089,1.285953,-0.580034,0.284155,-0.005943,0.726468,-0.199824,-0.166820,0.687920,-0.059310,-1.528582,39.693951,-23.579605,-5.376100,0.351041,1.955673,-0.155778,0.000000,0.000000,0.000000,0.000000,0.000000,0.000000
11764885.000000,-2.304892,-1.662632,1.248554,-1.449329,1.706919,1.286654,-0.580096,0.283691,-0.007458,0.743327,-0.199159,-0.167157,0.693551,-0.054480,-1.453204,39.840740,-23.774002,-5.427675,0.339139,1.754256,-0.136552,0.000000,0.000000,0.000000,0.000000,0.000000,0.000000
11764886.000000,-2.304613,-1.662647,1.249293,-1.449530,1.706754,1.287346,-0.580146,0.282082,-0.009102,0.736922,-0.199531,-0.167422,0.689974,-0.051102,-1.453204,40.015301,-23.948563,-5.427675,0.327238,1.721298,-0.221696,0.000000,0.000000,0.000000,0.000000,0.000000,0.000000
11764887.000000,-2.304338,-1.662665,1.250045,-1.449733,1.706581,1.288000,-0.580211,0.286225,-0.013270,0.739927,-0.198183,-0.169412,0.680407,-0.054987,-1.480975,40.185894,-24.218338,-5.376100,0.374845,1.903487,-0.155778,0.000000,0.000000,0.000000,0.000000,0.000000,0.000000
11764888.000000,-2.304065,-1.662683,1.250768,-1.449933,1.706416,1.288662,-0.580266,0.280682,-0.016283,0.736918,-0.199278,-0.168780,0.668653,-0.058093,-1.480975,40.356487,-24.242142,-5.352296,0.386747,2.085677,-0.208878,0.000000,0.000000,0.000000,0.000000,0.000000,0.000000
11764889.000000,-2.303795,-1.662701,1.251498,-1.450140,1.706249,1.289341,-0.580330,0.279047,-0.018390,0.736458,-0.199182,-0.165116,0.671416,-0.059729,-1.453204,40.527081,-24.242142,-5.352296,0.410551,2.104903,-0.155778,0.000000,0.000000,0.000000,0.000000,0.000000,0.000000
11764890.000000,-2.303531,-1.662715,1.252234,-1.450341,1.706083,1.290017,-0.580387,0.272000,-0.017692,0.735708,-0.199803,-0.165101,0.668584,-0.058040,-1.381793,40.602459,-24.265945,-5.352296,0.381254,2.001449,-0.169511,0.000000,0.000000,0.000000,0.000000,0.000000,0.000000
11764891.000000,-2.303259,-1.662726,1.252965,-1.450540,1.705917,1.290698,-0.580439,0.270901,-0.012511,0.734709,-0.199536,-0.169285,0.667089,-0.060198,-1.354022,40.602459,-24.436539,-5.376100,0.332731,1.949264,-0.215287,0.000000,0.000000,0.000000,0.000000,0.000000,0.000000
11764892.000000,-2.302996,-1.662740,1.253691,-1.450742,1.705743,1.291366,-0.580499,0.266675,-0.013161,0.728439,-0.199612,-0.173609,0.661962,-0.061313,-1.231036,40.650066,-24.289749,-5.399904,0.315336,1.903487,-0.163102,0.000000,0.000000,0.000000,0.000000,0.000000,0.000000
11764893.000000,-2.302739,-1.662754,1.254407,-1.450944,1.705559,1.292049,-0.580553,0.264083,-0.011761,0.726438,-0.202581,-0.176460,0.662184,-0.059114,-1.084246,40.749249,-24.190567,-5.427675,0.410551,1.890670,-0.188737,0.000000,0.000000,0.000000,0.000000,0.000000,0.000000
11764894.000000,-2.302476,-1.662770,1.255134,-1.451154,1.705390,1.292716,-0.580611,0.259521,-0.010568,0.723213,-0.203775,-0.171037,0.660128,-0.057003,-1.032672,40.844463,-24.019974,-5.352296,0.440763,1.930038,-0.208878,0.000000,0.000000,0.000000,0.000000,0.000000,0.000000
11764895.000000,-2.302222,-1.662776,1.255869,-1.451360,1.705221,1.293379,-0.580669,0.259257,-0.008799,0.721898,-0.209174,-0.164849,0.667173,-0.057570,-0.961260,40.773052,-23.996170,-5.304689,0.422452,2.001449,-0.182328,0.000000,0.000000,0.000000,0.000000,0.000000,0.000000
11764896.000000,-2.301968,-1.662789,1.256588,-1.451563,1.705059,1.294068,-0.580724,0.257452,-0.009544,0.720903,-0.207127,-0.165632,0.672259,-0.051853,-0.810504,40.773052,-23.849380,-5.304689,0.416959,1.897079,-0.202470,0.000000,0.000000,0.000000,0.000000,0.000000,0.000000
11764897.000000,-2.301705,-1.662790,1.257314,-1.451775,1.704899,1.294762,-0.580786,0.259991,-0.004150,0.719811,-0.207345,-0.164674,0.680899,-0.054779,-0.735125,40.650066,-23.750198,-5.229311,0.369352,1.708480,-0.155778,0.000000,0.000000,0.000000,0.000000,0.000000,0.000000
11764898.000000,-2.301449,-1.662793,1.258032,-1.451983,1.704732,1.295447,-0.580836,0.260384,-0.004241,0.721389,-0.208030,-0.161182,0.684938,-0.053277,-0.687518,40.550884,-23.702591,-5.130128,0.362943,1.702071,-0.196061,0.000000,0.000000,0.000000,0.000000,0.000000,0.000000
11764899.000000,-2.301184,-1.662803,1.258754,-1.452196,1.704565,1.296130,-0.580895,0.261954,-0.004125,0.722165,-0.206570,-0.163271,0.680061,-0.050288,-0.711321,40.578655,-23.603409,-4.955568,0.356534,1.786300,-0.169511,0.000000,0.000000,0.000000,0.000000,0.000000,0.000000
11764900.000000,-2.300925,-1.662810,1.259475,-1.452412,1.704399,1.296805,-0.580946,0.264285,-0.002030,0.716817,-0.212612,-0.161705,0.681999,-0.054992,-0.762896,40.527081,-23.555801,-4.757204,0.405057,1.865035,-0.202470,0.000000,0.000000,0.000000,0.000000,0.000000,0.000000
11764901.000000,-2.300669,-1.662813,1.260190,-1.452625,1.704232,1.297494,-0.581009,0.262598,-0.002546,0.713309,-0.212486,-0.162287,0.678987,-0.057318,-0.762896,40.427898,-23.504227,-4.610414,0.500272,1.832076,-0.142960,0.000000,0.000000,0.000000,0.000000,0.000000,0.000000
11764902.000000,-2.300405,-1.662815,1.260920,-1.452837,1.704073,1.298184,-0.581059,0.261097,-0.001899,0.715611,-0.211008,-0.153751,0.681813,-0.054332,-0.810504,40.281109,-23.603409,-4.511232,0.482877,1.760665,-0.202470,0.000000,0.000000,0.000000,0.000000,0.000000,0.000000
11764903.000000,-2.300152,-1.662820,1.261645,-1.453047,1.703922,1.298882,-0.581113,0.261858,-0.004096,0.733843,-0.210666,-0.156279,0.683599,-0.054478,-0.810504,40.233501,-23.726395,-4.388246,0.440763,1.695663,-0.208878,0.000000,0.000000,0.000000,0.000000,0.000000,0.000000
11764904.000000,-2.299897,-1.662822,1.262376,-1.453257,1.703769,1.299581,-0.581173,0.255121,-0.001829,0.728154,-0.208530,-0.150224,0.681977,-0.052592,-0.786700,40.162090,-23.825577,-4.340639,0.434354,1.676437,-0.149369,0.000000,0.000000,0.000000,0.000000,0.000000,0.000000
11764905.000000,-2.299645,-1.662832,1.263101,-1.453479,1.703602,1.300249,-0.581219,0.256083,-0.002353,0.725049,-0.212170,-0.155723,0.683184,-0.050981,-0.762896,40.185894,-23.825577,-4.213686,0.464567,1.754256,-0.208878,0.000000,0.000000,0.000000,0.000000,0.000000,0.000000
11764906.000000,-2.299392,-1.662834,1.263822,-1.453699,1.703440,1.300920,-0.581273,0.255171,-0.000238,0.722910,-0.215531,-0.161411,0.679908,-0.051649,-0.762896,40.110516,-23.972366,-4.066896,0.428861,1.942855,-0.221696,0.000000,0.000000,0.000000,0.000000,0.000000,0.000000
11764907.000000,-2.299139,-1.662833,1.264549,-1.453910,1.703280,1.301601,-0.581334,0.254061,-0.000226,0.727063,-0.210943,-0.158601,0.675971,-0.054259,-0.762896,39.963726,-24.119156,-4.066896,0.422452,2.060043,-0.188737,0.000000,0.000000,0.000000,0.000000,0.000000,0.000000
11764908.000000,-2.298894,-1.662835,1.265282,-1.454126,1.703116,1.302288,-0.581386,0.255141,0.001012,0.727025,-0.214707,-0.161825,0.672016,-0.053939,-0.687518,39.892315,-24.242142,-3.920107,0.434354,1.962081,-0.208878,0.000000,0.000000,0.000000,0.000000,0.000000,0.000000
11764909.000000,-2.298637,-1.662833,1.265991,-1.454342,1.702956,1.302985,-0.581449,0.255560,0.000573,0.718083,-0.214361,-0.165084,0.672573,-0.060922,-0.735125,39.745525,-24.265945,-3.892336,0.470060,1.851302,-0.149369,0.000000,0.000000,0.000000,0.000000,0.000000,0.000000
11764910.000000,-2.298385,-1.662831,1.266714,-1.454565,1.702792,1.303661,-0.581496,0.254495,0.002153,0.716101,-0.216962,-0.166929,0.673241,-0.057162,-0.687518,39.646343,-24.242142,-3.769350,0.494779,1.884261,-0.215287,0.000000,0.000000,0.000000,0.000000,0.000000,0.000000
11764911.000000,-2.298133,-1.662828,1.267424,-1.454776,1.702635,1.304341,-0.581551,0.255238,0.003344,0.712790,-0.213032,-0.163195,0.670559,-0.052808,-0.735125,39.547161,-24.218338,-3.745546,0.506681,1.995040,-0.196061,0.000000,0.000000,0.000000,0.000000,0.000000,0.000000
11764912.000000,-2.297876,-1.662825,1.268130,-1.455000,1.702479,1.305027,-0.581608,0.252054,0.003591,0.708136,-0.217798,-0.160686,0.672107,-0.049374,-0.810504,39.475750,-23.972366,-3.646364,0.524076,2.014266,-0.188737,0.000000,0.000000,0.000000,0.000000,0.000000,0.000000
11764913.000000,-2.297632,-1.662823,1.268844,-1.455223,1.702321,1.305707,-0.581662,0.251496,0.002720,0.704317,-0.223150,-0.157168,0.674586,-0.051240,-0.786700,39.451946,-23.825577,-3.570986,0.506681,2.014266,-0.182328,0.000000,0.000000,0.000000,0.000000,0.000000,0.000000
11764914.000000,-2.297386,-1.662814,1.269555,-1.455442,1.702167,1.306395,-0.581715,0.248517,0.003960,0.709960,-0.220953,-0.157528,0.681111,-0.057318,-0.786700,39.352764,-23.774002,-3.547182,0.434354,1.981307,-0.182328,0.000000,0.000000,0.000000,0.000000,0.000000,0.000000
11764915.000000,-2.297136,-1.662803,1.270272,-1.455664,1.702013,1.307073,-0.581763,0.248507,0.005943,0.708802,-0.220986,-0.154302,0.689999,-0.056157,-0.762896,39.205975,-23.702591,-3.448000,0.381254,1.897079,-0.202470,0.000000,0.000000,0.000000,0.000000,0.000000,0.000000
11764916.000000,-2.296893,-1.662798,1.270978,-1.455881,1.701856,1.307760,-0.581818,0.248961,0.004978,0.710825,-0.220013,-0.155387,0.690723,-0.057477,-0.711321,39.158367,-23.678787,-3.400392,0.422452,1.806442,-0.169511,0.000000,0.000000,0.000000,0.000000,0.000000,0.000000
11764917.000000,-2.296654,-1.662795,1.271693,-1.456105,1.701701,1.308444,-0.581868,0.244002,0.003895,0.709256,-0.219551,-0.156110,0.683353,-0.056210,-0.612139,39.130596,-23.651016,-3.325014,0.470060,1.786300,-0.196061,0.000000,0.000000,0.000000,0.000000,0.000000,0.000000
11764918.000000,-2.296414,-1.662786,1.272414,-1.456328,1.701544,1.309111,-0.581920,0.249530,0.005326,0.707291,-0.219562,-0.152477,0.678321,-0.055994,-0.564532,39.011578,-23.750198,-3.249635,0.542386,1.890670,-0.196061,0.000000,0.000000,0.000000,0.000000,0.000000,0.000000
11764919.000000,-2.296176,-1.662786,1.273128,-1.456541,1.701401,1.309779,-0.581972,0.242366,0.003509,0.708461,-0.218264,-0.150369,0.670240,-0.050737,-0.489153,39.011578,-23.825577,-3.225832,0.524076,1.968490,-0.202470,0.000000,0.000000,0.000000,0.000000,0.000000,0.000000
11764920.000000,-2.295943,-1.662782,1.273850,-1.456754,1.701256,1.310453,-0.582024,0.239564,0.002958,0.706092,-0.216030,-0.144421,0.673699,-0.052950,-0.366168,38.983807,-23.972366,-3.249635,0.494779,1.955673,-0.182328,0.000000,0.000000,0.000000,0.000000,0.000000,0.000000
11764921.000000,-2.295715,-1.662783,1.274566,-1.456965,1.701105,1.311137,-0.582075,0.235034,0.001299,0.720950,-0.211620,-0.146110,0.672959,-0.053545,-0.290789,39.011578,-24.019974,-3.277406,0.494779,1.903487,-0.188737,0.000000,0.000000,0.000000,0.000000,0.000000,0.000000
11764922.000000,-2.295480,-1.662790,1.275277,-1.457178,1.700958,1.311812,-0.582123,0.234794,-0.001378,0.720516,-0.209700,-0.141585,0.670720,-0.052157,-0.191607,39.106792,-24.190567,-3.249635,0.470060,1.974899,-0.229020,0.000000,0.000000,0.000000,0.000000,0.000000,0.000000
11764923.000000,-2.295244,-1.662797,1.275991,-1.457387,1.700807,1.312469,-0.582180,0.236501,-0.003252,0.716797,-0.208035,-0.138619,0.671002,-0.055676,-0.191607,39.205975,-24.242142,-3.225832,0.464567,2.027084,-0.163102,0.000000,0.000000,0.000000,0.000000,0.000000,0.000000
11764924.000000,-2.295013,-1.662800,1.276691,-1.457597,1.700661,1.313150,-0.582223,0.234005,-0.000141,0.712355,-0.210619,-0.141877,0.674448,-0.049388,-0.144000,39.253582,-24.190567,-3.178224,0.482877,2.001449,-0.208878,0.000000,0.000000,0.000000,0.000000,0.000000,0.000000
11764925.000000,-2.294782,-1.662809,1.277410,-1.457801,1.700514,1.313836,-0.582275,0.230619,-0.002715,0.711999,-0.207049,-0.146249,0.678545,-0.047559,-0.068621,39.376568,-24.289749,-3.202028,0.542386,1.916305,-0.175919,0.000000,0.000000,0.000000,0.000000,0.000000,0.000000
11764926.000000,-2.294554,-1.662817,1.278122,-1.457999,1.700371,1.314506,-0.582324,0.226517,-0.004496,0.707547,-0.201562,-0.147243,0.675448,-0.048881,-0.044818,39.499554,-24.190567,-3.249635,0.547880,1.884261,-0.196061,0.000000,0.000000,0.000000,0.000000,0.000000,0.000000
11764927.000000,-2.294329,-1.662823,1.278826,-1.458196,1.700232,1.315178,-0.582371,0.225990,-0.004617,0.706674,-0.200510,-0.147496,0.675194,-0.045301,0.030561,39.574932,-24.190567,-3.301210,0.535978,1.884261,-0.208878,0.000000,0.000000,0.000000,0.000000,0.000000,0.000000
11764928.000000,-2.294115,-1.662833,1.279534,-1.458395,1.700098,1.315845,-0.582426,0.221765,-0.012760,0.704619,-0.201691,-0.146447,0.672314,-0.045653,0.228925,39.721722,-24.071548,-3.400392,0.488370,1.871444,-0.149369,0.000000,0.000000,0.000000,0.000000,0.000000,0.000000
11764929.000000,-2.293891,-1.662838,1.280230,-1.458590,1.699955,1.316526,-0.582466,0.224242,-0.010069,0.702408,-0.200793,-0.147990,0.669466,-0.045593,0.328107,39.769329,-23.972366,-3.448000,0.494779,1.877853,-0.221696,0.000000,0.000000,0.000000,0.000000,0.000000,0.000000
11764930.000000,-2.293668,-1.662841,1.280925,-1.458784,1.699817,1.317202,-0.582513,0.219851,-0.007606,0.702343,-0.199827,-0.143362,0.666583,-0.043489,0.403486,39.793133,-23.801773,-3.499574,0.476469,1.897079,-0.229020,0.000000,0.000000,0.000000,0.000000,0.000000,0.000000
11764931.000000,-2.293454,-1.662843,1.281637,-1.458974,1.699675,1.317878,-0.582570,0.216258,-0.005880,0.702572,-0.195787,-0.143480,0.670757,-0.049437,0.502668,39.816936,-23.750198,-3.523378,0.434354,1.877853,-0.149369,0.000000,0.000000,0.000000,0.000000,0.000000,0.000000
11764932.000000,-2.293230,-1.662838,1.282332,-1.459170,1.699539,1.318576,-0.582617,0.218326,-0.002439,0.698814,-0.200477,-0.141225,0.676492,-0.050460,0.550275,39.745525,-23.678787,-3.523378,0.446256,1.754256,-0.155778,0.000000,0.000000,0.000000,0.000000,0.000000,0.000000
11764933.000000,-2.293003,-1.662832,1.283030,-1.459362,1.699400,1.319269,-0.582658,0.221303,-0.000562,0.694039,-0.196404,-0.135941,0.696415,-0.049521,0.550275,39.693951,-23.456619,-3.570986,0.488370,1.630660,-0.221696,0.000000,0.000000,0.000000,0.000000,0.000000,0.000000
11764934.000000,-2.292782,-1.662830,1.283723,-1.459555,1.699261,1.319953,-0.582709,0.222841,0.000633,0.706935,-0.198454,-0.136300,0.691973,-0.051972,0.550275,39.646343,-23.357437,-3.547182,0.530485,1.617843,-0.196061,0.000000,0.000000,0.000000,0.000000,0.000000,0.000000
11764935.000000,-2.292562,-1.662822,1.284424,-1.459743,1.699132,1.320634,-0.582759,0.221590,0.003219,0.702328,-0.195352,-0.133641,0.683806,-0.050047,0.526471,39.523357,-23.286026,-3.570986,0.488370,1.714889,-0.142960,0.000000,0.000000,0.000000,0.000000,0.000000,0.000000
11764936.000000,-2.292341,-1.662817,1.285125,-1.459932,1.698997,1.321316,-0.582798,0.223484,0.003756,0.695075,-0.192728,-0.133085,0.687968,-0.048377,0.502668,39.451946,-23.210648,-3.622560,0.488370,1.702071,-0.215287,0.000000,0.000000,0.000000,0.000000,0.000000,0.000000
11764937.000000,-2.292114,-1.662814,1.285816,-1.460117,1.698870,1.322004,-0.582849,0.225759,0.003666,0.696040,-0.190677,-0.131114,0.687611,-0.048044,0.474897,39.400372,-23.111465,-3.670168,0.458158,1.670028,-0.155778,0.000000,0.000000,0.000000,0.000000,0.000000,0.000000
11764938.000000,-2.291888,-1.662803,1.286523,-1.460301,1.698744,1.322683,-0.582895,0.227388,0.005194,0.694739,-0.186271,-0.130095,0.683388,-0.049747,0.403486,39.281353,-23.135269,-3.697939,0.422452,1.721298,-0.163102,0.000000,0.000000,0.000000,0.000000,0.000000,0.000000
11764939.000000,-2.291667,-1.662792,1.287232,-1.460482,1.698614,1.323369,-0.582938,0.228177,0.006964,0.697261,-0.184631,-0.133370,0.684215,-0.044954,0.351911,39.130596,-23.234451,-3.670168,0.369352,1.800033,-0.208878,0.000000,0.000000,0.000000,0.000000,0.000000,0.000000
11764940.000000,-2.291437,-1.662786,1.287933,-1.460657,1.698477,1.324065,-0.582986,0.229462,0.006294,0.700432,-0.184600,-0.134002,0.687320,-0.045375,0.252729,39.059185,-23.309830,-3.721742,0.386747,1.793624,-0.142960,0.000000,0.000000,0.000000,0.000000,0.000000,0.000000
