chaoyuefei/paper-gmrm-data/robot_logs/s2_dq_gmrm_xz_min_0.50_log_20260314_174318.csv
# time_ms,q_0,q_1,q_2,q_3,q_4,q_5,q_6,dq_0,dq_1,dq_2,dq_3,dq_4,dq_5,dq_6,tau_J_0,tau_J_1,tau_J_2,tau_J_3,tau_J_4,tau_J_5,tau_J_6,O_dP_EE_c_0,O_dP_EE_c_1,O_dP_EE_c_2,O_dP_EE_c_3,O_dP_EE_c_4,O_dP_EE_c_5
12860191.000000,-2.415663,-1.662604,1.042886,-1.356073,1.795469,1.081422,-0.548611,0.000924,0.000623,0.000335,0.000265,0.000284,-0.000199,-0.001009,0.006757,41.554607,-21.076248,-5.749025,0.799650,1.318465,0.041976,0.000000,0.000000,0.000000,0.000000,0.000000,0.000000
12860192.000000,-2.415666,-1.662602,1.042884,-1.356072,1.795470,1.081421,-0.548609,-0.000498,0.000972,-0.000334,0.000733,0.000427,0.000105,0.000548,0.054365,41.530804,-21.052444,-5.772829,0.793241,1.312057,0.009017,0.000000,0.000000,0.000000,0.000000,0.000000,0.000000
12860193.000000,-2.415666,-1.662605,1.042882,-1.356073,1.795467,1.081425,-0.548610,-0.000332,-0.000466,-0.000872,-0.000068,-0.000597,0.000307,0.000128,0.054365,41.578411,-21.024673,-5.749025,0.817045,1.305648,0.015426,0.000000,0.000000,0.000000,0.000000,0.000000,0.000000
12860194.000000,-2.415666,-1.662604,1.042884,-1.356075,1.795468,1.081424,-0.548615,-0.000221,0.000803,0.000068,-0.000695,-0.000195,-0.000507,-0.001373,0.054365,41.530804,-21.052444,-5.721254,0.811552,1.324874,0.054794,0.000000,0.000000,0.000000,0.000000,0.000000,0.000000
12860195.000000,-2.415665,-1.662606,1.042886,-1.356069,1.795468,1.081425,-0.548610,0.005232,-0.001529,0.006300,0.003232,0.000989,0.008015,0.002001,0.375715,41.483196,-21.052444,-5.749025,0.781339,1.350509,-0.023942,0.000000,0.000000,0.000000,0.000000,0.000000,0.000000
12860196.000000,-2.415656,-1.662605,1.042886,-1.356069,1.795465,1.081419,-0.548630,0.014568,-0.001312,0.006127,0.004191,-0.001419,0.004381,-0.009185,1.415143,41.213421,-20.977066,-5.550661,0.709928,1.526290,0.009017,0.000000,0.000000,0.000000,0.000000,0.000000,0.000000
12860197.000000,-2.415628,-1.662611,1.042898,-1.356065,1.795459,1.081411,-0.548654,0.019652,-0.003571,0.010961,0.004656,-0.002704,-0.000825,-0.015108,3.025861,40.896038,-20.977066,-5.328493,0.620206,1.779891,-0.031266,0.000000,0.000000,0.000000,0.000000,0.000000,0.000000
12860198.000000,-2.415580,-1.662609,1.042916,-1.356075,1.795441,1.081433,-0.548693,0.024389,-0.001024,0.013539,-0.002395,-0.010723,0.006055,-0.023645,4.858747,40.380291,-20.929459,-4.907960,0.589994,1.877853,-0.083451,0.000000,0.000000,0.000000,0.000000,0.000000,0.000000
12860199.000000,-2.415516,-1.662613,1.042939,-1.356088,1.795413,1.081481,-0.548753,0.030780,0.000227,0.015331,-0.009801,-0.018394,0.022397,-0.037931,6.763044,39.868511,-20.877884,-4.511232,0.608304,1.806442,-0.050492,0.000000,0.000000,0.000000,0.000000,0.000000,0.000000
12860200.000000,-2.415430,-1.662609,1.042966,-1.356117,1.795370,1.081558,-0.548823,0.044793,0.001297,0.018873,-0.021880,-0.026241,0.040015,-0.046331,8.349957,39.328960,-20.782669,-4.090700,0.685209,1.572067,-0.077042,0.000000,0.000000,0.000000,0.000000,0.000000,0.000000
12860201.000000,-2.415329,-1.662607,1.043006,-1.356159,1.795317,1.081654,-0.548922,0.057263,0.000676,0.026397,-0.029996,-0.034877,0.060078,-0.068298,9.833722,38.837017,-20.754898,-3.697939,0.715421,1.377059,-0.064225,0.000000,0.000000,0.000000,0.000000,0.000000,0.000000
12860202.000000,-2.415206,-1.662602,1.043054,-1.356202,1.795250,1.081760,-0.549042,0.075985,0.001968,0.034657,-0.036253,-0.045625,0.074760,-0.084515,10.996137,38.396648,-20.707291,-3.424196,0.739225,1.312057,-0.056901,0.000000,0.000000,0.000000,0.000000,0.000000,0.000000
12860203.000000,-2.415073,-1.662599,1.043104,-1.356266,1.795171,1.081890,-0.549180,0.096191,0.005378,0.041677,-0.042757,-0.055401,0.095747,-0.100844,12.011762,37.984051,-20.560501,-3.079042,0.679716,1.331283,-0.064225,0.000000,0.000000,0.000000,0.000000,0.000000,0.000000
12860204.000000,-2.414936,-1.662592,1.043170,-1.356336,1.795078,1.082038,-0.549342,0.105959,0.006945,0.051903,-0.051048,-0.070087,0.113266,-0.115910,13.027387,37.615093,-20.485123,-2.856874,0.566190,1.461288,-0.110001,0.000000,0.000000,0.000000,0.000000,0.000000,0.000000
12860205.000000,-2.414784,-1.662587,1.043253,-1.356417,1.794962,1.082209,-0.549533,0.124001,0.007058,0.064406,-0.059546,-0.091631,0.131629,-0.136713,13.892255,37.297710,-20.485123,-2.682314,0.488370,1.584884,-0.103593,0.000000,0.000000,0.000000,0.000000,0.000000,0.000000
12860206.000000,-2.414613,-1.662565,1.043354,-1.356516,1.794839,1.082414,-0.549757,0.139473,0.014576,0.075650,-0.072056,-0.101183,0.158221,-0.159374,14.586530,36.805767,-20.584305,-2.511720,0.332731,1.617843,-0.097184,0.000000,0.000000,0.000000,0.000000,0.000000,0.000000
12860207.000000,-2.414428,-1.662549,1.043463,-1.356629,1.794678,1.082652,-0.550009,0.157486,0.013297,0.086744,-0.087150,-0.123195,0.189615,-0.191233,15.153852,36.464581,-20.659683,-2.384767,0.320829,1.565658,-0.077042,0.000000,0.000000,0.000000,0.000000,0.000000,0.000000
12860208.000000,-2.414224,-1.662528,1.043598,-1.356761,1.794494,1.082918,-0.550284,0.171699,0.016310,0.104378,-0.102410,-0.142543,0.214554,-0.214941,15.625958,36.095623,-20.877884,-2.237978,0.374845,1.481429,-0.056901,0.000000,0.000000,0.000000,0.000000,0.000000,0.000000
12860209.000000,-2.414000,-1.662510,1.043738,-1.356912,1.794285,1.083218,-0.550562,0.191461,0.017966,0.118497,-0.116747,-0.165075,0.243745,-0.234549,15.947309,35.754436,-21.000870,-2.091188,0.422452,1.389877,-0.089860,0.000000,0.000000,0.000000,0.000000,0.000000,0.000000
12860210.000000,-2.413760,-1.662486,1.043890,-1.357077,1.794038,1.083528,-0.550853,0.207917,0.020498,0.127522,-0.131735,-0.190612,0.261398,-0.253642,16.169477,35.361675,-21.076248,-2.039613,0.566190,1.402694,-0.103593,0.000000,0.000000,0.000000,0.000000,0.000000,0.000000
12860211.000000,-2.413510,-1.662469,1.044058,-1.357259,1.793795,1.083861,-0.551156,0.223745,0.019476,0.142063,-0.145477,-0.208543,0.277170,-0.262050,16.419416,35.091900,-21.199234,-2.015810,0.571683,1.435653,-0.070634,0.000000,0.000000,0.000000,0.000000,0.000000,0.000000
12860212.000000,-2.413240,-1.662452,1.044227,-1.357442,1.793527,1.084217,-0.551451,0.240612,0.023368,0.152616,-0.161382,-0.226285,0.307436,-0.269995,16.518599,34.897503,-21.175430,-2.114992,0.578092,1.454879,-0.116410,0.000000,0.000000,0.000000,0.000000,0.000000,0.000000
12860213.000000,-2.412950,-1.662441,1.044416,-1.357648,1.793256,1.084590,-0.551748,0.259954,0.018135,0.162561,-0.176839,-0.241899,0.328730,-0.273800,16.590010,34.798321,-21.246841,-2.138796,0.500272,1.559249,-0.103593,0.000000,0.000000,0.000000,0.000000,0.000000,0.000000
12860214.000000,-2.412642,-1.662429,1.044610,-1.357886,1.792959,1.084985,-0.552049,0.273249,0.014494,0.171423,-0.194972,-0.256738,0.344777,-0.280569,16.641584,34.703106,-21.223038,-2.015810,0.369352,1.689254,-0.089860,0.000000,0.000000,0.000000,0.000000,0.000000,0.000000
12860215.000000,-2.412315,-1.662425,1.044811,-1.358131,1.792645,1.085400,-0.552351,0.294566,0.009239,0.180104,-0.211086,-0.271351,0.369136,-0.285310,16.490828,34.726910,-21.147659,-1.916628,0.308927,1.741439,-0.110001,0.000000,0.000000,0.000000,0.000000,0.000000,0.000000
12860216.000000,-2.411979,-1.662419,1.045022,-1.358405,1.792321,1.085856,-0.552654,0.305597,0.006816,0.188634,-0.226278,-0.287587,0.388614,-0.286581,16.518599,34.703106,-21.024673,-1.670656,0.279630,1.695663,-0.056901,0.000000,0.000000,0.000000,0.000000,0.000000,0.000000
12860217.000000,-2.411623,-1.662415,1.045244,-1.358692,1.791971,1.086341,-0.552938,0.319730,0.004619,0.199774,-0.244980,-0.310406,0.413013,-0.287779,16.443220,34.703106,-20.953262,-1.519899,0.315336,1.584884,-0.110001,0.000000,0.000000,0.000000,0.000000,0.000000,0.000000
12860218.000000,-2.411257,-1.662414,1.045484,-1.358984,1.791604,1.086840,-0.553224,0.335065,0.002578,0.208277,-0.259888,-0.332470,0.438937,-0.291952,16.419416,34.726910,-20.905655,-1.448488,0.369352,1.474105,-0.110001,0.000000,0.000000,0.000000,0.000000,0.000000,0.000000
12860219.000000,-2.410887,-1.662407,1.045730,-1.359286,1.791219,1.087361,-0.553505,0.343302,0.002875,0.218261,-0.269314,-0.345366,0.460298,-0.288742,16.617781,34.679302,-20.854080,-1.448488,0.416959,1.435653,-0.130143,0.000000,0.000000,0.000000,0.000000,0.000000,0.000000
12860220.000000,-2.410504,-1.662404,1.045978,-1.359604,1.790814,1.087895,-0.553787,0.355605,0.001948,0.226631,-0.283325,-0.365000,0.495398,-0.286904,16.740767,34.679302,-20.707291,-1.448488,0.482877,1.435653,-0.142960,0.000000,0.000000,0.000000,0.000000,0.000000,0.000000
12860221.000000,-2.410108,-1.662408,1.046244,-1.359940,1.790397,1.088454,-0.554066,0.367199,-0.000348,0.234674,-0.297181,-0.382807,0.505984,-0.283306,16.911360,34.750713,-20.631912,-1.448488,0.506681,1.513473,-0.089860,0.000000,0.000000,0.000000,0.000000,0.000000,0.000000
12860222.000000,-2.409698,-1.662407,1.046511,-1.360289,1.789968,1.089023,-0.554330,0.378612,-0.000214,0.246525,-0.313014,-0.394242,0.522369,-0.275679,17.109724,34.750713,-20.536697,-1.472292,0.512174,1.572067,-0.142960,0.000000,0.000000,0.000000,0.000000,0.000000,0.000000
12860223.000000,-2.409280,-1.662405,1.046792,-1.360659,1.789527,1.089612,-0.554603,0.390654,-0.000130,0.259662,-0.329962,-0.418190,0.541472,-0.274908,17.284285,34.750713,-20.512894,-1.297731,0.464567,1.565658,-0.083451,0.000000,0.000000,0.000000,0.000000,0.000000,0.000000
12860224.000000,-2.408841,-1.662405,1.047088,-1.361040,1.789072,1.090229,-0.554868,0.401597,-0.000076,0.269689,-0.343924,-0.425313,0.557144,-0.270045,17.482649,34.750713,-20.461319,-1.150941,0.428861,1.487838,-0.136552,0.000000,0.000000,0.000000,0.000000,0.000000,0.000000
12860225.000000,-2.408400,-1.662399,1.047392,-1.361430,1.788603,1.090863,-0.555142,0.423736,0.001627,0.280986,-0.357543,-0.430074,0.590804,-0.270594,17.681013,34.679302,-20.461319,-1.027956,0.393156,1.377059,-0.122819,0.000000,0.000000,0.000000,0.000000,0.000000,0.000000
12860226.000000,-2.407937,-1.662397,1.047701,-1.361850,1.788119,1.091513,-0.555411,0.439766,0.001090,0.290732,-0.381484,-0.445063,0.606701,-0.270847,17.926985,34.679302,-20.389908,-0.730409,0.374845,1.305648,-0.070634,0.000000,0.000000,0.000000,0.000000,0.000000,0.000000
12860227.000000,-2.407452,-1.662391,1.048015,-1.362278,1.787605,1.092187,-0.555663,0.455321,0.002494,0.299702,-0.394476,-0.462770,0.627700,-0.260978,18.125349,34.603924,-20.362137,-0.607423,0.428861,1.299239,-0.142960,0.000000,0.000000,0.000000,0.000000,0.000000,0.000000
12860229.000000,-2.406472,-1.662375,1.048682,-1.363166,1.786543,1.093576,-0.556183,0.467259,0.003990,0.318152,-0.420593,-0.496860,0.658950,-0.255797,18.720442,34.457134,-20.239151,-0.333681,0.488370,1.318465,-0.089860,0.000000,0.000000,0.000000,0.000000,0.000000,0.000000
12860230.000000,-2.405961,-1.662369,1.049035,-1.363628,1.785990,1.094307,-0.556431,0.480782,0.003775,0.331410,-0.448443,-0.510252,0.697826,-0.250315,19.041792,34.409527,-20.290726,-0.262270,0.554288,1.357833,-0.155778,0.000000,0.000000,0.000000,0.000000,0.000000,0.000000
12860231.000000,-2.405446,-1.662359,1.049402,-1.364106,1.785432,1.095043,-0.556680,0.490065,0.007885,0.342596,-0.455912,-0.523573,0.708451,-0.250458,19.363142,34.310345,-20.314529,-0.210695,0.518583,1.377059,-0.122819,0.000000,0.000000,0.000000,0.000000,0.000000,0.000000
12860232.000000,-2.404911,-1.662350,1.049776,-1.364605,1.784852,1.095811,-0.556931,0.503128,0.006625,0.353587,-0.469174,-0.539487,0.721193,-0.248789,19.660688,34.262737,-20.413712,-0.111513,0.542386,1.416427,-0.122819,0.000000,0.000000,0.000000,0.000000,0.000000,0.000000
12860233.000000,-2.404364,-1.662339,1.050166,-1.365111,1.784254,1.096591,-0.557181,0.521570,0.009428,0.366600,-0.485643,-0.549496,0.743113,-0.248330,19.910627,34.187359,-20.461319,-0.012331,0.512174,1.377059,-0.149369,0.000000,0.000000,0.000000,0.000000,0.000000,0.000000
12860234.000000,-2.403798,-1.662328,1.050583,-1.365636,1.783660,1.097404,-0.557433,0.531915,0.008354,0.376865,-0.490439,-0.561129,0.754905,-0.244532,20.180403,34.115948,-20.683487,0.059080,0.458158,1.337692,-0.103593,0.000000,0.000000,0.000000,0.000000,0.000000,0.000000
12860235.000000,-2.403223,-1.662312,1.050997,-1.366174,1.783029,1.098247,-0.557674,0.539982,0.008188,0.388315,-0.504859,-0.579146,0.774834,-0.242425,20.529524,34.016766,-20.782669,0.158263,0.452665,1.259872,-0.142960,0.000000,0.000000,0.000000,0.000000,0.000000,0.000000
12860236.000000,-2.402642,-1.662305,1.051431,-1.366713,1.782411,1.099098,-0.557919,0.556910,0.005683,0.401695,-0.517041,-0.593510,0.798422,-0.245818,20.898481,34.016766,-21.000870,0.186034,0.386747,1.175643,-0.083451,0.000000,0.000000,0.000000,0.000000,0.000000,0.000000
12860237.000000,-2.402035,-1.662290,1.051870,-1.367277,1.781759,1.099962,-0.558160,0.573214,0.006833,0.424094,-0.525734,-0.608849,0.808317,-0.245056,21.144453,33.893780,-21.147659,0.233641,0.351041,1.240646,-0.097184,0.000000,0.000000,0.000000,0.000000,0.000000,0.000000
12860238.000000,-2.401415,-1.662273,1.052326,-1.367828,1.781084,1.100841,-0.558395,0.585006,0.010738,0.433520,-0.534997,-0.631523,0.824245,-0.238310,21.441999,33.770794,-21.294449,0.086851,0.369352,1.292831,-0.149369,0.000000,0.000000,0.000000,0.000000,0.000000,0.000000
12860239.000000,-2.400783,-1.662256,1.052791,-1.368416,1.780400,1.101755,-0.558642,0.600538,0.012357,0.439114,-0.552732,-0.649394,0.844477,-0.237668,21.640364,33.699383,-21.369827,0.110655,0.398649,1.272689,-0.089860,0.000000,0.000000,0.000000,0.000000,0.000000,0.000000
12860240.000000,-2.400134,-1.662241,1.053256,-1.369002,1.779698,1.102691,-0.558872,0.613495,0.014392,0.447436,-0.556766,-0.666356,0.866769,-0.232094,21.862532,33.600201,-21.469009,0.011473,0.440763,1.279098,-0.142960,0.000000,0.000000,0.000000,0.000000,0.000000,0.000000
12860241.000000,-2.399462,-1.662232,1.053745,-1.369607,1.778979,1.103628,-0.559103,0.633629,0.013445,0.460165,-0.574749,-0.694058,0.883044,-0.231887,21.914106,33.600201,-21.615799,0.134459,0.596403,1.266280,-0.155778,0.000000,0.000000,0.000000,0.000000,0.000000,0.000000
12860242.000000,-2.398772,-1.662219,1.054243,-1.370234,1.778271,1.104604,-0.559343,0.650375,0.013324,0.474007,-0.584153,-0.702016,0.902423,-0.237380,22.088667,33.576397,-21.762589,0.309019,0.691617,1.240646,-0.103593,0.000000,0.000000,0.000000,0.000000,0.000000,0.000000
12860243.000000,-2.398068,-1.662211,1.054741,-1.370846,1.777558,1.105605,-0.559576,0.671417,0.009714,0.484522,-0.597048,-0.699640,0.945280,-0.232810,22.187849,33.576397,-21.933182,0.408202,0.840848,1.247054,-0.142960,0.000000,0.000000,0.000000,0.000000,0.000000,0.000000
12860244.000000,-2.397346,-1.662202,1.055253,-1.371484,1.776860,1.106609,-0.559810,0.683740,0.007099,0.490170,-0.605420,-0.697222,0.962362,-0.236174,22.334639,33.576397,-22.056168,0.578795,0.900358,1.259872,-0.136552,0.000000,0.000000,0.000000,0.000000,0.000000,0.000000
12860245.000000,-2.396615,-1.662196,1.055767,-1.372134,1.776162,1.107649,-0.560043,0.692703,0.007804,0.500041,-0.615698,-0.693296,0.985489,-0.232774,22.608381,33.600201,-22.107742,0.677977,0.960782,1.299239,-0.149369,0.000000,0.000000,0.000000,0.000000,0.000000,0.000000
12860246.000000,-2.395875,-1.662197,1.056297,-1.372782,1.775464,1.108683,-0.560272,0.695021,0.008167,0.510091,-0.629591,-0.692352,1.001746,-0.231542,22.160078,33.770794,-22.008560,0.479613,0.936979,1.396285,-0.142960,0.000000,0.000000,0.000000,0.000000,0.000000,0.000000
12860247.000000,-2.395130,-1.662190,1.056860,-1.373463,1.774776,1.109749,-0.560498,0.701221,0.007377,0.529100,-0.648713,-0.700536,1.006113,-0.226670,20.430342,33.869976,-21.714981,-0.087709,0.888456,1.552840,-0.110001,0.000000,0.000000,0.000000,0.000000,0.000000,0.000000
12860248.000000,-2.394394,-1.662184,1.057441,-1.374154,1.774079,1.110844,-0.560720,0.709898,0.005375,0.551285,-0.683088,-0.694816,1.040495,-0.220563,17.681013,33.893780,-21.175430,-0.952577,0.799650,1.617843,-0.136552,0.000000,0.000000,0.000000,0.000000,0.000000,0.000000
12860249.000000,-2.393656,-1.662180,1.058043,-1.374867,1.773380,1.111947,-0.560937,0.726335,0.004174,0.562028,-0.688001,-0.699968,1.055414,-0.216867,14.288983,33.770794,-20.290726,-1.992006,0.769437,1.611434,-0.149369,0.000000,0.000000,0.000000,0.000000,0.000000,0.000000
12860250.000000,-2.392931,-1.662182,1.058662,-1.375611,1.772708,1.113076,-0.561164,0.733341,0.003937,0.578139,-0.699819,-0.684964,1.064313,-0.220271,11.194501,33.600201,-19.334610,-2.583132,0.506681,1.662704,-0.116410,0.000000,0.000000,0.000000,0.000000,0.000000,0.000000
12860251.000000,-2.392208,-1.662184,1.059315,-1.376339,1.772035,1.114202,-0.561379,0.732247,0.005294,0.595088,-0.711246,-0.668968,1.101330,-0.216241,8.373761,33.354229,-18.549088,-3.102846,0.231107,1.721298,-0.142960,0.000000,0.000000,0.000000,0.000000,0.000000,0.000000
12860252.000000,-2.391478,-1.662195,1.059989,-1.377068,1.771381,1.115377,-0.561596,0.736653,0.002446,0.611850,-0.711328,-0.662087,1.108366,-0.219874,5.921979,33.259014,-17.811172,-3.547182,0.069974,1.649886,-0.110001,0.000000,0.000000,0.000000,0.000000,0.000000,0.000000
12860253.000000,-2.390756,-1.662213,1.060654,-1.377798,1.770722,1.116581,-0.561816,0.733803,-0.005046,0.625825,-0.710039,-0.654306,1.135794,-0.221445,3.942304,33.259014,-17.124832,-3.797121,-0.007845,1.474105,-0.097184,0.000000,0.000000,0.000000,0.000000,0.000000,0.000000
12860254.000000,-2.390038,-1.662234,1.061335,-1.378503,1.770084,1.117778,-0.562029,0.732534,-0.011259,0.634679,-0.701889,-0.649827,1.150952,-0.216759,2.184797,33.282818,-16.557510,-4.043092,0.010465,1.416427,-0.122819,0.000000,0.000000,0.000000,0.000000,0.000000,0.000000
12860255.000000,-2.389322,-1.662262,1.062008,-1.379219,1.769433,1.118996,-0.562253,0.721217,-0.017304,0.657550,-0.699657,-0.648795,1.164212,-0.219653,0.847822,33.382000,-16.017960,-4.043092,0.147794,1.474105,-0.110001,0.000000,0.000000,0.000000,0.000000,0.000000,0.000000
12860256.000000,-2.388602,-1.662299,1.062697,-1.379917,1.768780,1.120222,-0.562472,0.723031,-0.025921,0.671365,-0.696394,-0.650095,1.201376,-0.219027,-0.413775,33.528790,-15.553787,-3.991518,0.369352,1.448470,-0.163102,0.000000,0.000000,0.000000,0.000000,0.000000,0.000000
12860257.000000,-2.387872,-1.662338,1.063388,-1.380617,1.768135,1.121482,-0.562683,0.719710,-0.030757,0.676834,-0.696517,-0.650736,1.212189,-0.216098,-1.480975,33.624004,-15.061844,-3.844728,0.584501,1.227828,-0.169511,0.000000,0.000000,0.000000,0.000000,0.000000,0.000000
12860258.000000,-2.387143,-1.662375,1.064068,-1.381329,1.767506,1.122745,-0.562906,0.721712,-0.031539,0.673138,-0.703570,-0.647836,1.218216,-0.219951,-2.369647,33.600201,-14.621475,-3.499574,0.637601,1.045638,-0.122819,0.000000,0.000000,0.000000,0.000000,0.000000,0.000000
12860259.000000,-2.386422,-1.662417,1.064767,-1.382018,1.766886,1.123956,-0.563112,0.725193,-0.032945,0.679397,-0.703726,-0.634997,1.207244,-0.218141,-3.139300,33.600201,-14.228714,-3.202028,0.613798,1.123458,-0.188737,0.000000,0.000000,0.000000,0.000000,0.000000,0.000000
12860260.000000,-2.385707,-1.662456,1.065464,-1.382716,1.766277,1.125180,-0.563332,0.717252,-0.031699,0.682750,-0.700375,-0.630263,1.194822,-0.217197,-3.659014,33.501019,-13.812149,-2.833071,0.601896,1.214095,-0.142960,0.000000,0.000000,0.000000,0.000000,0.000000,0.000000
12860261.000000,-2.384992,-1.662490,1.066144,-1.383395,1.765671,1.126404,-0.563549,0.724515,-0.029390,0.683038,-0.702176,-0.616251,1.220210,-0.215388,-4.226336,33.330425,-13.221024,-2.583132,0.458158,1.299239,-0.122819,0.000000,0.000000,0.000000,0.000000,0.000000,0.000000
12860262.000000,-2.384277,-1.662512,1.066843,-1.384073,1.765091,1.127604,-0.563758,0.719059,-0.024521,0.683329,-0.688707,-0.606287,1.207387,-0.213083,-4.547686,33.013042,-12.804459,-2.436342,0.273221,1.409103,-0.130143,0.000000,0.000000,0.000000,0.000000,0.000000,0.000000
12860263.000000,-2.383572,-1.662519,1.067541,-1.384729,1.764503,1.128814,-0.563960,0.708909,-0.016044,0.688999,-0.677600,-0.596128,1.201483,-0.209516,-4.722247,32.473492,-12.435501,-2.606935,0.141385,1.494247,-0.175919,0.000000,0.000000,0.000000,0.000000,0.000000,0.000000
12860264.000000,-2.382880,-1.662524,1.068253,-1.385371,1.763915,1.130021,-0.564173,0.706594,-0.011134,0.696504,-0.667020,-0.592220,1.197285,-0.210528,-4.821429,31.961712,-12.094315,-2.781496,0.088285,1.422836,-0.149369,0.000000,0.000000,0.000000,0.000000,0.000000,0.000000
12860265.000000,-2.382185,-1.662517,1.068970,-1.386016,1.763324,1.131244,-0.564383,0.703420,-0.005346,0.702222,-0.655320,-0.593658,1.195849,-0.210694,-4.944415,31.346783,-11.772964,-2.928285,0.166105,1.259872,-0.122819,0.000000,0.000000,0.000000,0.000000,0.000000,0.000000
12860266.000000,-2.381484,-1.662503,1.069675,-1.386656,1.762740,1.132478,-0.564587,0.700068,0.002603,0.702351,-0.661660,-0.588854,1.222699,-0.207526,-5.095171,30.688213,-11.380203,-3.027467,0.255826,1.052047,-0.175919,0.000000,0.000000,0.000000,0.000000,0.000000,0.000000
12860267.000000,-2.380804,-1.662486,1.070405,-1.387296,1.762155,1.133678,-0.564797,0.690973,0.010593,0.706354,-0.652045,-0.592272,1.216093,-0.208594,-5.118975,30.049480,-11.233414,-3.079042,0.381254,0.987045,-0.149369,0.000000,0.000000,0.000000,0.000000,0.000000,0.000000
12860268.000000,-2.380118,-1.662463,1.071133,-1.387938,1.761583,1.134895,-0.565006,0.685889,0.016385,0.711382,-0.647053,-0.584686,1.209261,-0.207873,-5.067400,29.414715,-11.011246,-3.126650,0.362943,0.941268,-0.155778,0.000000,0.000000,0.000000,0.000000,0.000000,0.000000
12860269.000000,-2.379447,-1.662437,1.071871,-1.388546,1.761010,1.136095,-0.565204,0.684081,0.018901,0.717291,-0.637778,-0.575128,1.232664,-0.202065,-4.944415,28.851360,-10.741470,-3.348818,0.261320,0.857040,-0.182328,0.000000,0.000000,0.000000,0.000000,0.000000,0.000000
12860270.000000,-2.378776,-1.662413,1.072613,-1.389158,1.760452,1.137317,-0.565407,0.680297,0.018507,0.722306,-0.627424,-0.569073,1.220429,-0.200484,-4.773821,28.387188,-10.348709,-3.570986,0.159696,0.759078,-0.136552,0.000000,0.000000,0.000000,0.000000,0.000000,0.000000
12860271.000000,-2.378097,-1.662391,1.073350,-1.389778,1.759897,1.138531,-0.565606,0.681306,0.019917,0.725183,-0.624018,-0.557390,1.213498,-0.196461,-4.674639,27.994427,-10.031326,-3.769350,0.027860,0.836898,-0.149369,0.000000,0.000000,0.000000,0.000000,0.000000,0.000000
12860272.000000,-2.377421,-1.662367,1.074107,-1.390397,1.759348,1.139722,-0.565800,0.682905,0.020609,0.732612,-0.620687,-0.550968,1.200566,-0.198256,-4.773821,27.629436,-9.737747,-3.721742,0.004056,0.999862,-0.182328,0.000000,0.000000,0.000000,0.000000,0.000000,0.000000
12860273.000000,-2.376726,-1.662348,1.074869,-1.391026,1.758792,1.140950,-0.566005,0.680108,0.018588,0.750006,-0.622206,-0.553718,1.201393,-0.198540,-4.995989,27.383465,-9.440201,-3.570986,-0.031649,0.941268,-0.110001,0.000000,0.000000,0.000000,0.000000,0.000000,0.000000
12860274.000000,-2.376021,-1.662326,1.075630,-1.391639,1.758235,1.142205,-0.566196,0.687359,0.018024,0.755190,-0.617211,-0.549177,1.228138,-0.198556,-5.317339,27.113689,-9.122818,-3.448000,0.015958,0.706893,-0.163102,0.000000,0.000000,0.000000,0.000000,0.000000,0.000000
12860275.000000,-2.375327,-1.662314,1.076428,-1.392252,1.757679,1.143440,-0.566386,0.694276,0.016994,0.765880,-0.614341,-0.558198,1.225775,-0.197457,-5.686297,27.014507,-9.146622,-3.424196,0.141385,0.434066,-0.130143,0.000000,0.000000,0.000000,0.000000,0.000000,0.000000
12860276.000000,-2.374632,-1.662304,1.077212,-1.392855,1.757127,1.144680,-0.566573,0.694096,0.015935,0.774270,-0.612558,-0.554463,1.226410,-0.193425,-5.884661,26.943096,-9.023636,-3.523378,0.147794,0.369064,-0.163102,0.000000,0.000000,0.000000,0.000000,0.000000,0.000000
12860277.000000,-2.373955,-1.662299,1.078015,-1.393427,1.756575,1.145881,-0.566759,0.691258,0.013960,0.779475,-0.603129,-0.552452,1.218321,-0.193413,-5.983843,26.943096,-8.924454,-3.820925,0.159696,0.532027,-0.175919,0.000000,0.000000,0.000000,0.000000,0.000000,0.000000
12860278.000000,-2.373263,-1.662299,1.078827,-1.393997,1.756026,1.147099,-0.566958,0.689403,0.011053,0.785876,-0.586125,-0.551199,1.203398,-0.193746,-6.134600,27.014507,-8.753860,-4.265260,0.171598,0.739852,-0.136552,0.000000,0.000000,0.000000,0.000000,0.000000,0.000000
12860279.000000,-2.372584,-1.662298,1.079650,-1.394565,1.755486,1.148311,-0.567144,0.691990,0.006706,0.797191,-0.580587,-0.543653,1.218749,-0.190348,-6.257586,27.066082,-8.853043,-4.610414,0.166105,0.999862,-0.188737,0.000000,0.000000,0.000000,0.000000,0.000000,0.000000
12860280.000000,-2.371888,-1.662295,1.080496,-1.395138,1.754960,1.149508,-0.567341,0.691603,0.004879,0.808653,-0.579764,-0.542003,1.204992,-0.191542,-6.555132,27.066082,-8.952225,-4.808778,0.081876,1.169235,-0.149369,0.000000,0.000000,0.000000,0.000000,0.000000,0.000000
12860281.000000,-2.371186,-1.662292,1.081331,-1.395720,1.754439,1.150748,-0.567529,0.698067,0.004115,0.814970,-0.576787,-0.528674,1.207562,-0.185705,-6.852679,27.042278,-8.976028,-4.832582,-0.055453,1.025497,-0.149369,0.000000,0.000000,0.000000,0.000000,0.000000,0.000000
12860282.000000,-2.370486,-1.662288,1.082202,-1.396291,1.753905,1.151977,-0.567717,0.703468,0.003622,0.831747,-0.576526,-0.528157,1.232506,-0.186453,-7.320818,27.014507,-9.146622,-4.784975,-0.079257,0.792037,-0.149369,0.000000,0.000000,0.000000,0.000000,0.000000,0.000000
12860283.000000,-2.369770,-1.662280,1.083063,-1.396862,1.753381,1.153201,-0.567902,0.708896,0.004814,0.838282,-0.572145,-0.529630,1.222001,-0.187370,-7.816729,26.919292,-9.047440,-4.709596,-0.049044,0.720626,-0.136552,0.000000,0.000000,0.000000,0.000000,0.000000,0.000000
12860284.000000,-2.369053,-1.662269,1.083925,-1.397424,1.752859,1.154414,-0.568084,0.705917,0.006215,0.845306,-0.567898,-0.528715,1.230166,-0.186089,-8.360248,26.796307,-8.876846,-4.709596,-0.025240,0.817672,-0.169511,0.000000,0.000000,0.000000,0.000000,0.000000,0.000000
12860285.000000,-2.368347,-1.662261,1.084806,-1.397976,1.752344,1.155600,-0.568268,0.707904,0.006560,0.852784,-0.560484,-0.525011,1.210586,-0.183345,-8.856158,26.697124,-8.753860,-4.733400,0.010465,0.947677,-0.136552,0.000000,0.000000,0.000000,0.000000,0.000000,0.000000
12860286.000000,-2.367632,-1.662252,1.085687,-1.398534,1.751824,1.156820,-0.568451,0.708011,0.009276,0.862271,-0.556994,-0.523986,1.204934,-0.183978,-9.300494,26.625713,-8.559464,-4.757204,0.100187,0.901900,-0.149369,0.000000,0.000000,0.000000,0.000000,0.000000,0.000000
12860287.000000,-2.366922,-1.662241,1.086592,-1.399077,1.751312,1.158012,-0.568629,0.700678,0.011876,0.873952,-0.553851,-0.522474,1.225966,-0.178663,-9.847980,26.526531,-8.484085,-4.856386,0.052579,0.922042,-0.196061,0.000000,0.000000,0.000000,0.000000,0.000000,0.000000
12860288.000000,-2.366198,-1.662228,1.087518,-1.399629,1.750815,1.159218,-0.568809,0.708692,0.013216,0.885488,-0.549039,-0.513031,1.212095,-0.177787,-10.391498,26.451153,-8.460281,-4.931764,0.004056,0.960494,-0.163102,0.000000,0.000000,0.000000,0.000000,0.000000,0.000000
12860289.000000,-2.365476,-1.662230,1.088445,-1.400184,1.750314,1.160433,-0.568985,0.713332,0.009728,0.906265,-0.545275,-0.510217,1.209472,-0.180043,-10.887408,26.574139,-8.559464,-4.907960,-0.013339,0.901900,-0.169511,0.000000,0.000000,0.000000,0.000000,0.000000,0.000000
12860290.000000,-2.364756,-1.662232,1.089389,-1.400738,1.749812,1.161624,-0.569163,0.715408,0.003784,0.907945,-0.549405,-0.504019,1.207092,-0.181378,-11.454730,26.720928,-8.583267,-4.685792,-0.079257,0.934859,-0.188737,0.000000,0.000000,0.000000,0.000000,0.000000,0.000000
12860291.000000,-2.364033,-1.662235,1.090364,-1.401295,1.749322,1.162819,-0.569343,0.715876,-0.000363,0.941611,-0.548699,-0.500791,1.200296,-0.183548,-11.875262,26.867718,-8.805435,-4.562807,-0.072848,1.019088,-0.182328,0.000000,0.000000,0.000000,0.000000,0.000000,0.000000
12860292.000000,-2.363326,-1.662235,1.091316,-1.401832,1.748824,1.164022,-0.569525,0.730320,-0.002150,0.942766,-0.548799,-0.499584,1.218192,-0.180529,-12.224383,26.966900,-8.853043,-4.586610,-0.138766,1.025497,-0.169511,0.000000,0.000000,0.000000,0.000000,0.000000,0.000000
12860293.000000,-2.362613,-1.662243,1.092301,-1.402366,1.748341,1.165208,-0.569704,0.720781,-0.005115,0.950237,-0.541104,-0.496815,1.210585,-0.179120,-12.521930,27.137493,-8.976028,-4.685792,-0.157076,0.974227,-0.136552,0.000000,0.000000,0.000000,0.000000,0.000000,0.000000
12860294.000000,-2.361908,-1.662248,1.093263,-1.402894,1.747848,1.166400,-0.569878,0.715306,-0.006056,0.961189,-0.531749,-0.502436,1.201904,-0.175605,-12.716327,27.260479,-8.853043,-4.931764,-0.079257,1.064864,-0.155778,0.000000,0.000000,0.000000,0.000000,0.000000,0.000000
12860295.000000,-2.361202,-1.662259,1.094238,-1.403415,1.747352,1.167557,-0.570049,0.715327,-0.007297,0.959225,-0.530391,-0.500183,1.191128,-0.174395,-13.041644,27.407269,-8.630875,-5.106325,-0.055453,1.253463,-0.155778,0.000000,0.000000,0.000000,0.000000,0.000000,0.000000
12860296.000000,-2.360496,-1.662270,1.095232,-1.403940,1.746863,1.168740,-0.570216,0.707244,-0.007611,0.966969,-0.525859,-0.496360,1.178318,-0.176130,-13.311419,27.530254,-8.460281,-5.253114,0.046171,1.350509,-0.202470,0.000000,0.000000,0.000000,0.000000,0.000000,0.000000
12860297.000000,-2.359803,-1.662282,1.096200,-1.404465,1.746368,1.169931,-0.570388,0.703827,-0.007853,0.967131,-0.534805,-0.490310,1.195315,-0.175449,-13.533587,27.653240,-8.043716,-5.328493,0.105680,1.292831,-0.175919,0.000000,0.000000,0.000000,0.000000,0.000000,0.000000
12860298.000000,-2.359097,-1.662292,1.097214,-1.404992,1.745890,1.171120,-0.570560,0.704363,-0.010005,0.977308,-0.532482,-0.489325,1.186620,-0.175257,-13.807330,27.724651,-7.845352,-5.376100,0.088285,1.110641,-0.142960,0.000000,0.000000,0.000000,0.000000,0.000000,0.000000
12860299.000000,-2.358397,-1.662297,1.098208,-1.405516,1.745418,1.172324,-0.570717,0.701511,-0.010473,0.983348,-0.525165,-0.483252,1.181097,-0.166217,-14.029498,27.748455,-7.476395,-5.376100,0.058073,0.850631,-0.208878,0.000000,0.000000,0.000000,0.000000,0.000000,0.000000
12860300.000000,-2.357727,-1.662304,1.099229,-1.406028,1.744949,1.173515,-0.570892,0.695126,-0.011773,0.988462,-0.519808,-0.475696,1.199112,-0.169751,-13.981891,27.800030,-7.258194,-5.526857,-0.060946,0.706893,-0.142960,0.000000,0.000000,0.000000,0.000000,0.000000,0.000000
12860301.000000,-2.357047,-1.662316,1.100266,-1.406532,1.744495,1.174707,-0.571059,0.687859,-0.014446,0.995847,-0.515966,-0.466996,1.179148,-0.170544,-14.005694,27.923016,-7.059830,-5.772829,-0.150668,0.635482,-0.116410,0.000000,0.000000,0.000000,0.000000,0.000000,0.000000
12860302.000000,-2.356376,-1.662319,1.101288,-1.407035,1.744035,1.175898,-0.571214,0.684075,-0.014062,1.011917,-0.507582,-0.468344,1.168592,-0.167183,-13.906512,27.946819,-6.766251,-6.018800,-0.252291,0.713302,-0.188737,0.000000,0.000000,0.000000,0.000000,0.000000,0.000000
12860303.000000,-2.355719,-1.662313,1.102346,-1.407518,1.743580,1.177068,-0.571377,0.676120,-0.007282,1.017911,-0.497217,-0.463123,1.156650,-0.165355,-13.759723,27.823833,-6.718643,-6.439332,-0.240389,0.778304,-0.136552,0.000000,0.000000,0.000000,0.000000,0.000000,0.000000
12860304.000000,-2.355057,-1.662307,1.103405,-1.407998,1.743135,1.178266,-0.571532,0.671446,-0.002565,1.053694,-0.489527,-0.460290,1.157127,-0.159799,-13.708148,27.700848,-6.718643,-6.859865,-0.246798,0.798446,-0.182328,0.000000,0.000000,0.000000,0.000000,0.000000,0.000000
12860305.000000,-2.354408,-1.662297,1.104483,-1.408477,1.742679,1.179475,-0.571695,0.665587,-0.000092,1.065578,-0.485462,-0.458428,1.175480,-0.156690,-13.632770,27.482647,-6.667068,-7.133607,-0.240389,0.713302,-0.208878,0.000000,0.000000,0.000000,0.000000,0.000000,0.000000
12860306.000000,-2.353747,-1.662287,1.105567,-1.408949,1.742228,1.180684,-0.571859,0.666703,0.002788,1.068657,-0.481059,-0.455360,1.178083,-0.157554,-13.731952,27.335857,-6.595657,-7.454957,-0.162570,0.532027,-0.149369,0.000000,0.000000,0.000000,0.000000,0.000000,0.000000
12860307.000000,-2.353086,-1.662269,1.106663,-1.409432,1.741783,1.181896,-0.572018,0.662173,0.007174,1.075804,-0.477730,-0.453469,1.173705,-0.154611,-13.783526,27.089886,-6.742447,-7.502565,-0.162570,0.414840,-0.169511,0.000000,0.000000,0.000000,0.000000,0.000000,0.000000
12860308.000000,-2.352431,-1.662259,1.107767,-1.409912,1.741332,1.183089,-0.572176,0.663799,0.007888,1.085061,-0.477650,-0.461127,1.176352,-0.159030,-13.858905,26.943096,-6.643265,-7.427186,-0.199191,0.401107,-0.149369,0.000000,0.000000,0.000000,0.000000,0.000000,0.000000
12860309.000000,-2.351776,-1.662245,1.108882,-1.410386,1.740900,1.184284,-0.572336,0.661832,0.009002,1.087602,-0.473424,-0.448051,1.166379,-0.157513,-13.906512,26.772503,-6.496475,-7.454957,-0.234896,0.499068,-0.130143,0.000000,0.000000,0.000000,0.000000,0.000000,0.000000
12860310.000000,-2.351126,-1.662234,1.109990,-1.410842,1.740465,1.185493,-0.572486,0.658909,0.009250,1.091786,-0.467306,-0.446070,1.189223,-0.154166,-13.858905,26.625713,-6.349686,-7.649354,-0.300814,0.570480,-0.169511,0.000000,0.000000,0.000000,0.000000,0.000000,0.000000
12860311.000000,-2.350492,-1.662216,1.111116,-1.411295,1.740033,1.186674,-0.572639,0.655856,0.014372,1.101304,-0.464737,-0.441054,1.178787,-0.154207,-13.807330,26.403545,-6.127518,-7.899293,-0.360323,0.668441,-0.149369,0.000000,0.000000,0.000000,0.000000,0.000000,0.000000
12860312.000000,-2.349851,-1.662196,1.112256,-1.411751,1.739605,1.187872,-0.572790,0.648492,0.016050,1.115186,-0.457112,-0.432328,1.176549,-0.152446,-13.783526,26.133770,-6.202896,-8.121462,-0.414340,0.798446,-0.163102,0.000000,0.000000,0.000000,0.000000,0.000000,0.000000
12860313.000000,-2.349217,-1.662183,1.113421,-1.412206,1.739178,1.189064,-0.572940,0.640931,0.017417,1.129280,-0.457663,-0.429054,1.173048,-0.152218,-13.783526,25.986980,-6.226700,-8.244448,-0.515963,0.720626,-0.188737,0.000000,0.000000,0.000000,0.000000,0.000000,0.000000
12860314.000000,-2.348572,-1.662174,1.114628,-1.412669,1.738741,1.190271,-0.573096,0.636410,0.014191,1.148304,-0.454276,-0.430463,1.169960,-0.153840,-13.882709,25.891766,-6.619461,-8.196840,-0.396029,0.662032,-0.136552,0.000000,0.000000,0.000000,0.000000,0.000000,0.000000
12860315.000000,-2.347937,-1.662164,1.115827,-1.413134,1.738318,1.191467,-0.573242,0.640549,0.012045,1.162421,-0.467170,-0.422747,1.188912,-0.151829,-13.807330,25.792583,-7.012222,-8.069887,-0.342013,0.687667,-0.163102,0.000000,0.000000,0.000000,0.000000,0.000000,0.000000
12860316.000000,-2.347304,-1.662157,1.117051,-1.413599,1.737906,1.192636,-0.573392,0.637767,0.011957,1.173048,-0.466138,-0.423970,1.184674,-0.152743,-13.954120,25.768780,-7.452591,-7.946901,-0.384127,0.778304,-0.130143,0.000000,0.000000,0.000000,0.000000,0.000000,0.000000
12860317.000000,-2.346671,-1.662158,1.118277,-1.414063,1.737475,1.193819,-0.573536,0.632167,0.009872,1.190018,-0.462912,-0.425447,1.167520,-0.147289,-13.981891,25.840191,-7.869156,-7.899293,-0.282504,0.830489,-0.130143,0.000000,0.000000,0.000000,0.000000,0.000000,0.000000
12860318.000000,-2.346053,-1.662158,1.119521,-1.414512,1.737067,1.194992,-0.573675,0.626693,0.005948,1.203715,-0.462264,-0.416303,1.188799,-0.146672,-13.930316,25.891766,-8.067520,-7.946901,-0.318209,0.830489,-0.175919,0.000000,0.000000,0.000000,0.000000,0.000000,0.000000
12860319.000000,-2.345428,-1.662161,1.120777,-1.414970,1.736659,1.196167,-0.573811,0.629901,0.002168,1.214847,-0.457879,-0.419224,1.168416,-0.141611,-13.981891,25.986980,-8.166702,-7.998476,-0.353915,0.882674,-0.215287,0.000000,0.000000,0.000000,0.000000,0.000000,0.000000
12860320.000000,-2.344803,-1.662166,1.122014,-1.415435,1.736242,1.197331,-0.573959,0.630445,0.000004,1.220151,-0.463138,-0.417579,1.155849,-0.145433,-14.029498,26.062359,-8.115128,-7.998476,-0.342013,1.104232,-0.169511,0.000000,0.000000,0.000000,0.000000,0.000000,0.000000
12860321.000000,-2.344188,-1.662178,1.123272,-1.415904,1.735842,1.198493,-0.574107,0.627491,-0.002366,1.221934,-0.465017,-0.420092,1.153384,-0.149178,-14.005694,26.304363,-8.019913,-7.800111,-0.318209,1.123458,-0.103593,0.000000,0.000000,0.000000,0.000000,0.000000,0.000000
12860322.000000,-2.343562,-1.662196,1.124506,-1.416374,1.735431,1.199686,-0.574238,0.626705,-0.003747,1.243515,-0.465943,-0.418755,1.161222,-0.139693,-13.981891,26.820110,-8.067520,-7.700929,-0.306307,0.980636,-0.235429,0.000000,0.000000,0.000000,0.000000,0.000000,0.000000
12860323.000000,-2.342951,-1.662219,1.125746,-1.416841,1.735021,1.200877,-0.574395,0.614060,-0.009855,1.234237,-0.465331,-0.413018,1.185521,-0.147105,-13.731952,27.724651,-8.484085,-7.554140,-0.300814,0.922042,-0.116410,0.000000,0.000000,0.000000,0.000000,0.000000,0.000000
12860324.000000,-2.342346,-1.662238,1.126987,-1.417323,1.734631,1.202060,-0.574533,0.607428,-0.015273,1.225713,-0.465529,-0.403700,1.185517,-0.141959,-13.263812,28.851360,-9.293411,-7.379579,-0.312716,0.850631,-0.149369,0.000000,0.000000,0.000000,0.000000,0.000000,0.000000
12860325.000000,-2.341733,-1.662259,1.128193,-1.417791,1.734232,1.203262,-0.574675,0.603602,-0.019439,1.217567,-0.467517,-0.401830,1.184296,-0.142592,-12.767901,30.172466,-10.178116,-7.379579,-0.282504,0.778304,-0.182328,0.000000,0.000000,0.000000,0.000000,0.000000,0.000000
12860326.000000,-2.341140,-1.662274,1.129424,-1.418246,1.733832,1.204447,-0.574824,0.595786,-0.017030,1.221335,-0.464001,-0.399761,1.191699,-0.142684,-12.073627,31.445965,-11.356400,-7.478761,-0.174471,0.824081,-0.110001,0.000000,0.000000,0.000000,0.000000,0.000000,0.000000
12860327.000000,-2.340531,-1.662280,1.130627,-1.418700,1.733451,1.205623,-0.574955,0.596964,-0.018779,1.219020,-0.458134,-0.390700,1.173920,-0.136907,-11.629291,32.620281,-12.387894,-7.677125,-0.121371,1.149093,-0.188737,0.000000,0.000000,0.000000,0.000000,0.000000,0.000000
12860328.000000,-2.339932,-1.662279,1.131852,-1.419151,1.733060,1.206810,-0.575101,0.612784,-0.015101,1.219364,-0.454629,-0.396299,1.191313,-0.137759,-11.208758,33.600201,-13.419388,-7.776308,0.027860,1.429244,-0.130143,0.000000,0.000000,0.000000,0.000000,0.000000,0.000000
12860329.000000,-2.339328,-1.662274,1.133088,-1.419608,1.732674,1.207986,-0.575240,0.605894,-0.008403,1.220759,-0.455906,-0.393391,1.179455,-0.136031,-10.935016,34.409527,-14.446915,-7.847719,0.105680,1.605026,-0.136552,0.000000,0.000000,0.000000,0.000000,0.000000,0.000000
12860330.000000,-2.338712,-1.662267,1.134298,-1.420069,1.732289,1.209186,-0.575373,0.611401,-0.003902,1.217729,-0.451958,-0.385896,1.173606,-0.131670,-10.835834,35.091900,-15.232437,-7.847719,0.171598,1.584884,-0.215287,0.000000,0.000000,0.000000,0.000000,0.000000,0.000000
12860331.000000,-2.338102,-1.662257,1.135542,-1.420530,1.731912,1.210368,-0.575522,0.611645,-0.000514,1.224201,-0.453881,-0.383464,1.190441,-0.138750,-10.835834,35.607647,-16.117142,-7.776308,0.183500,1.532699,-0.136552,0.000000,0.000000,0.000000,0.000000,0.000000,0.000000
12860332.000000,-2.337497,-1.662253,1.136774,-1.420988,1.731540,1.211554,-0.575652,0.612547,0.001923,1.219031,-0.450696,-0.379490,1.177052,-0.139619,-10.788226,36.095623,-16.557510,-7.724733,0.135892,1.513473,-0.188737,0.000000,0.000000,0.000000,0.000000,0.000000,0.000000
12860333.000000,-2.336896,-1.662253,1.138007,-1.421445,1.731170,1.212740,-0.575792,0.608915,0.000443,1.228152,-0.456477,-0.371378,1.186458,-0.137058,-10.665240,36.563763,-17.124832,-7.776308,0.088285,1.526290,-0.202470,0.000000,0.000000,0.000000,0.000000,0.000000,0.000000
12860334.000000,-2.336312,-1.662257,1.139261,-1.421880,1.730820,1.213898,-0.575930,0.601855,-0.003300,1.228926,-0.451422,-0.364279,1.166536,-0.141056,-10.466876,37.004131,-17.664383,-7.946901,-0.019747,1.546432,-0.188737,0.000000,0.000000,0.000000,0.000000,0.000000,0.000000
12860335.000000,-2.335737,-1.662269,1.140515,-1.422306,1.730456,1.215061,-0.576070,0.591300,-0.007527,1.236100,-0.436215,-0.363659,1.147830,-0.140312,-10.145526,37.492107,-18.227737,-8.319826,-0.126864,1.630660,-0.142960,0.000000,0.000000,0.000000,0.000000,0.000000,0.000000
12860336.000000,-2.335180,-1.662291,1.141807,-1.422704,1.730086,1.216229,-0.576203,0.583266,-0.011898,1.249185,-0.425550,-0.362247,1.163745,-0.137717,-9.721026,38.031658,-18.989456,-8.863344,-0.145175,1.656295,-0.155778,0.000000,0.000000,0.000000,0.000000,0.000000,0.000000
12860337.000000,-2.334630,-1.662319,1.143114,-1.423099,1.729733,1.217365,-0.576329,0.569420,-0.018996,1.262182,-0.410868,-0.360248,1.142250,-0.138957,-9.252887,38.595013,-19.774979,-9.430666,-0.180880,1.812850,-0.208878,0.000000,0.000000,0.000000,0.000000,0.000000,0.000000
12860338.000000,-2.334079,-1.662354,1.144398,-1.423493,1.729362,1.218509,-0.576470,0.566857,-0.024814,1.271217,-0.405254,-0.364852,1.129612,-0.135220,-8.808551,39.182171,-20.461319,-9.950380,-0.157076,1.968490,-0.130143,0.000000,0.000000,0.000000,0.000000,0.000000,0.000000
12860339.000000,-2.333538,-1.662400,1.145703,-1.423886,1.728987,1.219660,-0.576600,0.560010,-0.030759,1.275834,-0.399844,-0.374781,1.126677,-0.128965,-8.411822,39.840740,-21.076248,-10.247927,-0.043551,1.916305,-0.142960,0.000000,0.000000,0.000000,0.000000,0.000000,0.000000
12860340.000000,-2.333000,-1.662448,1.146978,-1.424283,1.728623,1.220826,-0.576729,0.551084,-0.037139,1.296765,-0.397030,-0.368136,1.130524,-0.124690,-8.090472,40.455669,-21.445206,-10.446291,0.022367,1.779891,-0.149369,0.000000,0.000000,0.000000,0.000000,0.000000,0.000000
12860341.000000,-2.332471,-1.662493,1.148274,-1.424673,1.728260,1.221994,-0.576861,0.546590,-0.036881,1.294919,-0.397828,-0.367330,1.152864,-0.122715,-7.769122,40.991253,-21.837967,-10.541506,0.088285,1.689254,-0.122819,0.000000,0.000000,0.000000,0.000000,0.000000,0.000000
12860342.000000,-2.331936,-1.662542,1.149559,-1.425065,1.727897,1.223126,-0.576983,0.544911,-0.039933,1.288086,-0.397969,-0.368414,1.137843,-0.123516,-7.495379,41.530804,-21.885574,-10.640688,0.069974,1.754256,-0.163102,0.000000,0.000000,0.000000,0.000000,0.000000,0.000000
12860343.000000,-2.331419,-1.662596,1.150825,-1.425465,1.727537,1.224276,-0.577116,0.530040,-0.042992,1.282406,-0.398252,-0.359606,1.134744,-0.126756,-7.098650,42.094158,-21.909378,-10.593081,0.058073,1.786300,-0.122819,0.000000,0.000000,0.000000,0.000000,0.000000,0.000000
12860344.000000,-2.330902,-1.662648,1.152089,-1.425856,1.727184,1.225410,-0.577231,0.528398,-0.041007,1.272779,-0.398996,-0.353159,1.129846,-0.124771,-6.777300,42.609905,-21.615799,-10.493898,0.022367,1.858627,-0.188737,0.000000,0.000000,0.000000,0.000000,0.000000,0.000000
12860345.000000,-2.330391,-1.662684,1.153391,-1.426258,1.726836,1.226556,-0.577357,0.519683,-0.040718,1.278261,-0.400292,-0.350774,1.124808,-0.127363,-6.356768,42.903484,-21.837967,-10.319338,-0.067355,2.020675,-0.169511,0.000000,0.000000,0.000000,0.000000,0.000000,0.000000
12860346.000000,-2.329893,-1.662721,1.154659,-1.426656,1.726491,1.227719,-0.577481,0.510821,-0.040478,1.280276,-0.402025,-0.344568,1.147289,-0.130401,-5.983843,43.173260,-21.885574,-10.124941,-0.145175,2.001449,-0.116410,0.000000,0.000000,0.000000,0.000000,0.000000,0.000000
12860347.000000,-2.329401,-1.662752,1.155954,-1.427065,1.726153,1.228872,-0.577595,0.508432,-0.034515,1.276066,-0.404262,-0.339995,1.150923,-0.124051,-5.638690,43.320049,-22.131546,-9.875002,-0.114962,1.897079,-0.169511,0.000000,0.000000,0.000000,0.000000,0.000000,0.000000
12860348.000000,-2.328911,-1.662781,1.157246,-1.427477,1.725803,1.230034,-0.577714,0.501872,-0.032049,1.283431,-0.405737,-0.343694,1.147088,-0.121105,-5.218157,43.391460,-22.548111,-9.605227,-0.007845,1.851302,-0.169511,0.000000,0.000000,0.000000,0.000000,0.000000,0.000000
12860349.000000,-2.328427,-1.662814,1.158550,-1.427891,1.725452,1.231190,-0.577836,0.495832,-0.030645,1.280492,-0.407812,-0.343630,1.156504,-0.122681,-4.944415,43.466839,-22.917068,-9.307680,0.034269,1.877853,-0.182328,0.000000,0.000000,0.000000,0.000000,0.000000,0.000000
12860350.000000,-2.327952,-1.662833,1.159865,-1.428311,1.725105,1.232329,-0.577963,0.489686,-0.025780,1.288077,-0.411217,-0.346804,1.140017,-0.123482,-4.523882,43.367657,-23.381241,-9.010134,0.159696,1.923629,-0.097184,0.000000,0.000000,0.000000,0.000000,0.000000,0.000000
12860351.000000,-2.327478,-1.662861,1.161136,-1.428733,1.724759,1.233481,-0.578072,0.485561,-0.028126,1.285041,-0.423981,-0.342645,1.148263,-0.117153,-4.055743,43.367657,-23.504227,-8.863344,0.267728,1.949264,-0.188737,0.000000,0.000000,0.000000,0.000000,0.000000,0.000000
12860352.000000,-2.327011,-1.662879,1.162433,-1.429162,1.724421,1.234621,-0.578193,0.480218,-0.023770,1.276448,-0.427687,-0.342190,1.138108,-0.117764,-3.659014,43.220867,-23.750198,-8.541994,0.291532,1.962081,-0.149369,0.000000,0.000000,0.000000,0.000000,0.000000,0.000000
12860353.000000,-2.326548,-1.662902,1.163711,-1.429601,1.724078,1.235765,-0.578313,0.475860,-0.023211,1.276911,-0.429847,-0.336155,1.125414,-0.121623,-3.262286,43.173260,-23.920792,-8.220644,0.297025,2.060043,-0.136552,0.000000,0.000000,0.000000,0.000000,0.000000,0.000000
12860354.000000,-2.326084,-1.662926,1.164997,-1.430051,1.723743,1.236928,-0.578427,0.475605,-0.025750,1.272858,-0.439867,-0.330803,1.148554,-0.117506,-2.988543,43.121685,-23.972366,-7.700929,0.273221,2.014266,-0.188737,0.000000,0.000000,0.000000,0.000000,0.000000,0.000000
12860355.000000,-2.325620,-1.662951,1.166304,-1.430514,1.723423,1.238086,-0.578548,0.475455,-0.028257,1.280531,-0.447721,-0.330652,1.142297,-0.118201,-2.718768,43.097881,-24.265945,-7.133607,0.219205,1.858627,-0.142960,0.000000,0.000000,0.000000,0.000000,0.000000,0.000000
12860356.000000,-2.325166,-1.662977,1.167580,-1.430978,1.723084,1.239240,-0.578656,0.467387,-0.027736,1.280202,-0.451705,-0.331738,1.136570,-0.114959,-2.397418,43.097881,-24.412735,-6.637697,0.213712,1.877853,-0.188737,0.000000,0.000000,0.000000,0.000000,0.000000,0.000000
12860357.000000,-2.324721,-1.663008,1.168908,-1.431437,1.722741,1.240377,-0.578772,0.454835,-0.032070,1.285777,-0.453191,-0.342922,1.131463,-0.115491,-2.048296,43.173260,-25.027664,-6.193361,0.273221,1.930038,-0.163102,0.000000,0.000000,0.000000,0.000000,0.000000,0.000000
12860358.000000,-2.324272,-1.663031,1.170193,-1.431896,1.722413,1.241521,-0.578893,0.451090,-0.030273,1.306325,-0.452621,-0.337879,1.123955,-0.115633,-1.726946,43.173260,-25.368851,-5.919618,0.291532,2.027084,-0.142960,0.000000,0.000000,0.000000,0.000000,0.000000,0.000000
12860359.000000,-2.323844,-1.663058,1.171512,-1.432346,1.722068,1.242660,-0.579007,0.448288,-0.029436,1.308167,-0.451222,-0.337912,1.135957,-0.113147,-1.231036,43.197063,-25.936172,-5.749025,0.428861,2.144271,-0.188737,0.000000,0.000000,0.000000,0.000000,0.000000,0.000000
12860360.000000,-2.323422,-1.663083,1.172818,-1.432801,1.721731,1.243779,-0.579125,0.439787,-0.028355,1.304051,-0.452845,-0.334096,1.128857,-0.119680,-0.711321,43.197063,-26.205948,-5.626039,0.458158,2.287093,-0.142960,0.000000,0.000000,0.000000,0.000000,0.000000,0.000000
12860361.000000,-2.322994,-1.663103,1.174109,-1.433254,1.721395,1.244910,-0.579234,0.433377,-0.025660,1.301816,-0.449004,-0.327985,1.117731,-0.111331,-0.290789,43.121685,-26.523331,-5.574464,0.530485,2.469283,-0.188737,0.000000,0.000000,0.000000,0.000000,0.000000,0.000000
12860362.000000,-2.322577,-1.663127,1.175398,-1.433710,1.721067,1.246037,-0.579351,0.427584,-0.025159,1.292133,-0.452373,-0.326125,1.140541,-0.116304,0.153547,43.097881,-26.574905,-5.427675,0.542386,2.482101,-0.175919,0.000000,0.000000,0.000000,0.000000,0.000000,0.000000
12860363.000000,-2.322159,-1.663149,1.176686,-1.434178,1.720751,1.247183,-0.579460,0.422179,-0.024611,1.285351,-0.454301,-0.327400,1.131910,-0.114467,0.526471,43.074078,-26.547134,-5.130128,0.500272,2.397872,-0.202470,0.000000,0.000000,0.000000,0.000000,0.000000,0.000000
12860364.000000,-2.321738,-1.663170,1.177956,-1.434647,1.720422,1.248333,-0.579575,0.431411,-0.024255,1.285249,-0.465134,-0.324687,1.144302,-0.114609,0.724836,43.050274,-26.475723,-4.757204,0.494779,2.248641,-0.188737,0.000000,0.000000,0.000000,0.000000,0.000000,0.000000
12860365.000000,-2.321316,-1.663187,1.179231,-1.435120,1.720106,1.249465,-0.579685,0.426137,-0.022903,1.275585,-0.466917,-0.317066,1.134734,-0.114707,0.970807,42.974895,-26.352737,-4.340639,0.446256,2.104903,-0.175919,0.000000,0.000000,0.000000,0.000000,0.000000,0.000000
12860366.000000,-2.320897,-1.663201,1.180496,-1.435597,1.719793,1.250614,-0.579794,0.424183,-0.020743,1.271545,-0.466244,-0.312498,1.126464,-0.109399,1.216779,42.851910,-26.352737,-3.991518,0.428861,1.981307,-0.175919,0.000000,0.000000,0.000000,0.000000,0.000000,0.000000
12860367.000000,-2.320489,-1.663225,1.181756,-1.436060,1.719478,1.251750,-0.579901,0.422663,-0.023386,1.261617,-0.467787,-0.313233,1.140805,-0.106571,1.391340,42.903484,-26.082962,-3.697939,0.398649,1.897079,-0.149369,0.000000,0.000000,0.000000,0.000000,0.000000,0.000000
12860368.000000,-2.320081,-1.663239,1.183033,-1.436514,1.719161,1.252896,-0.580001,0.419083,-0.019077,1.259453,-0.459951,-0.317205,1.125601,-0.101625,1.665082,42.828106,-26.031387,-3.622560,0.446256,1.865035,-0.196061,0.000000,0.000000,0.000000,0.000000,0.000000,0.000000
12860369.000000,-2.319677,-1.663262,1.184281,-1.436961,1.718841,1.254031,-0.580107,0.412281,-0.021896,1.260534,-0.456764,-0.316642,1.136067,-0.104923,2.010236,42.875713,-25.936172,-3.622560,0.559781,2.014266,-0.182328,0.000000,0.000000,0.000000,0.000000,0.000000,0.000000
12860370.000000,-2.319272,-1.663276,1.185538,-1.437399,1.718536,1.255150,-0.580210,0.411813,-0.018005,1.252597,-0.450510,-0.310249,1.129270,-0.102174,2.160993,42.804302,-25.860794,-3.670168,0.625699,2.125045,-0.182328,0.000000,0.000000,0.000000,0.000000,0.000000,0.000000
12860371.000000,-2.318862,-1.663295,1.186770,-1.437847,1.718226,1.256291,-0.580316,0.409044,-0.020433,1.270222,-0.451257,-0.314483,1.120421,-0.099902,2.208601,42.828106,-25.690201,-3.598757,0.679716,2.150680,-0.188737,0.000000,0.000000,0.000000,0.000000,0.000000,0.000000
12860372.000000,-2.318455,-1.663313,1.188014,-1.438290,1.717907,1.257452,-0.580422,0.401910,-0.019135,1.258975,-0.448971,-0.312718,1.146122,-0.099232,2.260175,42.851910,-25.591019,-3.424196,0.739225,2.039901,-0.169511,0.000000,0.000000,0.000000,0.000000,0.000000,0.000000
12860373.000000,-2.318034,-1.663329,1.189265,-1.438743,1.717607,1.258608,-0.580515,0.408470,-0.019962,1.256127,-0.446493,-0.308814,1.142139,-0.096584,2.160993,42.828106,-25.591019,-3.249635,0.721830,1.838485,-0.208878,0.000000,0.000000,0.000000,0.000000,0.000000,0.000000
12860374.000000,-2.317614,-1.663339,1.190474,-1.439190,1.717316,1.259769,-0.580623,0.411872,-0.019054,1.241696,-0.442111,-0.298670,1.141298,-0.097285,2.061811,42.728924,-25.345047,-3.055238,0.649503,1.721298,-0.169511,0.000000,0.000000,0.000000,0.000000,0.000000,0.000000
12860375.000000,-2.317211,-1.663345,1.191712,-1.439627,1.717020,1.260923,-0.580722,0.413580,-0.014254,1.233591,-0.441089,-0.300627,1.146542,-0.101308,2.034040,42.582134,-25.297440,-2.904482,0.601896,1.572067,-0.163102,0.000000,0.000000,0.000000,0.000000,0.000000,0.000000
12860376.000000,-2.316807,-1.663359,1.192935,-1.440052,1.716734,1.262089,-0.580817,0.408899,-0.014280,1.255583,-0.432829,-0.294603,1.148772,-0.097804,2.109418,42.582134,-25.321243,-2.904482,0.554288,1.507064,-0.208878,0.000000,0.000000,0.000000,0.000000,0.000000,0.000000
12860377.000000,-2.316417,-1.663369,1.194178,-1.440468,1.716450,1.263238,-0.580924,0.410690,-0.013064,1.251938,-0.425585,-0.290625,1.164744,-0.099159,2.283979,42.534527,-25.444229,-3.003664,0.535978,1.689254,-0.149369,0.000000,0.000000,0.000000,0.000000,0.000000,0.000000
12860378.000000,-2.316010,-1.663378,1.195419,-1.440882,1.716170,1.264355,-0.581018,0.411323,-0.012028,1.242152,-0.417335,-0.284624,1.147986,-0.092146,2.307783,42.486919,-25.591019,-3.102846,0.554288,1.988631,-0.175919,0.000000,0.000000,0.000000,0.000000,0.000000,0.000000
12860379.000000,-2.315612,-1.663387,1.196656,-1.441285,1.715897,1.265496,-0.581113,0.403929,-0.011796,1.246787,-0.407982,-0.283571,1.130946,-0.091975,2.406965,42.463116,-25.884598,-3.325014,0.542386,2.183639,-0.188737,0.000000,0.000000,0.000000,0.000000,0.000000,0.000000
12860380.000000,-2.315218,-1.663392,1.197918,-1.441686,1.715605,1.266638,-0.581205,0.406473,-0.010503,1.246778,-0.404689,-0.286414,1.142837,-0.090781,2.482343,42.387737,-26.376541,-3.424196,0.620206,2.183639,-0.221696,0.000000,0.000000,0.000000,0.000000,0.000000,0.000000
12860381.000000,-2.314805,-1.663408,1.199151,-1.442099,1.715328,1.267794,-0.581310,0.407714,-0.008738,1.240149,-0.403753,-0.285377,1.124588,-0.098392,2.383161,42.411541,-26.424149,-3.424196,0.625699,2.137862,-0.169511,0.000000,0.000000,0.000000,0.000000,0.000000,0.000000
12860382.000000,-2.314389,-1.663412,1.200371,-1.442506,1.715048,1.268949,-0.581409,0.413188,-0.007587,1.235337,-0.409570,-0.284762,1.136502,-0.096718,2.208601,42.316326,-26.622513,-3.325014,0.649503,2.131454,-0.182328,0.000000,0.000000,0.000000,0.000000,0.000000,0.000000
12860383.000000,-2.313990,-1.663420,1.201596,-1.442918,1.714781,1.270078,-0.581508,0.409511,-0.008621,1.227138,-0.407513,-0.274224,1.127063,-0.095607,2.109418,42.288555,-26.622513,-3.202028,0.632108,2.183639,-0.196061,0.000000,0.000000,0.000000,0.000000,0.000000,0.000000
12860384.000000,-2.313587,-1.663434,1.202799,-1.443321,1.714506,1.271218,-0.581609,0.404980,-0.007920,1.220169,-0.400452,-0.271823,1.122660,-0.096352,2.085615,42.340130,-26.475723,-3.154421,0.637601,2.177230,-0.163102,0.000000,0.000000,0.000000,0.000000,0.000000,0.000000
12860385.000000,-2.313191,-1.663437,1.204011,-1.443719,1.714243,1.272369,-0.581712,0.395030,-0.006179,1.219957,-0.395716,-0.266359,1.136501,-0.097529,2.109418,42.217144,-26.229752,-3.102846,0.542386,2.144271,-0.136552,0.000000,0.000000,0.000000,0.000000,0.000000,0.000000
12860386.000000,-2.312790,-1.663437,1.205228,-1.444112,1.713991,1.273496,-0.581804,0.393816,-0.001483,1.211298,-0.390902,-0.257271,1.122481,-0.100759,2.109418,42.070354,-26.007584,-3.079042,0.434354,2.112228,-0.149369,0.000000,0.000000,0.000000,0.000000,0.000000,0.000000
12860387.000000,-2.312406,-1.663445,1.206439,-1.444500,1.713736,1.274645,-0.581893,0.388989,-0.004013,1.217732,-0.389424,-0.253416,1.116046,-0.096971,2.283979,42.046551,-26.007584,-3.126650,0.416959,2.039901,-0.202470,0.000000,0.000000,0.000000,0.000000,0.000000,0.000000
12860388.000000,-2.312025,-1.663444,1.207640,-1.444870,1.713490,1.275766,-0.581992,0.383397,-0.000496,1.206382,-0.384029,-0.257227,1.108288,-0.097334,2.406965,41.923565,-25.737808,-3.225832,0.362943,2.027084,-0.175919,0.000000,0.000000,0.000000,0.000000,0.000000,0.000000
12860389.000000,-2.311639,-1.663444,1.208838,-1.445256,1.713216,1.276910,-0.582095,0.381047,-0.001679,1.230381,-0.383375,-0.263921,1.106371,-0.098682,2.553754,41.824383,-25.690201,-3.154421,0.488370,1.988631,-0.116410,0.000000,0.000000,0.000000,0.000000,0.000000,0.000000
12860390.000000,-2.311253,-1.663444,1.210045,-1.445623,1.712947,1.278051,-0.582176,0.380373,-0.001962,1.219920,-0.377524,-0.262883,1.127132,-0.089015,2.581525,41.701397,-25.614822,-3.202028,0.601896,1.981307,-0.215287,0.000000,0.000000,0.000000,0.000000,0.000000,0.000000
12860391.000000,-2.310877,-1.663441,1.211263,-1.446001,1.712694,1.279188,-0.582275,0.377549,-0.001186,1.213952,-0.376143,-0.263298,1.123585,-0.092962,2.704511,41.530804,-25.642593,-3.126650,0.620206,1.897079,-0.149369,0.000000,0.000000,0.000000,0.000000,0.000000,0.000000
12860392.000000,-2.310489,-1.663440,1.212447,-1.446365,1.712442,1.280339,-0.582360,0.378656,0.001823,1.207638,-0.367493,-0.253785,1.120233,-0.091851,2.680707,41.384014,-25.567215,-3.225832,0.637601,1.773483,-0.182328,0.000000,0.000000,0.000000,0.000000,0.000000,0.000000
12860393.000000,-2.310117,-1.663439,1.213631,-1.446719,1.712190,1.281467,-0.582454,0.375236,0.000303,1.193023,-0.361411,-0.249773,1.112635,-0.098087,2.827497,41.261028,-25.321243,-3.325014,0.601896,1.735030,-0.142960,0.000000,0.000000,0.000000,0.000000,0.000000,0.000000
12860394.000000,-2.309732,-1.663437,1.214825,-1.447086,1.711946,1.282599,-0.582535,0.375808,0.001704,1.209015,-0.361837,-0.245776,1.100211,-0.094819,2.827497,41.165813,-25.174454,-3.325014,0.535978,1.819259,-0.202470,0.000000,0.000000,0.000000,0.000000,0.000000,0.000000
12860395.000000,-2.309355,-1.663433,1.215975,-1.447441,1.711704,1.283720,-0.582625,0.378430,-0.000940,1.192208,-0.356544,-0.237773,1.108294,-0.094785,2.803693,41.090435,-24.734085,-3.325014,0.458158,2.079269,-0.202470,0.000000,0.000000,0.000000,0.000000,0.000000,0.000000
12860396.000000,-2.308977,-1.663425,1.217150,-1.447796,1.711471,1.284848,-0.582715,0.378923,0.001568,1.183253,-0.354918,-0.237736,1.102213,-0.095510,2.779890,40.967449,-24.488113,-3.348818,0.398649,2.112228,-0.182328,0.000000,0.000000,0.000000,0.000000,0.000000,0.000000
12860397.000000,-2.308596,-1.663416,1.218309,-1.448147,1.711238,1.286012,-0.582802,0.383395,0.003410,1.173412,-0.354191,-0.233800,1.105649,-0.089506,2.728315,40.844463,-24.313553,-3.348818,0.369352,1.936446,-0.202470,0.000000,0.000000,0.000000,0.000000,0.000000,0.000000
12860398.000000,-2.308220,-1.663404,1.219501,-1.448497,1.711002,1.287162,-0.582892,0.382420,0.005323,1.175353,-0.359288,-0.237004,1.138700,-0.091965,2.704511,40.697674,-24.412735,-3.249635,0.369352,1.747848,-0.155778,0.000000,0.000000,0.000000,0.000000,0.000000,0.000000
12860399.000000,-2.307837,-1.663396,1.220703,-1.448832,1.710769,1.288305,-0.582972,0.381690,0.004931,1.179316,-0.351361,-0.233936,1.129354,-0.085919,2.581525,40.626263,-24.611099,-3.348818,0.356534,1.689254,-0.202470,0.000000,0.000000,0.000000,0.000000,0.000000,0.000000
12860400.000000,-2.307461,-1.663385,1.221885,-1.449163,1.710523,1.289449,-0.583062,0.378480,0.005948,1.182568,-0.352732,-0.230566,1.142002,-0.085518,2.529951,40.503277,-24.857071,-3.348818,0.452665,1.714889,-0.142960,0.000000,0.000000,0.000000,0.000000,0.000000,0.000000
12860401.000000,-2.307096,-1.663380,1.223087,-1.449486,1.710283,1.290569,-0.583142,0.375938,0.004917,1.178939,-0.341618,-0.228484,1.130151,-0.082434,2.581525,40.455669,-25.249832,-3.547182,0.554288,1.773483,-0.155778,0.000000,0.000000,0.000000,0.000000,0.000000,0.000000
12860402.000000,-2.306727,-1.663378,1.224267,-1.449807,1.710048,1.291700,-0.583221,0.370102,0.003806,1.180965,-0.331148,-0.227984,1.120132,-0.078728,2.629133,40.427898,-25.491837,-3.697939,0.571683,1.844894,-0.208878,0.000000,0.000000,0.000000,0.000000,0.000000,0.000000
12860403.000000,-2.306358,-1.663376,1.225454,-1.450119,1.709829,1.292821,-0.583310,0.369318,0.006056,1.182450,-0.326273,-0.224435,1.131200,-0.085020,2.605329,40.404095,-25.567215,-3.892336,0.500272,1.988631,-0.149369,0.000000,0.000000,0.000000,0.000000,0.000000,0.000000
12860404.000000,-2.305994,-1.663371,1.226651,-1.450442,1.709603,1.293927,-0.583389,0.367203,0.005337,1.178564,-0.323684,-0.227102,1.120350,-0.081538,2.652936,40.356487,-25.714005,-3.892336,0.434354,2.092086,-0.175919,0.000000,0.000000,0.000000,0.000000,0.000000,0.000000
12860405.000000,-2.305622,-1.663379,1.227805,-1.450755,1.709374,1.295060,-0.583466,0.368738,0.000821,1.170001,-0.320711,-0.223987,1.115875,-0.079294,2.581525,40.479473,-25.468033,-3.943910,0.362943,2.007858,-0.188737,0.000000,0.000000,0.000000,0.000000,0.000000,0.000000
12860406.000000,-2.305244,-1.663380,1.228978,-1.451077,1.709149,1.296168,-0.583545,0.372048,0.000095,1.165951,-0.317975,-0.232512,1.102624,-0.083620,2.406965,40.503277,-25.297440,-3.868532,0.351041,2.020675,-0.175919,0.000000,0.000000,0.000000,0.000000,0.000000,0.000000
12860407.000000,-2.304864,-1.663377,1.230126,-1.451402,1.708924,1.297300,-0.583621,0.373635,0.004396,1.186579,-0.316946,-0.226437,1.089314,-0.086028,2.208601,40.455669,-24.952286,-3.721742,0.351041,1.949264,-0.182328,0.000000,0.000000,0.000000,0.000000,0.000000,0.000000
12860408.000000,-2.304484,-1.663373,1.231292,-1.451713,1.708702,1.298448,-0.583701,0.371578,0.003901,1.174554,-0.319880,-0.222391,1.106342,-0.084560,1.911054,40.427898,-24.734085,-3.697939,0.374845,1.773483,-0.149369,0.000000,0.000000,0.000000,0.000000,0.000000,0.000000
12860409.000000,-2.304115,-1.663370,1.232464,-1.452035,1.708478,1.299584,-0.583777,0.372079,0.003398,1.169061,-0.318826,-0.220004,1.101032,-0.080865,1.764264,40.404095,-24.559525,-3.547182,0.410551,1.611434,-0.188737,0.000000,0.000000,0.000000,0.000000,0.000000,0.000000
12860410.000000,-2.303740,-1.663368,1.233606,-1.452336,1.708250,1.300725,-0.583858,0.374182,0.003002,1.165928,-0.312243,-0.216817,1.100081,-0.085297,1.613508,40.380291,-24.242142,-3.622560,0.422452,1.513473,-0.155778,0.000000,0.000000,0.000000,0.000000,0.000000,0.000000
12860411.000000,-2.303373,-1.663373,1.234774,-1.452639,1.708021,1.301843,-0.583935,0.370603,-0.000183,1.158127,-0.309502,-0.216544,1.122300,-0.085730,1.514325,40.479473,-24.190567,-3.622560,0.476469,1.597701,-0.188737,0.000000,0.000000,0.000000,0.000000,0.000000,0.000000
12860412.000000,-2.303007,-1.663366,1.235939,-1.452937,1.707809,1.302957,-0.584017,0.365380,0.004336,1.152077,-0.305842,-0.212254,1.112046,-0.084641,1.490522,40.427898,-24.019974,-3.670168,0.428861,1.806442,-0.149369,0.000000,0.000000,0.000000,0.000000,0.000000,0.000000
12860413.000000,-2.302642,-1.663369,1.237092,-1.453223,1.707594,1.304087,-0.584094,0.371900,0.002023,1.152789,-0.300521,-0.214584,1.126064,-0.081994,1.367536,40.479473,-23.996170,-3.721742,0.410551,1.949264,-0.155778,0.000000,0.000000,0.000000,0.000000,0.000000,0.000000
12860414.000000,-2.302272,-1.663362,1.238254,-1.453519,1.707383,1.305215,-0.584165,0.372596,0.003923,1.151368,-0.296569,-0.212443,1.122140,-0.078652,1.244550,40.380291,-23.948563,-3.769350,0.393156,1.930038,-0.202470,0.000000,0.000000,0.000000,0.000000,0.000000,0.000000
12860415.000000,-2.301893,-1.663353,1.239393,-1.453817,1.707172,1.306368,-0.584246,0.374674,0.005126,1.145774,-0.293255,-0.208958,1.125735,-0.078979,1.022382,40.281109,-23.896988,-3.697939,0.332731,1.806442,-0.169511,0.000000,0.000000,0.000000,0.000000,0.000000,0.000000
12860416.000000,-2.301510,-1.663345,1.240552,-1.454116,1.706946,1.307486,-0.584322,0.377112,0.005787,1.144971,-0.296953,-0.211120,1.146144,-0.073185,0.697065,40.185894,-23.873184,-3.499574,0.393156,1.806442,-0.175919,0.000000,0.000000,0.000000,0.000000,0.000000,0.000000
12860417.000000,-2.301125,-1.663334,1.241696,-1.454412,1.706736,1.308612,-0.584394,0.380346,0.006842,1.139283,-0.296290,-0.204951,1.130328,-0.073518,0.375715,40.062908,-23.651016,-3.400392,0.381254,1.877853,-0.182328,0.000000,0.000000,0.000000,0.000000,0.000000,0.000000
12860418.000000,-2.300744,-1.663328,1.242816,-1.454698,1.706524,1.309748,-0.584470,0.379094,0.008821,1.131823,-0.296017,-0.202036,1.140389,-0.073942,0.078168,40.015301,-23.381241,-3.376589,0.428861,1.865035,-0.182328,0.000000,0.000000,0.000000,0.000000,0.000000,0.000000
12860419.000000,-2.300369,-1.663316,1.243968,-1.454981,1.706313,1.310877,-0.584542,0.376638,0.009073,1.131671,-0.295432,-0.204552,1.125211,-0.073898,-0.167803,39.892315,-23.309830,-3.448000,0.464567,1.779891,-0.196061,0.000000,0.000000,0.000000,0.000000,0.000000,0.000000
12860420.000000,-2.299994,-1.663301,1.245105,-1.455261,1.706121,1.312002,-0.584624,0.374063,0.012762,1.133946,-0.289274,-0.205292,1.103029,-0.076497,-0.342364,39.745525,-23.258255,-3.622560,0.339139,1.806442,-0.136552,0.000000,0.000000,0.000000,0.000000,0.000000,0.000000
12860421.000000,-2.299624,-1.663284,1.246272,-1.455542,1.705910,1.313137,-0.584690,0.367265,0.011816,1.145513,-0.285955,-0.208954,1.118857,-0.073666,-0.465350,39.622540,-23.480423,-3.646364,0.291532,1.786300,-0.202470,0.000000,0.000000,0.000000,0.000000,0.000000,0.000000
12860422.000000,-2.299251,-1.663275,1.247444,-1.455815,1.705698,1.314252,-0.584764,0.366468,0.011892,1.144497,-0.280469,-0.208755,1.107986,-0.075922,-0.635943,39.598736,-23.726395,-3.769350,0.291532,1.832076,-0.155778,0.000000,0.000000,0.000000,0.000000,0.000000,0.000000
12860423.000000,-2.298888,-1.663266,1.248600,-1.456101,1.705486,1.315377,-0.584830,0.368175,0.011596,1.147427,-0.280555,-0.209138,1.106082,-0.075028,-0.687518,39.598736,-23.996170,-3.745546,0.320829,1.851302,-0.169511,0.000000,0.000000,0.000000,0.000000,0.000000,0.000000
12860424.000000,-2.298522,-1.663257,1.249782,-1.456367,1.705276,1.316477,-0.584906,0.366971,0.011543,1.157996,-0.277483,-0.214484,1.117615,-0.076861,-0.834307,39.598736,-24.388931,-3.844728,0.381254,1.942855,-0.122819,0.000000,0.000000,0.000000,0.000000,0.000000,0.000000
12860425.000000,-2.298155,-1.663246,1.250938,-1.456638,1.705077,1.317590,-0.584970,0.366538,0.012132,1.178626,-0.275887,-0.211132,1.104585,-0.075086,-0.909686,39.574932,-24.658707,-3.892336,0.351041,2.020675,-0.155778,0.000000,0.000000,0.000000,0.000000,0.000000,0.000000
12860426.000000,-2.297794,-1.663234,1.252100,-1.456900,1.704875,1.318725,-0.585038,0.363933,0.012860,1.166883,-0.273913,-0.211295,1.123641,-0.073942,-0.985064,39.547161,-24.734085,-3.991518,0.386747,1.955673,-0.188737,0.000000,0.000000,0.000000,0.000000,0.000000,0.000000
12860427.000000,-2.297442,-1.663229,1.253253,-1.457159,1.704673,1.319827,-0.585113,0.360250,0.011870,1.157703,-0.266484,-0.209429,1.113829,-0.075635,-0.985064,39.574932,-24.682510,-4.090700,0.369352,1.949264,-0.155778,0.000000,0.000000,0.000000,0.000000,0.000000,0.000000
12860428.000000,-2.297093,-1.663220,1.254378,-1.457417,1.704474,1.320932,-0.585182,0.355594,0.011907,1.148978,-0.265074,-0.202950,1.105854,-0.074322,-0.885882,39.574932,-24.436539,-4.142274,0.344633,2.072860,-0.182328,0.000000,0.000000,0.000000,0.000000,0.000000,0.000000
12860429.000000,-2.296742,-1.663207,1.255530,-1.457670,1.704280,1.322017,-0.585251,0.354691,0.013146,1.142415,-0.261641,-0.198944,1.113995,-0.074465,-0.885882,39.523357,-24.289749,-4.166078,0.332731,2.157089,-0.175919,0.000000,0.000000,0.000000,0.000000,0.000000,0.000000
12860430.000000,-2.296388,-1.663200,1.256663,-1.457931,1.704091,1.323134,-0.585315,0.353680,0.009729,1.136209,-0.257895,-0.191285,1.105573,-0.073502,-0.885882,39.523357,-23.801773,-4.066896,0.320829,2.150680,-0.208878,0.000000,0.000000,0.000000,0.000000,0.000000,0.000000
12860431.000000,-2.296047,-1.663186,1.257794,-1.458188,1.703904,1.324268,-0.585387,0.350324,0.012047,1.137005,-0.264076,-0.188968,1.118234,-0.070788,-0.786700,39.451946,-23.603409,-3.943910,0.291532,1.995040,-0.169511,0.000000,0.000000,0.000000,0.000000,0.000000,0.000000
12860433.000000,-2.295384,-1.663151,1.260063,-1.458704,1.703536,1.326513,-0.585512,0.344111,0.016471,1.129864,-0.257471,-0.185975,1.104767,-0.068326,-0.540728,39.229778,-23.309830,-3.844728,0.201810,1.735030,-0.182328,0.000000,0.000000,0.000000,0.000000,0.000000,0.000000
12860434.000000,-2.295057,-1.663137,1.261206,-1.458947,1.703338,1.327635,-0.585582,0.337728,0.016859,1.132758,-0.251308,-0.187676,1.119382,-0.062207,-0.413775,39.158367,-23.234451,-3.892336,0.225614,1.735030,-0.142960,0.000000,0.000000,0.000000,0.000000,0.000000,0.000000
12860435.000000,-2.294739,-1.663122,1.262345,-1.459190,1.703144,1.328741,-0.585640,0.330690,0.017088,1.126097,-0.248276,-0.184672,1.103494,-0.063645,-0.167803,39.082989,-23.087662,-3.991518,0.261320,1.735030,-0.188737,0.000000,0.000000,0.000000,0.000000,0.000000,0.000000
12860436.000000,-2.294425,-1.663110,1.263478,-1.459436,1.702950,1.329859,-0.585705,0.322419,0.014044,1.125771,-0.249602,-0.187199,1.114778,-0.067296,0.054365,39.011578,-23.111465,-4.043092,0.315336,1.721298,-0.169511,0.000000,0.000000,0.000000,0.000000,0.000000,0.000000
12860437.000000,-2.294118,-1.663090,1.264615,-1.459665,1.702765,1.330968,-0.585766,0.318958,0.016145,1.123839,-0.239811,-0.187801,1.110562,-0.064129,0.205121,38.888592,-23.040054,-4.213686,0.327238,1.708480,-0.182328,0.000000,0.000000,0.000000,0.000000,0.000000,0.000000
12860438.000000,-2.293804,-1.663078,1.265738,-1.459911,1.702582,1.332081,-0.585826,0.318553,0.015293,1.120927,-0.243339,-0.182997,1.102530,-0.061387,0.403486,38.864788,-23.087662,-4.189882,0.327238,1.708480,-0.208878,0.000000,0.000000,0.000000,0.000000,0.000000,0.000000
12860439.000000,-2.293496,-1.663061,1.266866,-1.460159,1.702395,1.333203,-0.585892,0.314754,0.016676,1.122762,-0.245264,-0.183561,1.117088,-0.062807,0.574079,38.765606,-22.917068,-4.066896,0.308927,1.741439,-0.142960,0.000000,0.000000,0.000000,0.000000,0.000000,0.000000
12860440.000000,-2.293176,-1.663044,1.267990,-1.460400,1.702209,1.334312,-0.585945,0.314285,0.013811,1.119250,-0.241841,-0.184481,1.106542,-0.059434,0.673261,38.690228,-22.647293,-3.991518,0.297025,1.670028,-0.188737,0.000000,0.000000,0.000000,0.000000,0.000000,0.000000
12860441.000000,-2.292871,-1.663029,1.269100,-1.460651,1.702022,1.335432,-0.586010,0.310918,0.014754,1.115705,-0.246898,-0.179099,1.096410,-0.060065,0.871625,38.618816,-22.472733,-3.745546,0.267728,1.649886,-0.149369,0.000000,0.000000,0.000000,0.000000,0.000000,0.000000
12860442.000000,-2.292569,-1.663004,1.270232,-1.460882,1.701843,1.336541,-0.586066,0.307840,0.018996,1.111085,-0.244053,-0.178547,1.107136,-0.058090,0.947004,38.396648,-22.425125,-3.745546,0.219205,1.605026,-0.175919,0.000000,0.000000,0.000000,0.000000,0.000000,0.000000
12860443.000000,-2.292272,-1.662987,1.271357,-1.461127,1.701665,1.337688,-0.586128,0.302237,0.018215,1.137470,-0.242786,-0.175408,1.105656,-0.058048,1.145368,38.325237,-22.500504,-3.570986,0.195402,1.416427,-0.169511,0.000000,0.000000,0.000000,0.000000,0.000000,0.000000
12860444.000000,-2.291974,-1.662965,1.272508,-1.461354,1.701486,1.338827,-0.586189,0.307249,0.023261,1.147526,-0.238122,-0.170469,1.118165,-0.058400,1.292158,38.154644,-22.718704,-3.570986,0.231107,1.357833,-0.149369,0.000000,0.000000,0.000000,0.000000,0.000000,0.000000
12860445.000000,-2.291684,-1.662947,1.273662,-1.461596,1.701311,1.339938,-0.586241,0.304137,0.021627,1.141776,-0.240783,-0.167363,1.111167,-0.055869,1.415143,38.079266,-22.964676,-3.448000,0.279630,1.402694,-0.202470,0.000000,0.000000,0.000000,0.000000,0.000000,0.000000
12860446.000000,-2.291405,-1.662930,1.274809,-1.461836,1.701129,1.341046,-0.586307,0.295270,0.017802,1.141135,-0.239274,-0.173435,1.095631,-0.053087,1.712690,37.984051,-23.333633,-3.348818,0.308927,1.617843,-0.155778,0.000000,0.000000,0.000000,0.000000,0.000000,0.000000
12860447.000000,-2.291127,-1.662913,1.275958,-1.462064,1.700944,1.342131,-0.586363,0.289289,0.014498,1.144963,-0.236589,-0.178728,1.107846,-0.057460,1.811872,37.908672,-23.579605,-3.301210,0.351041,1.897079,-0.175919,0.000000,0.000000,0.000000,0.000000,0.000000,0.000000
12860448.000000,-2.290844,-1.662892,1.277115,-1.462300,1.700764,1.343249,-0.586424,0.287075,0.019479,1.145474,-0.237057,-0.176582,1.099214,-0.062900,1.962629,37.785686,-23.825577,-3.126650,0.362943,1.968490,-0.149369,0.000000,0.000000,0.000000,0.000000,0.000000,0.000000
12860449.000000,-2.290557,-1.662880,1.278252,-1.462540,1.700588,1.344378,-0.586482,0.289331,0.014555,1.142706,-0.242630,-0.169164,1.116693,-0.061458,2.061811,37.761883,-23.920792,-2.956056,0.351041,1.949264,-0.142960,0.000000,0.000000,0.000000,0.000000,0.000000,0.000000
12860450.000000,-2.290279,-1.662861,1.279405,-1.462779,1.700422,1.345486,-0.586535,0.288709,0.015835,1.138986,-0.242341,-0.172199,1.108834,-0.063193,2.109418,37.662701,-24.019974,-2.757692,0.303434,1.936446,-0.188737,0.000000,0.000000,0.000000,0.000000,0.000000,0.000000
12860451.000000,-2.289992,-1.662841,1.280521,-1.463023,1.700252,1.346597,-0.586594,0.289393,0.019391,1.129761,-0.240015,-0.166101,1.097428,-0.062940,2.109418,37.591290,-23.896988,-2.511720,0.279630,1.909896,-0.149369,0.000000,0.000000,0.000000,0.000000,0.000000,0.000000
12860452.000000,-2.289707,-1.662826,1.281658,-1.463269,1.700076,1.347715,-0.586644,0.289368,0.020869,1.128920,-0.241961,-0.165835,1.105909,-0.055574,2.034040,37.567486,-23.726395,-2.237978,0.374845,1.897079,-0.175919,0.000000,0.000000,0.000000,0.000000,0.000000,0.000000
12860453.000000,-2.289426,-1.662813,1.282790,-1.463521,1.699906,1.348804,-0.586703,0.288156,0.018405,1.121815,-0.245903,-0.167153,1.088805,-0.056797,1.962629,37.567486,-23.409012,-1.964235,0.393156,1.916305,-0.149369,0.000000,0.000000,0.000000,0.000000,0.000000,0.000000
12860454.000000,-2.289155,-1.662796,1.283907,-1.463762,1.699733,1.349920,-0.586756,0.283347,0.017947,1.120079,-0.243924,-0.167897,1.104168,-0.050470,2.109418,37.515911,-23.186844,-1.793642,0.416959,1.903487,-0.188737,0.000000,0.000000,0.000000,0.000000,0.000000,0.000000
12860455.000000,-2.288884,-1.662782,1.285048,-1.463992,1.699567,1.351019,-0.586816,0.276619,0.019970,1.114692,-0.238193,-0.166315,1.094945,-0.049332,2.208601,37.492107,-23.163040,-1.793642,0.393156,1.865035,-0.136552,0.000000,0.000000,0.000000,0.000000,0.000000,0.000000
12860456.000000,-2.288612,-1.662768,1.286171,-1.464228,1.699405,1.352140,-0.586863,0.274347,0.019021,1.111802,-0.237164,-0.160366,1.094923,-0.049062,2.260175,37.444500,-23.087662,-1.793642,0.339139,1.754256,-0.188737,0.000000,0.000000,0.000000,0.000000,0.000000,0.000000
12860457.000000,-2.288348,-1.662756,1.287305,-1.464451,1.699242,1.353270,-0.586915,0.265594,0.017075,1.117495,-0.231671,-0.158458,1.107940,-0.050664,2.383161,37.444500,-22.988480,-1.892824,0.351041,1.617843,-0.196061,0.000000,0.000000,0.000000,0.000000,0.000000,0.000000
12860458.000000,-2.288073,-1.662747,1.288450,-1.464683,1.699083,1.354363,-0.586974,0.267602,0.014695,1.119189,-0.227408,-0.157508,1.093558,-0.054165,2.307783,37.492107,-23.016251,-1.869020,0.374845,1.676437,-0.142960,0.000000,0.000000,0.000000,0.000000,0.000000,0.000000
12860459.000000,-2.287814,-1.662732,1.289583,-1.464913,1.698928,1.355473,-0.587019,0.262527,0.014737,1.121140,-0.224261,-0.154664,1.092763,-0.047399,2.383161,37.468304,-23.111465,-1.841249,0.356534,1.747848,-0.208878,0.000000,0.000000,0.000000,0.000000,0.000000,0.000000
12860460.000000,-2.287545,-1.662727,1.290718,-1.465142,1.698768,1.356570,-0.587079,0.263780,0.012496,1.120907,-0.222595,-0.155322,1.114720,-0.053238,2.359357,37.539715,-23.087662,-1.793642,0.398649,1.754256,-0.116410,0.000000,0.000000,0.000000,0.000000,0.000000,0.000000
12860461.000000,-2.287275,-1.662722,1.291846,-1.465365,1.698613,1.357700,-0.587125,0.264191,0.010858,1.114986,-0.220263,-0.153428,1.110569,-0.056655,2.331586,37.615093,-22.964676,-1.769838,0.381254,1.611434,-0.169511,0.000000,0.000000,0.000000,0.000000,0.000000,0.000000
12860462.000000,-2.287013,-1.662707,1.292958,-1.465583,1.698454,1.358822,-0.587171,0.266362,0.012536,1.113705,-0.220777,-0.151950,1.118931,-0.055656,2.307783,37.567486,-22.841690,-1.670656,0.369352,1.500655,-0.196061,0.000000,0.000000,0.000000,0.000000,0.000000,0.000000
12860463.000000,-2.286741,-1.662689,1.294082,-1.465793,1.698296,1.359914,-0.587225,0.268745,0.014264,1.111470,-0.217069,-0.152337,1.099504,-0.057998,2.184797,37.492107,-22.718704,-1.742067,0.386747,1.617843,-0.142960,0.000000,0.000000,0.000000,0.000000,0.000000,0.000000
12860464.000000,-2.286470,-1.662680,1.295175,-1.466005,1.698141,1.361017,-0.587268,0.267618,0.013207,1.107545,-0.212948,-0.156522,1.086937,-0.055427,2.034040,37.515911,-22.448929,-1.742067,0.386747,1.702071,-0.196061,0.000000,0.000000,0.000000,0.000000,0.000000,0.000000
12860465.000000,-2.286212,-1.662670,1.296287,-1.466210,1.697985,1.362146,-0.587317,0.264091,0.013056,1.105406,-0.209863,-0.160622,1.105680,-0.055997,1.986432,37.515911,-22.202957,-1.742067,0.410551,1.702071,-0.182328,0.000000,0.000000,0.000000,0.000000,0.000000,0.000000
12860466.000000,-2.285947,-1.662657,1.297421,-1.466410,1.697832,1.363250,-0.587363,0.265772,0.013461,1.108220,-0.206522,-0.154098,1.098711,-0.055619,1.887250,37.492107,-22.254532,-1.769838,0.434354,1.702071,-0.196061,0.000000,0.000000,0.000000,0.000000,0.000000,0.000000
12860467.000000,-2.285681,-1.662643,1.298550,-1.466616,1.697694,1.364374,-0.587413,0.264808,0.014254,1.117591,-0.211508,-0.149030,1.116819,-0.056370,1.811872,37.444500,-22.524307,-1.718263,0.332731,1.662704,-0.182328,0.000000,0.000000,0.000000,0.000000,0.000000,0.000000
12860468.000000,-2.285417,-1.662626,1.299696,-1.466812,1.697550,1.365475,-0.587461,0.263460,0.016047,1.119150,-0.207105,-0.152745,1.102970,-0.056327,1.712690,37.345318,-22.841690,-1.793642,0.291532,1.670028,-0.182328,0.000000,0.000000,0.000000,0.000000,0.000000,0.000000
12860469.000000,-2.285150,-1.662611,1.300834,-1.467013,1.697394,1.366586,-0.587510,0.266021,0.016030,1.124528,-0.202890,-0.158699,1.096952,-0.056740,1.589704,37.297710,-23.234451,-1.769838,0.327238,1.649886,-0.169511,0.000000,0.000000,0.000000,0.000000,0.000000,0.000000
12860470.000000,-2.284887,-1.662602,1.301987,-1.467194,1.697236,1.367699,-0.587557,0.265727,0.013797,1.137192,-0.197013,-0.157376,1.116097,-0.056387,1.442914,37.345318,-23.627213,-1.869020,0.344633,1.689254,-0.175919,0.000000,0.000000,0.000000,0.000000,0.000000,0.000000
12860471.000000,-2.284628,-1.662595,1.303136,-1.467381,1.697081,1.368771,-0.587606,0.261853,0.012175,1.130270,-0.196812,-0.157135,1.101887,-0.051940,1.367536,37.392925,-23.896988,-1.916628,0.381254,1.832076,-0.169511,0.000000,0.000000,0.000000,0.000000,0.000000,0.000000
12860472.000000,-2.284366,-1.662590,1.304260,-1.467551,1.696933,1.369866,-0.587653,0.261924,0.010469,1.126210,-0.188547,-0.155676,1.107044,-0.049029,1.244550,37.468304,-24.019974,-2.190370,0.398649,1.916305,-0.149369,0.000000,0.000000,0.000000,0.000000,0.000000,0.000000
12860473.000000,-2.284106,-1.662581,1.305391,-1.467724,1.696784,1.370949,-0.587693,0.262145,0.011067,1.123059,-0.180754,-0.158358,1.088542,-0.043919,1.145368,37.468304,-23.996170,-2.285585,0.405057,1.865035,-0.208878,0.000000,0.000000,0.000000,0.000000,0.000000,0.000000
12860474.000000,-2.283841,-1.662578,1.306493,-1.467891,1.696640,1.372045,-0.587743,0.262740,0.009121,1.134418,-0.176540,-0.151368,1.080383,-0.049000,1.022382,37.567486,-23.774002,-2.436342,0.398649,1.884261,-0.163102,0.000000,0.000000,0.000000,0.000000,0.000000,0.000000
12860475.000000,-2.283581,-1.662577,1.307620,-1.468059,1.696495,1.373142,-0.587784,0.263663,0.004324,1.128720,-0.176722,-0.145590,1.088152,-0.045426,0.847822,37.686504,-23.579605,-2.460146,0.374845,1.884261,-0.182328,0.000000,0.000000,0.000000,0.000000,0.000000,0.000000
12860476.000000,-2.283314,-1.662574,1.308741,-1.468232,1.696357,1.374225,-0.587827,0.265441,0.004389,1.122116,-0.176220,-0.144823,1.080809,-0.043286,0.649457,37.785686,-23.258255,-2.483949,0.315336,1.903487,-0.188737,0.000000,0.000000,0.000000,0.000000,0.000000,0.000000
12860477.000000,-2.283055,-1.662577,1.309856,-1.468402,1.696207,1.375328,-0.587874,0.264081,0.000325,1.117088,-0.173464,-0.146768,1.072851,-0.042994,0.526471,37.932476,-23.186844,-2.483949,0.332731,1.844894,-0.155778,0.000000,0.000000,0.000000,0.000000,0.000000,0.000000
12860478.000000,-2.282808,-1.662572,1.310976,-1.468559,1.696066,1.376452,-0.587910,0.258335,0.000284,1.114998,-0.165238,-0.145565,1.098169,-0.040296,0.474897,37.956280,-22.988480,-2.606935,0.267728,1.637069,-0.188737,0.000000,0.000000,0.000000,0.000000,0.000000,0.000000
12860479.000000,-2.282559,-1.662570,1.312100,-1.468709,1.695920,1.377563,-0.587956,0.259329,0.002033,1.114058,-0.157602,-0.142804,1.100380,-0.045614,0.451093,38.031658,-22.841690,-2.781496,0.279630,1.409103,-0.155778,0.000000,0.000000,0.000000,0.000000,0.000000,0.000000
12860480.000000,-2.282312,-1.662566,1.313219,-1.468854,1.695775,1.378673,-0.587992,0.257228,0.004595,1.115929,-0.153577,-0.147102,1.116432,-0.042344,0.502668,38.055462,-22.917068,-2.904482,0.344633,1.350509,-0.188737,0.000000,0.000000,0.000000,0.000000,0.000000,0.000000
12860481.000000,-2.282060,-1.662565,1.314347,-1.468989,1.695640,1.379756,-0.588033,0.255201,0.002675,1.114694,-0.147123,-0.143023,1.096381,-0.041039,0.375715,38.103069,-22.893265,-3.178224,0.339139,1.467696,-0.196061,0.000000,0.000000,0.000000,0.000000,0.000000,0.000000
12860482.000000,-2.281812,-1.662566,1.315460,-1.469132,1.695498,1.380843,-0.588074,0.253975,0.003176,1.116412,-0.142278,-0.142506,1.075775,-0.040679,0.276533,38.202251,-22.893265,-3.325014,0.405057,1.649886,-0.182328,0.000000,0.000000,0.000000,0.000000,0.000000,0.000000
12860483.000000,-2.281567,-1.662566,1.316572,-1.469260,1.695364,1.381956,-0.588119,0.248875,0.002233,1.111681,-0.135001,-0.139280,1.089628,-0.045603,0.177350,38.226055,-22.817886,-3.499574,0.398649,1.741439,-0.149369,0.000000,0.000000,0.000000,0.000000,0.000000,0.000000
12860484.000000,-2.281314,-1.662565,1.317694,-1.469394,1.695245,1.383058,-0.588154,0.250239,0.001435,1.110078,-0.134818,-0.128679,1.086407,-0.037052,-0.017047,38.249859,-22.817886,-3.570986,0.291532,1.747848,-0.196061,0.000000,0.000000,0.000000,0.000000,0.000000,0.000000
12860485.000000,-2.281065,-1.662559,1.318798,-1.469528,1.695124,1.384179,-0.588192,0.251589,0.003562,1.109089,-0.136886,-0.126540,1.106121,-0.032360,-0.215411,38.154644,-22.770279,-3.523378,0.213712,1.735030,-0.202470,0.000000,0.000000,0.000000,0.000000,0.000000,0.000000
12860486.000000,-2.280811,-1.662556,1.319914,-1.469652,1.694997,1.385280,-0.588234,0.257573,0.003865,1.110188,-0.132650,-0.126173,1.095644,-0.035912,-0.465350,38.103069,-22.694901,-3.598757,0.154203,1.708480,-0.142960,0.000000,0.000000,0.000000,0.000000,0.000000,0.000000
12860487.000000,-2.280559,-1.662551,1.321004,-1.469784,1.694868,1.386394,-0.588265,0.255621,0.004459,1.102349,-0.132325,-0.127657,1.091267,-0.034187,-0.635943,38.031658,-22.524307,-3.547182,0.147794,1.676437,-0.196061,0.000000,0.000000,0.000000,0.000000,0.000000,0.000000
12860488.000000,-2.280308,-1.662546,1.322115,-1.469910,1.694725,1.387505,-0.588305,0.253739,0.004896,1.101331,-0.131093,-0.128831,1.102776,-0.032187,-0.885882,37.956280,-22.425125,-3.547182,0.267728,1.714889,-0.149369,0.000000,0.000000,0.000000,0.000000,0.000000,0.000000
12860489.000000,-2.280060,-1.662537,1.323242,-1.470033,1.694596,1.388597,-0.588343,0.256370,0.005611,1.107156,-0.126567,-0.125332,1.099524,-0.028967,-1.060443,37.861065,-22.500504,-3.547182,0.285123,1.760665,-0.142960,0.000000,0.000000,0.000000,0.000000,0.000000,0.000000
12860490.000000,-2.279817,-1.662533,1.324350,-1.470147,1.694472,1.389710,-0.588372,0.250975,0.005037,1.107087,-0.124845,-0.121444,1.096820,-0.029010,-1.159625,37.809490,-22.595718,-3.622560,0.273221,1.702071,-0.196061,0.000000,0.000000,0.000000,0.000000,0.000000,0.000000
12860491.000000,-2.279585,-1.662531,1.325503,-1.470257,1.694345,1.390801,-0.588413,0.244075,0.003982,1.109039,-0.116673,-0.128819,1.108791,-0.033730,-1.159625,37.785686,-23.063858,-3.721742,0.297025,1.676437,-0.130143,0.000000,0.000000,0.000000,0.000000,0.000000,0.000000
12860492.000000,-2.279354,-1.662531,1.326633,-1.470360,1.694227,1.391910,-0.588438,0.234903,0.002705,1.138051,-0.112445,-0.126959,1.093055,-0.031681,-1.183428,37.785686,-23.456619,-3.868532,0.231107,1.637069,-0.208878,0.000000,0.000000,0.000000,0.000000,0.000000,0.000000
12860493.000000,-2.279121,-1.662532,1.327781,-1.470457,1.694107,1.392993,-0.588475,0.232521,0.001284,1.139907,-0.110172,-0.126735,1.094242,-0.034318,-1.231036,37.809490,-23.920792,-3.991518,0.195402,1.812850,-0.182328,0.000000,0.000000,0.000000,0.000000,0.000000,0.000000
12860494.000000,-2.278882,-1.662537,1.328924,-1.470574,1.693981,1.394060,-0.588511,0.235770,-0.001435,1.134453,-0.109995,-0.125016,1.072629,-0.032388,-1.330218,37.908672,-24.166763,-3.920107,0.231107,2.047225,-0.130143,0.000000,0.000000,0.000000,0.000000,0.000000,0.000000
12860495.000000,-2.278648,-1.662544,1.330051,-1.470683,1.693860,1.395152,-0.588537,0.234817,-0.003256,1.136232,-0.110423,-0.121065,1.063176,-0.031306,-1.405596,38.007854,-24.341324,-3.943910,0.213712,2.085677,-0.188737,0.000000,0.000000,0.000000,0.000000,0.000000,0.000000
12860496.000000,-2.278411,-1.662545,1.331186,-1.470787,1.693734,1.396256,-0.588569,0.236851,-0.002711,1.130911,-0.108683,-0.124393,1.076739,-0.032522,-1.603961,38.031658,-24.436539,-3.920107,0.225614,2.027084,-0.196061,0.000000,0.000000,0.000000,0.000000,0.000000,0.000000
12860497.000000,-2.278181,-1.662548,1.332320,-1.470882,1.693610,1.397354,-0.588601,0.232349,-0.002909,1.129136,-0.101770,-0.126074,1.074128,-0.034405,-1.703143,38.079266,-24.365128,-3.991518,0.219205,1.851302,-0.182328,0.000000,0.000000,0.000000,0.000000,0.000000,0.000000
12860498.000000,-2.277953,-1.662554,1.333422,-1.470983,1.693485,1.398450,-0.588632,0.230693,-0.003137,1.122907,-0.099719,-0.122902,1.092428,-0.031246,-1.849932,38.130840,-24.095352,-3.943910,0.225614,1.806442,-0.163102,0.000000,0.000000,0.000000,0.000000,0.000000,0.000000
12860499.000000,-2.277729,-1.662563,1.334541,-1.471081,1.693359,1.399521,-0.588659,0.227096,-0.004869,1.116504,-0.096846,-0.127573,1.080914,-0.031171,-1.949114,38.249859,-23.948563,-3.943910,0.291532,1.890670,-0.208878,0.000000,0.000000,0.000000,0.000000,0.000000,0.000000
12860500.000000,-2.277504,-1.662573,1.335632,-1.471178,1.693237,1.400597,-0.588695,0.228154,-0.006674,1.110787,-0.094491,-0.124909,1.072994,-0.030153,-2.024493,38.396648,-23.528030,-3.943910,0.320829,1.968490,-0.155778,0.000000,0.000000,0.000000,0.000000,0.000000,0.000000
12860501.000000,-2.277286,-1.662579,1.336748,-1.471263,1.693117,1.401696,-0.588726,0.220121,-0.011978,1.107268,-0.093617,-0.121726,1.085472,-0.031480,-2.000689,38.448223,-23.357437,-4.043092,0.320829,1.981307,-0.169511,0.000000,0.000000,0.000000,0.000000,0.000000,0.000000
12860502.000000,-2.277069,-1.662583,1.337871,-1.471358,1.693005,1.402789,-0.588755,0.219865,-0.010180,1.111099,-0.091563,-0.121546,1.078226,-0.032513,-1.949114,38.519634,-23.286026,-4.066896,0.249418,1.884261,-0.182328,0.000000,0.000000,0.000000,0.000000,0.000000,0.000000
12860503.000000,-2.276855,-1.662590,1.338985,-1.471447,1.692894,1.403901,-0.588786,0.216087,-0.008943,1.109200,-0.091784,-0.121035,1.093557,-0.034506,-1.949114,38.595013,-23.333633,-4.142274,0.171598,1.773483,-0.163102,0.000000,0.000000,0.000000,0.000000,0.000000,0.000000
12860504.000000,-2.276650,-1.662596,1.340106,-1.471536,1.692786,1.404991,-0.588813,0.214493,-0.011098,1.102850,-0.090475,-0.117459,1.086620,-0.034567,-1.901507,38.666424,-23.309830,-4.166078,0.123990,1.702071,-0.182328,0.000000,0.000000,0.000000,0.000000,0.000000,0.000000
12860505.000000,-2.276437,-1.662602,1.341218,-1.471628,1.692670,1.406084,-0.588845,0.212018,-0.009091,1.112166,-0.090611,-0.117148,1.078054,-0.031854,-1.949114,38.717999,-23.381241,-4.142274,0.141385,1.727706,-0.149369,0.000000,0.000000,0.000000,0.000000,0.000000,0.000000
12860506.000000,-2.276233,-1.662611,1.342337,-1.471706,1.692549,1.407186,-0.588869,0.209359,-0.009208,1.111883,-0.088241,-0.118172,1.085801,-0.027040,-1.949114,38.837017,-23.409012,-4.213686,0.189908,1.708480,-0.188737,0.000000,0.000000,0.000000,0.000000,0.000000,0.000000
12860507.000000,-2.276022,-1.662618,1.343464,-1.471782,1.692436,1.408273,-0.588903,0.212198,-0.008175,1.107392,-0.082849,-0.121950,1.082814,-0.026541,-2.072100,38.912395,-23.480423,-4.312868,0.201810,1.727706,-0.149369,0.000000,0.000000,0.000000,0.000000,0.000000,0.000000
12860508.000000,-2.275814,-1.662623,1.344558,-1.471862,1.692316,1.409374,-0.588928,0.209215,-0.006212,1.110434,-0.080161,-0.121313,1.081793,-0.027969,-2.072100,38.936199,-23.333633,-4.364442,0.255826,1.695663,-0.182328,0.000000,0.000000,0.000000,0.000000,0.000000,0.000000
12860509.000000,-2.275613,-1.662628,1.345669,-1.471934,1.692194,1.410456,-0.588950,0.206136,-0.004852,1.103073,-0.076815,-0.124391,1.097403,-0.024724,-2.072100,38.960003,-23.286026,-4.463624,0.291532,1.670028,-0.208878,0.000000,0.000000,0.000000,0.000000,0.000000,0.000000
12860510.000000,-2.275397,-1.662634,1.346755,-1.472004,1.692081,1.411544,-0.588987,0.206353,-0.004556,1.117819,-0.075055,-0.121557,1.080845,-0.031095,-2.246661,39.011578,-23.087662,-4.535036,0.297025,1.727706,-0.130143,0.000000,0.000000,0.000000,0.000000,0.000000,0.000000
12860511.000000,-2.275198,-1.662635,1.347856,-1.472080,1.691972,1.412644,-0.589004,0.201701,-0.003124,1.114418,-0.072976,-0.118228,1.091011,-0.025167,-2.298235,39.011578,-22.893265,-4.511232,0.279630,1.702071,-0.202470,0.000000,0.000000,0.000000,0.000000,0.000000,0.000000
12860512.000000,-2.274988,-1.662634,1.348978,-1.472153,1.691863,1.413732,-0.589032,0.205202,-0.000941,1.108283,-0.073813,-0.115149,1.078233,-0.024962,-2.445025,38.960003,-22.988480,-4.511232,0.237516,1.702071,-0.169511,0.000000,0.000000,0.000000,0.000000,0.000000,0.000000
12860513.000000,-2.274786,-1.662636,1.350083,-1.472232,1.691755,1.414830,-0.589055,0.202310,-0.000119,1.103945,-0.072880,-0.112416,1.068901,-0.026579,-2.520403,38.936199,-23.063858,-4.439821,0.178007,1.695663,-0.208878,0.000000,0.000000,0.000000,0.000000,0.000000,0.000000
12860514.000000,-2.274593,-1.662635,1.351221,-1.472305,1.691651,1.415947,-0.589087,0.199024,0.000441,1.112463,-0.070982,-0.111376,1.090909,-0.031693,-2.544207,38.912395,-23.456619,-4.412050,0.135892,1.605026,-0.142960,0.000000,0.000000,0.000000,0.000000,0.000000,0.000000
12860515.000000,-2.274402,-1.662632,1.352362,-1.472372,1.691544,1.417037,-0.589106,0.193247,-0.001095,1.120475,-0.067972,-0.111107,1.083789,-0.027636,-2.568011,38.837017,-23.849380,-4.439821,0.112089,1.565658,-0.163102,0.000000,0.000000,0.000000,0.000000,0.000000,0.000000
12860516.000000,-2.274217,-1.662631,1.353499,-1.472435,1.691432,1.418132,-0.589132,0.193824,-0.000454,1.123684,-0.066245,-0.113061,1.096230,-0.030927,-2.492632,38.813213,-24.341324,-4.463624,0.154203,1.605026,-0.142960,0.000000,0.000000,0.000000,0.000000,0.000000,0.000000
12860517.000000,-2.274031,-1.662630,1.354638,-1.472491,1.691312,1.419200,-0.589152,0.191330,0.000043,1.123263,-0.062675,-0.115782,1.083891,-0.027857,-2.445025,38.789410,-24.682510,-4.586610,0.225614,1.793624,-0.142960,0.000000,0.000000,0.000000,0.000000,0.000000,0.000000
12860518.000000,-2.273845,-1.662635,1.355756,-1.472552,1.691192,1.420269,-0.589170,0.187641,-0.001892,1.122679,-0.058689,-0.121763,1.067961,-0.024020,-2.421221,38.864788,-24.904678,-4.634218,0.279630,2.053634,-0.182328,0.000000,0.000000,0.000000,0.000000,0.000000,0.000000
12860519.000000,-2.273664,-1.662640,1.356879,-1.472612,1.691069,1.421357,-0.589195,0.188254,-0.003050,1.121286,-0.059982,-0.121947,1.077195,-0.024263,-2.421221,38.936199,-24.952286,-4.634218,0.351041,2.169906,-0.142960,0.000000,0.000000,0.000000,0.000000,0.000000,0.000000
12860520.000000,-2.273479,-1.662644,1.358007,-1.472675,1.690958,1.422439,-0.589209,0.187543,-0.002679,1.118641,-0.059233,-0.117888,1.068333,-0.015217,-2.492632,38.960003,-25.027664,-4.562807,0.315336,2.183639,-0.221696,0.000000,0.000000,0.000000,0.000000,0.000000,0.000000
12860521.000000,-2.273296,-1.662642,1.359108,-1.472743,1.690854,1.423542,-0.589233,0.186001,-0.000739,1.114995,-0.060503,-0.112488,1.084974,-0.017474,-2.544207,38.912395,-24.904678,-4.412050,0.219205,2.118636,-0.188737,0.000000,0.000000,0.000000,0.000000,0.000000,0.000000
12860522.000000,-2.273113,-1.662642,1.360228,-1.472809,1.690749,1.424634,-0.589258,0.183945,0.000014,1.113446,-0.061132,-0.110749,1.099926,-0.019520,-2.690997,38.888592,-24.781693,-4.265260,0.183500,1.988631,-0.142960,0.000000,0.000000,0.000000,0.000000,0.000000,0.000000
12860523.000000,-2.272933,-1.662652,1.361322,-1.472883,1.690643,1.425730,-0.589270,0.180117,-0.002255,1.105534,-0.067516,-0.110432,1.086867,-0.016753,-2.766375,38.983807,-24.488113,-3.991518,0.154203,1.916305,-0.208878,0.000000,0.000000,0.000000,0.000000,0.000000,0.000000
12860524.000000,-2.272770,-1.662657,1.362431,-1.472945,1.690530,1.426818,-0.589296,0.177195,-0.005240,1.101514,-0.063923,-0.112129,1.094429,-0.019884,-2.690997,39.011578,-24.265945,-3.920107,0.178007,1.949264,-0.142960,0.000000,0.000000,0.000000,0.000000,0.000000,0.000000
12860525.000000,-2.272605,-1.662662,1.363550,-1.472999,1.690419,1.427887,-0.589313,0.175302,-0.004326,1.100545,-0.058622,-0.113737,1.087084,-0.018801,-2.619586,39.035381,-24.166763,-3.967714,0.213712,2.014266,-0.163102,0.000000,0.000000,0.000000,0.000000,0.000000,0.000000
12860526.000000,-2.272449,-1.662663,1.364654,-1.473051,1.690313,1.428981,-0.589333,0.166872,-0.002534,1.100485,-0.057414,-0.107600,1.080444,-0.023410,-2.369647,39.011578,-24.095352,-4.043092,0.189908,1.988631,-0.163102,0.000000,0.000000,0.000000,0.000000,0.000000,0.000000
12860527.000000,-2.272299,-1.662668,1.365775,-1.473094,1.690201,1.430078,-0.589349,0.162013,-0.002402,1.103124,-0.052063,-0.105705,1.092766,-0.021344,-2.171282,39.035381,-24.119156,-4.189882,0.231107,1.942855,-0.188737,0.000000,0.000000,0.000000,0.000000,0.000000,0.000000
12860528.000000,-2.272146,-1.662670,1.366881,-1.473142,1.690091,1.431168,-0.589373,0.158533,-0.003657,1.126638,-0.050589,-0.107657,1.079880,-0.027168,-2.024493,38.983807,-24.142960,-4.241457,0.243009,1.819259,-0.142960,0.000000,0.000000,0.000000,0.000000,0.000000,0.000000
12860529.000000,-2.271997,-1.662669,1.368005,-1.473195,1.689988,1.432262,-0.589391,0.155062,-0.001117,1.124181,-0.051804,-0.107494,1.086273,-0.025497,-1.901507,38.912395,-24.265945,-4.189882,0.213712,1.793624,-0.130143,0.000000,0.000000,0.000000,0.000000,0.000000,0.000000
12860530.000000,-2.271840,-1.662672,1.369126,-1.473246,1.689873,1.433338,-0.589403,0.156595,-0.001007,1.123431,-0.050621,-0.105872,1.075306,-0.027509,-1.972918,38.912395,-24.341324,-4.090700,0.261320,1.884261,-0.155778,0.000000,0.000000,0.000000,0.000000,0.000000,0.000000
12860531.000000,-2.271688,-1.662682,1.370217,-1.473297,1.689765,1.434439,-0.589417,0.151844,-0.002538,1.113879,-0.052781,-0.108071,1.070786,-0.024294,-1.925311,38.983807,-24.242142,-3.991518,0.279630,1.877853,-0.182328,0.000000,0.000000,0.000000,0.000000,0.000000,0.000000
12860532.000000,-2.271545,-1.662685,1.371320,-1.473345,1.689661,1.435547,-0.589435,0.151593,-0.004577,1.102316,-0.051115,-0.099870,1.086088,-0.023648,-1.901507,38.960003,-24.142960,-3.892336,0.285123,1.819259,-0.163102,0.000000,0.000000,0.000000,0.000000,0.000000,0.000000
12860533.000000,-2.271403,-1.662687,1.372426,-1.473387,1.689561,1.436639,-0.589453,0.146006,-0.002323,1.103478,-0.047813,-0.097984,1.081516,-0.018720,-1.802325,38.912395,-23.972366,-3.868532,0.273221,1.741439,-0.136552,0.000000,0.000000,0.000000,0.000000,0.000000,0.000000
12860534.000000,-2.271265,-1.662684,1.373510,-1.473425,1.689472,1.437736,-0.589462,0.142774,0.000483,1.095145,-0.044152,-0.097715,1.097085,-0.011279,-1.726946,38.813213,-23.849380,-3.892336,0.171598,1.727706,-0.208878,0.000000,0.000000,0.000000,0.000000,0.000000,0.000000
12860535.000000,-2.271130,-1.662684,1.374606,-1.473467,1.689371,1.438815,-0.589484,0.142696,0.001219,1.086162,-0.040393,-0.102864,1.089587,-0.015524,-1.603961,38.765606,-23.678787,-3.844728,0.201810,1.779891,-0.149369,0.000000,0.000000,0.000000,0.000000,0.000000,0.000000
12860536.000000,-2.270995,-1.662686,1.375694,-1.473505,1.689268,1.439910,-0.589495,0.139813,-0.001401,1.089925,-0.040015,-0.106704,1.086271,-0.014834,-1.504779,38.717999,-23.603409,-3.820925,0.231107,1.793624,-0.188737,0.000000,0.000000,0.000000,0.000000,0.000000,0.000000
12860537.000000,-2.270868,-1.662687,1.376802,-1.473545,1.689167,1.441005,-0.589508,0.134584,-0.003283,1.090513,-0.041535,-0.103843,1.086510,-0.015390,-1.330218,38.666424,-23.702591,-3.721742,0.237516,1.871444,-0.202470,0.000000,0.000000,0.000000,0.000000,0.000000,0.000000
12860538.000000,-2.270745,-1.662683,1.377935,-1.473585,1.689074,1.442090,-0.589526,0.129098,-0.000515,1.094947,-0.039416,-0.100915,1.068264,-0.018818,-1.159625,38.571209,-24.043777,-3.622560,0.225614,1.890670,-0.136552,0.000000,0.000000,0.000000,0.000000,0.000000,0.000000
12860539.000000,-2.270617,-1.662681,1.379056,-1.473617,1.688981,1.443200,-0.589533,0.127765,0.001005,1.107536,-0.035397,-0.102967,1.062336,-0.016409,-1.084246,38.495831,-24.488113,-3.622560,0.207303,1.832076,-0.196061,0.000000,0.000000,0.000000,0.000000,0.000000,0.000000
12860540.000000,-2.270501,-1.662684,1.380186,-1.473648,1.688885,1.444292,-0.589551,0.121144,-0.000198,1.107174,-0.033028,-0.100365,1.083586,-0.014600,-0.933489,38.519634,-24.880875,-3.598757,0.207303,1.786300,-0.136552,0.000000,0.000000,0.000000,0.000000,0.000000,0.000000
12860541.000000,-2.270384,-1.662686,1.381293,-1.473678,1.688785,1.445384,-0.589563,0.117971,-0.000922,1.105224,-0.033867,-0.104085,1.074551,-0.015329,-0.834307,38.543438,-25.126846,-3.598757,0.219205,1.838485,-0.142960,0.000000,0.000000,0.000000,0.000000,0.000000,0.000000
12860542.000000,-2.270268,-1.662690,1.382413,-1.473706,1.688679,1.446467,-0.589569,0.119599,-0.001996,1.109670,-0.032109,-0.103191,1.080566,-0.009738,-0.786700,38.595013,-25.249832,-3.570986,0.267728,1.962081,-0.188737,0.000000,0.000000,0.000000,0.000000,0.000000,0.000000
12860543.000000,-2.270148,-1.662699,1.383533,-1.473733,1.688581,1.447532,-0.589580,0.119085,-0.004339,1.104944,-0.031257,-0.101115,1.064962,-0.011584,-0.762896,38.717999,-25.273636,-3.523378,0.273221,2.092086,-0.202470,0.000000,0.000000,0.000000,0.000000,0.000000,0.000000
12860544.000000,-2.270030,-1.662702,1.384624,-1.473762,1.688483,1.448625,-0.589599,0.118713,-0.004105,1.096605,-0.031227,-0.098763,1.060391,-0.011238,-0.786700,38.765606,-25.099075,-3.448000,0.261320,2.047225,-0.136552,0.000000,0.000000,0.000000,0.000000,0.000000,0.000000
12860545.000000,-2.269920,-1.662705,1.385720,-1.473794,1.688383,1.449728,-0.589606,0.116263,-0.003924,1.090515,-0.032910,-0.098578,1.078243,-0.007585,-0.735125,38.813213,-24.857071,-3.301210,0.291532,1.851302,-0.155778,0.000000,0.000000,0.000000,0.000000,0.000000,0.000000
12860546.000000,-2.269807,-1.662709,1.386813,-1.473825,1.688284,1.450799,-0.589616,0.112383,-0.007016,1.111028,-0.033932,-0.098319,1.061037,-0.009369,-0.735125,38.864788,-24.757889,-3.154421,0.315336,1.812850,-0.182328,0.000000,0.000000,0.000000,0.000000,0.000000,0.000000
12860547.000000,-2.269694,-1.662716,1.387907,-1.473855,1.688189,1.451881,-0.589628,0.114710,-0.006651,1.103913,-0.034601,-0.095504,1.065793,-0.007327,-0.786700,38.936199,-24.464310,-3.003664,0.273221,1.806442,-0.175919,0.000000,0.000000,0.000000,0.000000,0.000000,0.000000
12860548.000000,-2.269587,-1.662724,1.389016,-1.473884,1.688093,1.452955,-0.589640,0.114017,-0.006425,1.097704,-0.033913,-0.094862,1.055951,-0.009985,-0.762896,39.011578,-24.341324,-2.904482,0.267728,1.851302,-0.182328,0.000000,0.000000,0.000000,0.000000,0.000000,0.000000
12860549.000000,-2.269489,-1.662734,1.390095,-1.473896,1.687995,1.454051,-0.589654,0.107628,-0.009839,1.092938,-0.026180,-0.095033,1.057059,-0.008507,-0.635943,39.106792,-24.119156,-2.979860,0.279630,1.819259,-0.155778,0.000000,0.000000,0.000000,0.000000,0.000000,0.000000
12860550.000000,-2.269393,-1.662735,1.391202,-1.473908,1.687903,1.455163,-0.589663,0.103000,-0.006393,1.091663,-0.020072,-0.093680,1.078094,-0.009425,-0.489153,39.082989,-24.071548,-3.079042,0.249418,1.670028,-0.196061,0.000000,0.000000,0.000000,0.000000,0.000000,0.000000
12860551.000000,-2.269302,-1.662729,1.392322,-1.473914,1.687809,1.456253,-0.589672,0.098633,-0.000565,1.093037,-0.015319,-0.097717,1.075497,-0.012644,-0.314593,38.912395,-24.190567,-3.202028,0.225614,1.591293,-0.175919,0.000000,0.000000,0.000000,0.000000,0.000000,0.000000
12860552.000000,-2.269203,-1.662731,1.393410,-1.473925,1.687709,1.457358,-0.589689,0.096875,-0.002472,1.090168,-0.014823,-0.102698,1.098865,-0.010936,-0.314593,38.864788,-24.190567,-3.202028,0.261320,1.500655,-0.136552,0.000000,0.000000,0.000000,0.000000,0.000000,0.000000
12860553.000000,-2.269112,-1.662737,1.394515,-1.473935,1.687608,1.458440,-0.589694,0.093482,-0.002619,1.088732,-0.015003,-0.107029,1.106210,-0.010888,-0.243182,38.888592,-24.166763,-3.178224,0.308927,1.526290,-0.188737,0.000000,0.000000,0.000000,0.000000,0.000000,0.000000
12860554.000000,-2.269013,-1.662739,1.395596,-1.473940,1.687500,1.459519,-0.589706,0.097352,-0.003894,1.085633,-0.014352,-0.105745,1.086219,-0.013673,-0.314593,38.837017,-24.119156,-3.178224,0.362943,1.735030,-0.169511,0.000000,0.000000,0.000000,0.000000,0.000000,0.000000
12860555.000000,-2.268918,-1.662745,1.396691,-1.473947,1.687402,1.460609,-0.589712,0.095627,-0.003732,1.084532,-0.011361,-0.101335,1.089054,-0.010247,-0.342364,38.864788,-24.095352,-3.154421,0.332731,1.877853,-0.169511,0.000000,0.000000,0.000000,0.000000,0.000000,0.000000
12860556.000000,-2.268818,-1.662754,1.397782,-1.473947,1.687310,1.461702,-0.589724,0.096805,-0.007238,1.079213,-0.009293,-0.097774,1.072814,-0.013640,-0.465350,38.912395,-23.920792,-3.249635,0.285123,1.858627,-0.136552,0.000000,0.000000,0.000000,0.000000,0.000000,0.000000
12860557.000000,-2.268727,-1.662753,1.398856,-1.473947,1.687223,1.462818,-0.589732,0.098089,-0.003608,1.077350,-0.006493,-0.093720,1.067288,-0.009650,-0.489153,38.837017,-23.825577,-3.277406,0.201810,1.760665,-0.149369,0.000000,0.000000,0.000000,0.000000,0.000000,0.000000
12860558.000000,-2.268634,-1.662755,1.399943,-1.473946,1.687134,1.463938,-0.589736,0.097237,-0.002258,1.074732,-0.004482,-0.096534,1.083590,-0.010156,-0.564532,38.813213,-23.726395,-3.301210,0.159696,1.670028,-0.196061,0.000000,0.000000,0.000000,0.000000,0.000000,0.000000
