chaoyuefei/paper-gmrm-data/robot_logs/s2_dq_gmrm_xz_max_0.30_log_20260314_173548.csv
# time_ms,q_0,q_1,q_2,q_3,q_4,q_5,q_6,dq_0,dq_1,dq_2,dq_3,dq_4,dq_5,dq_6,tau_J_0,tau_J_1,tau_J_2,tau_J_3,tau_J_4,tau_J_5,tau_J_6,O_dP_EE_c_0,O_dP_EE_c_1,O_dP_EE_c_2,O_dP_EE_c_3,O_dP_EE_c_4,O_dP_EE_c_5
12410435.000000,-0.344679,0.544240,0.451051,-1.426811,-0.242495,1.916503,0.131705,-0.000155,-0.000572,-0.000738,0.000785,-0.000124,-0.000021,0.000613,0.105939,-38.413960,6.020309,19.316282,0.835355,1.370651,-0.155778,0.000000,0.000000,0.000000,0.000000,0.000000,0.000000
12410436.000000,-0.344676,0.544239,0.451054,-1.426811,-0.242495,1.916504,0.131704,0.000546,-0.000382,0.000593,0.000524,0.000155,0.000223,0.000171,0.078168,-38.413960,5.972702,19.316282,0.828947,1.364242,-0.149369,0.000000,0.000000,0.000000,0.000000,0.000000,0.000000
12410437.000000,-0.344675,0.544244,0.451049,-1.426810,-0.242497,1.916504,0.131699,0.000364,0.001416,-0.001297,0.000349,-0.000779,-0.000088,-0.001581,0.078168,-38.485371,6.044113,19.316282,0.852750,1.370651,-0.103593,0.000000,0.000000,0.000000,0.000000,0.000000,0.000000
12410438.000000,-0.344679,0.544239,0.451052,-1.426809,-0.242495,1.916503,0.131706,-0.000407,-0.001283,0.000233,0.000790,0.000125,-0.000296,0.001387,0.105939,-38.390156,5.996506,19.292479,0.835355,1.377059,-0.169511,0.000000,0.000000,0.000000,0.000000,0.000000,0.000000
12410439.000000,-0.344701,0.544243,0.451051,-1.426816,-0.242494,1.916503,0.131705,-0.018426,0.011741,-0.011138,-0.007411,-0.006955,0.000786,0.007207,-0.266986,-37.850605,5.405380,19.094114,0.763029,1.350509,-0.097184,0.000000,0.000000,0.000000,0.000000,0.000000,0.000000
12410440.000000,-0.344715,0.544233,0.451036,-1.426820,-0.242476,1.916499,0.131725,-0.022824,0.015294,-0.019288,-0.016748,0.002817,-0.003231,0.015672,-1.750750,-35.696369,3.862106,18.106260,0.410551,1.324874,-0.116410,0.000000,0.000000,0.000000,0.000000,0.000000,0.000000
12410441.000000,-0.344721,0.544243,0.450962,-1.426840,-0.242471,1.916493,0.131752,-0.012975,0.016738,-0.040624,-0.020979,0.004640,-0.002546,0.020726,-3.956561,-32.466999,2.116501,16.348753,0.040677,1.324874,-0.103593,0.000000,0.000000,0.000000,0.000000,0.000000,0.000000
12410442.000000,-0.344734,0.544283,0.450868,-1.426862,-0.242513,1.916490,0.131786,-0.006849,0.018476,-0.053672,-0.022653,-0.010030,-0.003449,0.024987,-6.083025,-28.963886,0.156662,13.754148,0.088285,1.364242,-0.097184,0.000000,0.000000,0.000000,0.000000,0.000000,0.000000
12410443.000000,-0.344761,0.544357,0.450750,-1.426929,-0.242560,1.916493,0.131821,-0.005279,0.021041,-0.064288,-0.033533,-0.022816,-0.000236,0.022397,-7.642169,-25.782124,-1.537369,11.405516,0.076383,1.429244,-0.070634,0.000000,0.000000,0.000000,0.000000,0.000000,0.000000
12410444.000000,-0.344795,0.544450,0.450634,-1.427014,-0.242620,1.916552,0.131861,-0.008290,0.031392,-0.072082,-0.042611,-0.033862,0.021756,0.027851,-8.483233,-23.139912,-2.767227,9.179869,0.100187,1.096908,-0.097184,0.000000,0.000000,0.000000,0.000000,0.000000,0.000000
12410445.000000,-0.344814,0.544572,0.450520,-1.427094,-0.242719,1.916691,0.131901,-0.008674,0.052181,-0.075833,-0.048369,-0.054798,0.061804,0.029841,-8.832355,-21.156269,-3.354386,6.981993,0.362943,0.226241,-0.083451,0.000000,0.000000,0.000000,0.000000,0.000000,0.000000
12410446.000000,-0.344827,0.544693,0.450429,-1.427194,-0.242812,1.916854,0.131929,-0.008577,0.065263,-0.076201,-0.059297,-0.064679,0.099463,0.026796,-8.582416,-19.541584,-3.453568,5.176878,0.470060,-0.534562,0.048385,0.000000,0.000000,0.000000,0.000000,0.000000,0.000000
12410447.000000,-0.344852,0.544802,0.450369,-1.427293,-0.242895,1.917008,0.131979,-0.012431,0.077120,-0.068782,-0.069380,-0.070671,0.118513,0.032175,-7.693743,-18.192707,-3.282974,3.621702,0.428861,-0.821122,-0.011124,0.000000,0.000000,0.000000,0.000000,0.000000,0.000000
12410448.000000,-0.344862,0.544902,0.450338,-1.427402,-0.242982,1.917148,0.132027,-0.013040,0.079003,-0.060588,-0.081822,-0.073457,0.130690,0.033352,-6.753497,-16.895405,-3.013199,2.558470,0.339139,-0.651749,0.001693,0.000000,0.000000,0.000000,0.000000,0.000000,0.000000
12410449.000000,-0.344854,0.544982,0.450303,-1.427524,-0.243066,1.917312,0.132085,-0.009769,0.076850,-0.053413,-0.094910,-0.075064,0.141623,0.040547,-5.912432,-15.479084,-2.346695,1.864195,0.201810,-0.359696,-0.031266,0.000000,0.000000,0.000000,0.000000,0.000000,0.000000
12410450.000000,-0.344853,0.545042,0.450274,-1.427672,-0.243127,1.917513,0.132150,-0.011030,0.067307,-0.050134,-0.110806,-0.065500,0.154054,0.050724,-4.968218,-13.888203,-1.636551,1.618224,-0.085665,-0.138139,-0.070634,0.000000,0.000000,0.000000,0.000000,0.000000,0.000000
12410451.000000,-0.344861,0.545080,0.450256,-1.427846,-0.243193,1.917743,0.132212,-0.012725,0.057671,-0.043046,-0.132045,-0.064983,0.174156,0.051015,-3.956561,-12.174335,-1.073197,1.864195,-0.348422,0.076095,-0.050492,0.000000,0.000000,0.000000,0.000000,0.000000,0.000000
12410452.000000,-0.344870,0.545108,0.450220,-1.428048,-0.243274,1.917999,0.132287,-0.013995,0.047317,-0.047880,-0.156233,-0.068170,0.197898,0.060034,-3.040118,-10.460468,-0.311478,2.435484,-0.396029,0.323287,-0.130143,0.000000,0.000000,0.000000,0.000000,0.000000,0.000000
12410453.000000,-0.344885,0.545146,0.450173,-1.428253,-0.243384,1.918270,0.132354,-0.016697,0.047691,-0.051318,-0.174320,-0.079464,0.222233,0.057548,-2.171282,-8.964802,0.474045,2.951231,-0.180880,0.538436,-0.097184,0.000000,0.000000,0.000000,0.000000,0.000000,0.000000
12410454.000000,-0.344925,0.545203,0.450126,-1.428470,-0.243498,1.918574,0.132421,-0.024200,0.052089,-0.048714,-0.191231,-0.088880,0.243567,0.059507,-1.060443,-7.814289,1.061203,3.399534,0.064481,0.648299,-0.037675,0.000000,0.000000,0.000000,0.000000,0.000000,0.000000
12410455.000000,-0.344971,0.545281,0.450086,-1.428698,-0.243604,1.918892,0.132495,-0.031997,0.061444,-0.048480,-0.202792,-0.095861,0.274949,0.062856,0.030561,-7.056538,1.453964,3.693114,0.213712,0.687667,-0.017533,0.000000,0.000000,0.000000,0.000000,0.000000,0.000000
12410456.000000,-0.345003,0.545389,0.450048,-1.428926,-0.243711,1.919248,0.132573,-0.032509,0.077006,-0.042653,-0.211003,-0.103750,0.298156,0.070177,0.772443,-6.762959,1.723740,3.843870,0.303434,0.668441,-0.004716,0.000000,0.000000,0.000000,0.000000,0.000000,0.000000
12410457.000000,-0.345025,0.545511,0.450017,-1.429161,-0.243803,1.919635,0.132658,-0.030167,0.094136,-0.037419,-0.215900,-0.102888,0.322136,0.077537,1.244550,-6.739155,1.799118,3.816099,0.213712,0.576888,-0.037675,0.000000,0.000000,0.000000,0.000000,0.000000,0.000000
12410458.000000,-0.345045,0.545645,0.449992,-1.429398,-0.243880,1.920031,0.132745,-0.026830,0.110106,-0.032912,-0.228849,-0.095261,0.346853,0.082412,1.613508,-6.810566,1.822922,3.546324,-0.067355,0.414840,-0.056901,0.000000,0.000000,0.000000,0.000000,0.000000,0.000000
12410459.000000,-0.345069,0.545785,0.449960,-1.429641,-0.243964,1.920448,0.132832,-0.025176,0.120186,-0.034152,-0.231178,-0.088721,0.372208,0.085363,1.986432,-6.838337,1.898300,3.125792,-0.294406,0.414840,-0.070634,0.000000,0.000000,0.000000,0.000000,0.000000,0.000000
12410460.000000,-0.345081,0.545916,0.449928,-1.429903,-0.244068,1.920868,0.132914,-0.019143,0.124104,-0.031444,-0.236864,-0.091252,0.388490,0.081637,2.133222,-6.616169,1.922104,2.852049,-0.318209,0.524703,-0.037675,0.000000,0.000000,0.000000,0.000000,0.000000,0.000000
12410461.000000,-0.345092,0.546042,0.449879,-1.430182,-0.244187,1.921309,0.133003,-0.014275,0.125217,-0.034793,-0.251025,-0.097935,0.401596,0.081933,2.232404,-6.199604,2.168075,2.705260,-0.199191,0.616256,-0.089860,0.000000,0.000000,0.000000,0.000000,0.000000,0.000000
12410462.000000,-0.345116,0.546152,0.449838,-1.430483,-0.244308,1.921797,0.133084,-0.017197,0.117268,-0.036237,-0.264435,-0.099679,0.430403,0.082411,2.454572,-5.513264,2.239486,2.705260,-0.037142,0.570480,-0.050492,0.000000,0.000000,0.000000,0.000000,0.000000,0.000000
12410463.000000,-0.345132,0.546259,0.449795,-1.430803,-0.244430,1.922313,0.133168,-0.016626,0.109879,-0.036690,-0.280433,-0.104431,0.455850,0.080006,2.553754,-4.731709,2.291061,2.828245,0.123990,0.427657,-0.031266,0.000000,0.000000,0.000000,0.000000,0.000000,0.000000
12410464.000000,-0.345150,0.546371,0.449758,-1.431129,-0.244547,1.922860,0.133256,-0.016654,0.106164,-0.037776,-0.294360,-0.106681,0.483312,0.084253,2.652936,-3.922383,2.239486,2.903624,0.231107,0.284835,-0.050492,0.000000,0.000000,0.000000,0.000000,0.000000,0.000000
12410465.000000,-0.345163,0.546503,0.449723,-1.431460,-0.244663,1.923409,0.133338,-0.012094,0.111771,-0.035234,-0.305149,-0.108691,0.502319,0.085600,2.680707,-3.386799,2.144272,2.903624,0.237516,0.329696,-0.017533,0.000000,0.000000,0.000000,0.000000,0.000000,0.000000
12410466.000000,-0.345163,0.546656,0.449690,-1.431777,-0.244766,1.923949,0.133428,-0.009110,0.119908,-0.032810,-0.308338,-0.104778,0.521568,0.089210,2.581525,-3.311421,2.021286,2.657652,0.100187,0.609847,-0.044083,0.000000,0.000000,0.000000,0.000000,0.000000,0.000000
12410467.000000,-0.345161,0.546828,0.449661,-1.432100,-0.244863,1.924526,0.133513,-0.004205,0.132541,-0.030589,-0.308457,-0.103645,0.536679,0.088979,2.482343,-3.950154,1.997482,2.582274,-0.037142,0.869857,-0.031266,0.000000,0.000000,0.000000,0.000000,0.000000,0.000000
12410468.000000,-0.345162,0.547006,0.449638,-1.432421,-0.244958,1.925147,0.133600,0.002037,0.146634,-0.026833,-0.312121,-0.100766,0.569253,0.091805,2.529951,-5.148273,2.021286,2.657652,-0.211093,0.863448,-0.070634,0.000000,0.000000,0.000000,0.000000,0.000000,0.000000
12410469.000000,-0.345163,0.547190,0.449617,-1.432757,-0.245053,1.925822,0.133682,-0.000692,0.160321,-0.023643,-0.322116,-0.100184,0.603113,0.087583,2.629133,-6.715351,2.168075,3.050413,-0.360323,0.589706,-0.070634,0.000000,0.000000,0.000000,0.000000,0.000000,0.000000
12410470.000000,-0.345157,0.547363,0.449595,-1.433094,-0.245168,1.926528,0.133758,0.001679,0.166788,-0.022699,-0.325152,-0.108008,0.630953,0.087301,2.680707,-8.230854,2.390243,3.447142,-0.294406,0.226241,-0.017533,0.000000,0.000000,0.000000,0.000000,0.000000,0.000000
12410471.000000,-0.345152,0.547544,0.449565,-1.433439,-0.245300,1.927218,0.133841,0.002913,0.173405,-0.027464,-0.337338,-0.113786,0.649251,0.089548,2.752119,-9.750324,2.731430,3.867674,-0.067355,0.011092,-0.031266,0.000000,0.000000,0.000000,0.000000,0.000000,0.000000
12410472.000000,-0.345151,0.547719,0.449537,-1.433794,-0.245433,1.927896,0.133923,0.002704,0.178050,-0.031276,-0.345372,-0.124428,0.652517,0.085629,2.879072,-11.047626,2.977401,4.113646,0.183500,0.050460,-0.011124,0.000000,0.000000,0.000000,0.000000,0.000000,0.000000
12410473.000000,-0.345150,0.547891,0.449509,-1.434163,-0.245564,1.928552,0.134003,0.001933,0.175922,-0.032531,-0.351170,-0.127959,0.650099,0.088163,2.902875,-12.221943,3.147995,4.486571,0.356534,0.161239,-0.017533,0.000000,0.000000,0.000000,0.000000,0.000000,0.000000
12410474.000000,-0.345132,0.548057,0.449482,-1.434536,-0.245681,1.929237,0.134086,0.005661,0.170978,-0.031741,-0.354327,-0.129877,0.658649,0.085496,2.605329,-13.519245,3.247177,5.077696,0.381254,0.258285,-0.037675,0.000000,0.000000,0.000000,0.000000,0.000000,0.000000
12410475.000000,-0.345116,0.548224,0.449452,-1.434913,-0.245783,1.929929,0.134166,0.010714,0.166578,-0.034077,-0.357489,-0.122459,0.669579,0.085951,2.184797,-15.062519,3.322555,6.017943,0.267728,0.349838,-0.023942,0.000000,0.000000,0.000000,0.000000,0.000000,0.000000
12410476.000000,-0.345114,0.548388,0.449431,-1.435290,-0.245879,1.930612,0.134245,0.008800,0.165292,-0.032730,-0.369172,-0.117643,0.673476,0.083576,1.835676,-16.724812,3.270981,7.327147,0.064481,0.446883,-0.031266,0.000000,0.000000,0.000000,0.000000,0.000000,0.000000
12410477.000000,-0.345122,0.548557,0.449406,-1.435660,-0.245985,1.931296,0.134324,0.003478,0.170000,-0.031476,-0.368699,-0.110407,0.676051,0.079781,1.641279,-18.514057,3.199569,8.636351,-0.025240,0.662032,0.015426,0.000000,0.000000,0.000000,0.000000,0.000000,0.000000
12410478.000000,-0.345126,0.548734,0.449371,-1.436029,-0.246099,1.931950,0.134407,0.000586,0.173750,-0.035131,-0.368498,-0.114622,0.664295,0.080616,1.415143,-20.346943,3.294784,9.997129,0.022367,1.031905,-0.023942,0.000000,0.000000,0.000000,0.000000,0.000000,0.000000
12410479.000000,-0.345135,0.548925,0.449331,-1.436397,-0.246226,1.932615,0.134488,-0.003652,0.184056,-0.038157,-0.372957,-0.121052,0.662642,0.082320,1.268354,-22.259174,3.417770,11.306334,0.178007,1.370651,0.001693,0.000000,0.000000,0.000000,0.000000,0.000000,0.000000
12410480.000000,-0.345146,0.549126,0.449287,-1.436778,-0.246340,1.933293,0.134572,-0.004686,0.189743,-0.041094,-0.377761,-0.118006,0.656783,0.081098,1.169172,-24.119831,3.564560,12.591734,0.243009,1.429244,-0.011124,0.000000,0.000000,0.000000,0.000000,0.000000,0.000000
12410481.000000,-0.345157,0.549342,0.449242,-1.437158,-0.246459,1.933974,0.134653,-0.002159,0.199458,-0.042233,-0.377399,-0.118061,0.666889,0.079691,1.069990,-25.928913,3.687546,13.678770,0.267728,1.350509,-0.011124,0.000000,0.000000,0.000000,0.000000,0.000000,0.000000
12410482.000000,-0.345158,0.549571,0.449193,-1.437530,-0.246585,1.934657,0.134732,-0.000407,0.210240,-0.046639,-0.379321,-0.125207,0.671995,0.076119,0.847822,-27.666584,3.838302,14.448423,0.339139,1.188461,0.048385,0.000000,0.000000,0.000000,0.000000,0.000000,0.000000
12410483.000000,-0.345150,0.549813,0.449134,-1.437911,-0.246702,1.935318,0.134819,0.002524,0.224107,-0.049390,-0.380840,-0.121942,0.664835,0.078827,0.550275,-29.332844,4.080307,15.091124,0.315336,1.175643,-0.023942,0.000000,0.000000,0.000000,0.000000,0.000000,0.000000
12410484.000000,-0.345155,0.550056,0.449077,-1.438288,-0.246827,1.935936,0.134898,-0.000171,0.228027,-0.048768,-0.384042,-0.121862,0.652189,0.076410,0.451093,-30.725361,4.227097,15.483885,0.362943,1.364242,0.021835,0.000000,0.000000,0.000000,0.000000,0.000000,0.000000
12410485.000000,-0.345162,0.550301,0.449014,-1.438683,-0.246944,1.936560,0.134984,-0.000035,0.234889,-0.052762,-0.386911,-0.120367,0.637386,0.082702,0.403486,-31.975056,4.449265,15.856810,0.339139,1.539108,-0.037675,0.000000,0.000000,0.000000,0.000000,0.000000,0.000000
12410486.000000,-0.345169,0.550538,0.448945,-1.439087,-0.247067,1.937184,0.135060,-0.005890,0.233378,-0.059278,-0.389224,-0.120503,0.638629,0.078454,0.351911,-32.907368,4.671432,16.201963,0.369352,1.565658,0.028243,0.000000,0.000000,0.000000,0.000000,0.000000,0.000000
12410487.000000,-0.345182,0.550762,0.448875,-1.439502,-0.247195,1.937827,0.135144,-0.009365,0.228854,-0.063208,-0.393623,-0.124939,0.634433,0.077770,0.403486,-33.518330,4.865829,16.646299,0.381254,1.461288,0.015426,0.000000,0.000000,0.000000,0.000000,0.000000,0.000000
12410488.000000,-0.345199,0.550988,0.448796,-1.439927,-0.247311,1.938449,0.135224,-0.012176,0.227559,-0.067715,-0.403063,-0.126957,0.636502,0.076513,0.474897,-34.057880,5.111801,17.114439,0.332731,1.461288,0.034652,0.000000,0.000000,0.000000,0.000000,0.000000,0.000000
12410489.000000,-0.345216,0.551220,0.448722,-1.440351,-0.247442,1.939053,0.135305,-0.014131,0.226279,-0.067771,-0.407711,-0.130048,0.629147,0.076160,0.550275,-34.522053,5.234787,17.435789,0.362943,1.578475,0.034652,0.000000,0.000000,0.000000,0.000000,0.000000,0.000000
12410490.000000,-0.345239,0.551463,0.448640,-1.440784,-0.247570,1.939649,0.135391,-0.017076,0.232125,-0.069976,-0.415389,-0.133561,0.619488,0.077275,0.697065,-35.033833,5.456955,17.784910,0.386747,1.773483,-0.004716,0.000000,0.000000,0.000000,0.000000,0.000000,0.000000
12410491.000000,-0.345252,0.551700,0.448550,-1.441213,-0.247702,1.940236,0.135465,-0.016214,0.234986,-0.073840,-0.414352,-0.139635,0.617505,0.080040,0.724836,-35.525776,5.750534,17.955503,0.398649,1.909896,0.034652,0.000000,0.000000,0.000000,0.000000,0.000000,0.000000
12410492.000000,-0.345264,0.551942,0.448469,-1.441643,-0.247837,1.940842,0.135551,-0.015567,0.234334,-0.076577,-0.420333,-0.138084,0.617107,0.085382,0.748639,-35.942341,5.921127,18.276854,0.381254,1.858627,-0.017533,0.000000,0.000000,0.000000,0.000000,0.000000,0.000000
12410493.000000,-0.345274,0.552195,0.448382,-1.442088,-0.247968,1.941463,0.135630,-0.010878,0.240111,-0.082303,-0.423261,-0.133425,0.617627,0.086833,0.724836,-36.406513,6.095688,18.574400,0.374845,1.754256,0.001693,0.000000,0.000000,0.000000,0.000000,0.000000,0.000000
12410494.000000,-0.345289,0.552450,0.448287,-1.442516,-0.248097,1.942059,0.135714,-0.012818,0.240229,-0.084626,-0.426732,-0.128725,0.620659,0.083696,0.796247,-36.846882,6.341660,18.748960,0.369352,1.727706,0.009017,0.000000,0.000000,0.000000,0.000000,0.000000,0.000000
12410495.000000,-0.345298,0.552706,0.448197,-1.442955,-0.248228,1.942649,0.135802,-0.014484,0.245360,-0.086721,-0.428876,-0.127957,0.606709,0.081960,0.748639,-37.334858,6.488449,18.895750,0.405057,1.844894,-0.011124,0.000000,0.000000,0.000000,0.000000,0.000000,0.000000
12410496.000000,-0.345312,0.552958,0.448100,-1.443391,-0.248367,1.943234,0.135881,-0.017389,0.248930,-0.091069,-0.431241,-0.132897,0.602432,0.084319,0.772443,-37.680012,6.706650,18.947325,0.476469,1.962081,0.021835,0.000000,0.000000,0.000000,0.000000,0.000000,0.000000
12410497.000000,-0.345317,0.553215,0.448008,-1.443839,-0.248498,1.943831,0.135969,-0.017434,0.249582,-0.087926,-0.437350,-0.128336,0.603165,0.087674,0.697065,-37.949787,6.805832,19.141722,0.476469,1.974899,-0.004716,0.000000,0.000000,0.000000,0.000000,0.000000,0.000000
12410498.000000,-0.345332,0.553461,0.447919,-1.444295,-0.248623,1.944438,0.136051,-0.018012,0.250152,-0.089370,-0.444776,-0.126009,0.604343,0.086753,0.772443,-38.120380,6.829636,19.363890,0.470060,1.930038,0.034652,0.000000,0.000000,0.000000,0.000000,0.000000,0.000000
12410499.000000,-0.345339,0.553714,0.447819,-1.444755,-0.248748,1.945044,0.136138,-0.015455,0.251696,-0.092272,-0.446562,-0.126918,0.607975,0.090069,0.724836,-38.243366,7.004196,19.514647,0.434354,1.844894,-0.004716,0.000000,0.000000,0.000000,0.000000,0.000000,0.000000
12410500.000000,-0.345343,0.553969,0.447735,-1.445200,-0.248876,1.945644,0.136222,-0.013034,0.248457,-0.091757,-0.448045,-0.129113,0.600256,0.090458,0.649457,-38.314777,6.976425,19.538450,0.422452,1.890670,0.009017,0.000000,0.000000,0.000000,0.000000,0.000000,0.000000
12410501.000000,-0.345356,0.554218,0.447656,-1.445650,-0.249009,1.946250,0.136305,-0.013680,0.246843,-0.088647,-0.442627,-0.131705,0.599297,0.091450,0.673261,-38.390156,6.905014,19.590025,0.434354,1.962081,0.009017,0.000000,0.000000,0.000000,0.000000,0.000000,0.000000
12410502.000000,-0.345365,0.554470,0.447577,-1.446096,-0.249142,1.946851,0.136393,-0.010328,0.248458,-0.082395,-0.442763,-0.131994,0.603858,0.093534,0.673261,-38.461567,6.805832,19.637632,0.422452,2.020675,-0.017533,0.000000,0.000000,0.000000,0.000000,0.000000,0.000000
12410503.000000,-0.345365,0.554722,0.447492,-1.446547,-0.249268,1.947467,0.136480,-0.008025,0.249891,-0.083354,-0.440909,-0.128734,0.608490,0.092138,0.550275,-38.513142,6.829636,19.736814,0.410551,2.007858,-0.004716,0.000000,0.000000,0.000000,0.000000,0.000000,0.000000
12410504.000000,-0.345358,0.554975,0.447410,-1.446998,-0.249400,1.948069,0.136564,-0.004792,0.246775,-0.080681,-0.440084,-0.127933,0.608721,0.092701,0.351911,-38.513142,6.805832,19.713011,0.464567,1.974899,-0.004716,0.000000,0.000000,0.000000,0.000000,0.000000,0.000000
12410505.000000,-0.345357,0.555224,0.447330,-1.447430,-0.249522,1.948686,0.136644,-0.003822,0.244364,-0.080875,-0.437618,-0.129228,0.613165,0.086352,0.205121,-38.513142,6.758224,19.613829,0.440763,1.955673,0.048385,0.000000,0.000000,0.000000,0.000000,0.000000,0.000000
12410506.000000,-0.345354,0.555475,0.447261,-1.447875,-0.249641,1.949300,0.136731,-0.003183,0.248583,-0.076238,-0.439122,-0.125123,0.610541,0.088757,0.054365,-38.485371,6.611435,19.562254,0.386747,1.955673,0.009017,0.000000,0.000000,0.000000,0.000000,0.000000,0.000000
12410507.000000,-0.345346,0.555741,0.447187,-1.448307,-0.249769,1.949906,0.136817,-0.001540,0.251568,-0.074126,-0.446528,-0.123927,0.604004,0.090310,-0.144000,-38.608356,6.536057,19.439268,0.416959,1.968490,0.001693,0.000000,0.000000,0.000000,0.000000,0.000000,0.000000
12410508.000000,-0.345330,0.556000,0.447125,-1.448748,-0.249889,1.950521,0.136905,0.004927,0.250587,-0.071826,-0.445861,-0.122743,0.604094,0.090891,-0.441546,-38.707539,6.313889,19.316282,0.405057,1.936446,0.015426,0.000000,0.000000,0.000000,0.000000,0.000000,0.000000
12410509.000000,-0.345318,0.556258,0.447055,-1.449182,-0.250007,1.951134,0.136991,0.007078,0.253399,-0.071124,-0.441116,-0.120747,0.618595,0.087825,-0.635943,-38.830524,6.218674,19.169493,0.386747,1.955673,-0.004716,0.000000,0.000000,0.000000,0.000000,0.000000,0.000000
12410510.000000,-0.345312,0.556517,0.446991,-1.449610,-0.250135,1.951767,0.137074,0.005359,0.254009,-0.068941,-0.436661,-0.125092,0.626932,0.082258,-0.687518,-38.901936,6.067917,19.094114,0.398649,1.884261,0.041976,0.000000,0.000000,0.000000,0.000000,0.000000,0.000000
12410511.000000,-0.345297,0.556769,0.446928,-1.450036,-0.250260,1.952406,0.137169,0.009196,0.251772,-0.069074,-0.434254,-0.129119,0.624520,0.085746,-0.810504,-38.977314,5.972702,18.971128,0.398649,1.793624,0.001693,0.000000,0.000000,0.000000,0.000000,0.000000,0.000000
12410512.000000,-0.345281,0.557032,0.446874,-1.450456,-0.250391,1.953023,0.137252,0.011537,0.254154,-0.060555,-0.432307,-0.131604,0.630123,0.086686,-0.909686,-39.100300,5.798141,18.919554,0.422452,1.754256,0.041976,0.000000,0.000000,0.000000,0.000000,0.000000,0.000000
12410513.000000,-0.345268,0.557292,0.446816,-1.450877,-0.250512,1.953654,0.137335,0.011552,0.256253,-0.061443,-0.430622,-0.128307,0.626023,0.082442,-0.933489,-39.100300,5.679123,18.871946,0.410551,1.773483,0.081344,0.000000,0.000000,0.000000,0.000000,0.000000,0.000000
12410514.000000,-0.345250,0.557558,0.446753,-1.451286,-0.250634,1.954280,0.137426,0.012941,0.253458,-0.061974,-0.422456,-0.130175,0.624385,0.083779,-1.008868,-39.318501,5.651352,18.697386,0.393156,1.800033,0.009017,0.000000,0.000000,0.000000,0.000000,0.000000,0.000000
12410515.000000,-0.345231,0.557820,0.446699,-1.451691,-0.250753,1.954897,0.137508,0.015105,0.257926,-0.058401,-0.421005,-0.124828,0.620043,0.078723,-1.131854,-39.441486,5.480759,18.550596,0.344633,1.786300,0.067611,0.000000,0.000000,0.000000,0.000000,0.000000,0.000000
12410516.000000,-0.345211,0.558084,0.446654,-1.452097,-0.250872,1.955519,0.137595,0.017351,0.261427,-0.055050,-0.414530,-0.122116,0.620854,0.083750,-1.282611,-39.564472,5.258591,18.451414,0.291532,1.747848,0.041976,0.000000,0.000000,0.000000,0.000000,0.000000,0.000000
12410517.000000,-0.345190,0.558349,0.446600,-1.452497,-0.250988,1.956145,0.137682,0.018335,0.260007,-0.052410,-0.411566,-0.119102,0.619058,0.081217,-1.405596,-39.635883,5.163376,18.276854,0.243009,1.676437,0.054794,0.000000,0.000000,0.000000,0.000000,0.000000,0.000000
12410518.000000,-0.345175,0.558617,0.446549,-1.452898,-0.251110,1.956776,0.137768,0.017321,0.259799,-0.053345,-0.409052,-0.120943,0.621282,0.079426,-1.453204,-39.758869,5.087997,18.229246,0.291532,1.617843,0.061202,0.000000,0.000000,0.000000,0.000000,0.000000,0.000000
12410519.000000,-0.345157,0.558881,0.446497,-1.453292,-0.251237,1.957403,0.137852,0.017195,0.261490,-0.052107,-0.403683,-0.121573,0.616740,0.078505,-1.528582,-39.810444,5.040390,18.078489,0.327238,1.617843,0.061202,0.000000,0.000000,0.000000,0.000000,0.000000,0.000000
12410520.000000,-0.345151,0.559152,0.446445,-1.453684,-0.251367,1.958010,0.137942,0.013138,0.257779,-0.050137,-0.399663,-0.125801,0.620899,0.083999,-1.429400,-39.810444,4.965012,18.030882,0.356534,1.662704,0.015426,0.000000,0.000000,0.000000,0.000000,0.000000,0.000000
12410521.000000,-0.345140,0.559419,0.446392,-1.454076,-0.251495,1.958638,0.138028,0.012825,0.261574,-0.054900,-0.400062,-0.125301,0.619970,0.086042,-1.429400,-39.905659,4.917404,17.983274,0.381254,1.670028,0.015426,0.000000,0.000000,0.000000,0.000000,0.000000,0.000000
12410522.000000,-0.345123,0.559690,0.446340,-1.454471,-0.251619,1.959261,0.138108,0.014343,0.266165,-0.052885,-0.396519,-0.126741,0.623136,0.085920,-1.504779,-39.957233,4.865829,18.054686,0.344633,1.605026,0.074935,0.000000,0.000000,0.000000,0.000000,0.000000,0.000000
12410523.000000,-0.345117,0.559962,0.446289,-1.454856,-0.251743,1.959888,0.138203,0.011341,0.266232,-0.051270,-0.399598,-0.122541,0.625263,0.089365,-1.405596,-40.004841,4.818222,18.106260,0.297025,1.546432,0.021835,0.000000,0.000000,0.000000,0.000000,0.000000,0.000000
12410524.000000,-0.345117,0.560236,0.446236,-1.455239,-0.251866,1.960503,0.138284,0.008139,0.268554,-0.051408,-0.389447,-0.121415,0.628089,0.088718,-1.254840,-40.175434,4.818222,18.078489,0.273221,1.578475,0.074935,0.000000,0.000000,0.000000,0.000000,0.000000,0.000000
12410525.000000,-0.345112,0.560515,0.446183,-1.455620,-0.251989,1.961104,0.138372,0.004205,0.272517,-0.050966,-0.395514,-0.123921,0.621976,0.090605,-1.159625,-40.298420,4.818222,18.153868,0.249418,1.714889,0.061202,0.000000,0.000000,0.000000,0.000000,0.000000,0.000000
12410526.000000,-0.345108,0.560806,0.446128,-1.456006,-0.252113,1.961727,0.138469,0.004331,0.278321,-0.053439,-0.392927,-0.123485,0.620709,0.093229,-1.060443,-40.516621,4.818222,18.229246,0.249418,1.721298,0.001693,0.000000,0.000000,0.000000,0.000000,0.000000,0.000000
12410527.000000,-0.345111,0.561082,0.446066,-1.456402,-0.252236,1.962341,0.138549,0.002794,0.281880,-0.055619,-0.393819,-0.121522,0.633457,0.086410,-0.885882,-40.714985,4.941208,18.451414,0.231107,1.689254,0.061202,0.000000,0.000000,0.000000,0.000000,0.000000,0.000000
12410528.000000,-0.345112,0.561362,0.446002,-1.456790,-0.252359,1.962955,0.138640,0.002282,0.280684,-0.059254,-0.391338,-0.120032,0.635022,0.085069,-0.735125,-40.909382,5.040390,18.526793,0.219205,1.708480,0.021835,0.000000,0.000000,0.000000,0.000000,0.000000,0.000000
12410529.000000,-0.345109,0.561647,0.445934,-1.457182,-0.252487,1.963573,0.138726,0.000767,0.281525,-0.059614,-0.388963,-0.120433,0.629593,0.087124,-0.663714,-41.155354,5.163376,18.625975,0.219205,1.760665,0.028243,0.000000,0.000000,0.000000,0.000000,0.000000,0.000000
12410530.000000,-0.345104,0.561928,0.445857,-1.457570,-0.252626,1.964189,0.138813,0.002602,0.276774,-0.065094,-0.385083,-0.126475,0.629376,0.088160,-0.588336,-41.325947,5.405380,18.598204,0.279630,1.735030,0.054794,0.000000,0.000000,0.000000,0.000000,0.000000,0.000000
12410531.000000,-0.345111,0.562211,0.445786,-1.457967,-0.252756,1.964810,0.138904,0.000456,0.278420,-0.065942,-0.386474,-0.128913,0.623978,0.090325,-0.366168,-41.448933,5.528366,18.748960,0.273221,1.702071,0.021835,0.000000,0.000000,0.000000,0.000000,0.000000,0.000000
12410532.000000,-0.345120,0.562493,0.445715,-1.458363,-0.252893,1.965434,0.138990,-0.003490,0.278788,-0.066734,-0.386765,-0.132409,0.625508,0.091092,-0.167803,-41.520344,5.627548,18.772764,0.308927,1.649886,0.028243,0.000000,0.000000,0.000000,0.000000,0.000000,0.000000
12410533.000000,-0.345127,0.562768,0.445632,-1.458756,-0.253030,1.966056,0.139078,-0.005775,0.274520,-0.069935,-0.385717,-0.133883,0.627224,0.087437,0.006757,-41.548115,5.849716,18.848143,0.339139,1.578475,0.015426,0.000000,0.000000,0.000000,0.000000,0.000000,0.000000
12410534.000000,-0.345129,0.563051,0.445548,-1.459153,-0.253162,1.966663,0.139158,-0.003173,0.284656,-0.075083,-0.389682,-0.129684,0.620745,0.086103,0.129743,-41.667133,6.044113,18.871946,0.320829,1.676437,0.067611,0.000000,0.000000,0.000000,0.000000,0.000000,0.000000
12410535.000000,-0.345141,0.563339,0.445462,-1.459548,-0.253294,1.967257,0.139255,-0.006142,0.285277,-0.078126,-0.390641,-0.131746,0.612978,0.090775,0.328107,-41.790119,6.218674,18.919554,0.332731,1.773483,0.001693,0.000000,0.000000,0.000000,0.000000,0.000000,0.000000
12410536.000000,-0.345153,0.563627,0.445372,-1.459941,-0.253420,1.967871,0.139333,-0.007718,0.286053,-0.082550,-0.396769,-0.130772,0.615957,0.089098,0.502668,-41.960712,6.389267,18.919554,0.267728,1.773483,0.081344,0.000000,0.000000,0.000000,0.000000,0.000000,0.000000
12410537.000000,-0.345159,0.563903,0.445283,-1.460343,-0.253550,1.968487,0.139427,-0.006471,0.285338,-0.083785,-0.396437,-0.127113,0.611629,0.091785,0.574079,-41.913105,6.559860,19.018736,0.231107,1.812850,0.048385,0.000000,0.000000,0.000000,0.000000,0.000000,0.000000
12410538.000000,-0.345171,0.564188,0.445190,-1.460738,-0.253683,1.969094,0.139518,-0.009968,0.282431,-0.084854,-0.396497,-0.129059,0.615174,0.093887,0.697065,-41.913105,6.758224,19.094114,0.225614,1.806442,0.015426,0.000000,0.000000,0.000000,0.000000,0.000000,0.000000
12410539.000000,-0.345180,0.564470,0.445096,-1.461139,-0.253819,1.969705,0.139604,-0.010984,0.288352,-0.087530,-0.396466,-0.131909,0.611487,0.086913,0.748639,-42.036091,6.928818,19.169493,0.213712,1.806442,0.054794,0.000000,0.000000,0.000000,0.000000,0.000000,0.000000
12410540.000000,-0.345199,0.564751,0.445007,-1.461545,-0.253965,1.970305,0.139694,-0.013672,0.285256,-0.085737,-0.402802,-0.135843,0.611952,0.085087,0.871625,-42.036091,7.028000,19.240904,0.279630,1.865035,0.028243,0.000000,0.000000,0.000000,0.000000,0.000000,0.000000
12410541.000000,-0.345210,0.565031,0.444911,-1.461949,-0.254109,1.970922,0.139778,-0.013302,0.281526,-0.087806,-0.402770,-0.137513,0.614165,0.086480,0.895429,-41.988483,7.150986,19.391661,0.320829,1.903487,0.048385,0.000000,0.000000,0.000000,0.000000,0.000000,0.000000
12410542.000000,-0.345218,0.565308,0.444814,-1.462340,-0.254249,1.971547,0.139872,-0.008940,0.280495,-0.090551,-0.400001,-0.134805,0.618358,0.089067,0.871625,-42.036091,7.297775,19.340086,0.362943,1.844894,0.009017,0.000000,0.000000,0.000000,0.000000,0.000000,0.000000
12410543.000000,-0.345227,0.565583,0.444715,-1.462738,-0.254382,1.972160,0.139956,-0.010017,0.277324,-0.091764,-0.407471,-0.133841,0.617015,0.088977,0.895429,-41.960712,7.444565,19.463072,0.344633,1.779891,0.041976,0.000000,0.000000,0.000000,0.000000,0.000000,0.000000
12410544.000000,-0.345236,0.565865,0.444619,-1.463138,-0.254516,1.972766,0.140045,-0.007933,0.273909,-0.093654,-0.407337,-0.130515,0.615779,0.090139,0.923200,-41.936909,7.515976,19.514647,0.344633,1.825668,0.048385,0.000000,0.000000,0.000000,0.000000,0.000000,0.000000
12410545.000000,-0.345242,0.566140,0.444521,-1.463542,-0.254649,1.973377,0.140130,-0.008864,0.275857,-0.093151,-0.401225,-0.130890,0.618384,0.091506,0.923200,-41.988483,7.591354,19.590025,0.303434,1.812850,0.041976,0.000000,0.000000,0.000000,0.000000,0.000000,0.000000
12410546.000000,-0.345245,0.566407,0.444422,-1.463941,-0.254786,1.973981,0.140218,-0.008418,0.272039,-0.093015,-0.401321,-0.132700,0.617529,0.091114,0.871625,-41.841694,7.690536,19.713011,0.315336,1.865035,0.048385,0.000000,0.000000,0.000000,0.000000,0.000000,0.000000
12410547.000000,-0.345252,0.566678,0.444331,-1.464342,-0.254920,1.974577,0.140307,-0.009327,0.272547,-0.090595,-0.400142,-0.129849,0.605847,0.091278,0.871625,-41.790119,7.666733,19.835997,0.315336,1.949264,0.034652,0.000000,0.000000,0.000000,0.000000,0.000000,0.000000
12410548.000000,-0.345255,0.566943,0.444238,-1.464751,-0.255060,1.975164,0.140394,-0.005888,0.271079,-0.089398,-0.401633,-0.135854,0.605153,0.092352,0.824018,-41.694904,7.666733,20.034361,0.308927,1.962081,0.034652,0.000000,0.000000,0.000000,0.000000,0.000000,0.000000
12410549.000000,-0.345256,0.567220,0.444147,-1.465154,-0.255208,1.975764,0.140487,-0.002749,0.274331,-0.087221,-0.402023,-0.143089,0.603096,0.094033,0.748639,-41.619526,7.638962,20.204954,0.356534,2.007858,0.001693,0.000000,0.000000,0.000000,0.000000,0.000000,0.000000
12410550.000000,-0.345255,0.567492,0.444053,-1.465562,-0.255352,1.976361,0.140569,-0.000510,0.271265,-0.087961,-0.402919,-0.138681,0.603237,0.092459,0.673261,-41.571918,7.666733,20.454893,0.386747,2.014266,0.048385,0.000000,0.000000,0.000000,0.000000,0.000000,0.000000
12410551.000000,-0.345253,0.567769,0.443964,-1.465959,-0.255491,1.976954,0.140664,-0.002114,0.272482,-0.086046,-0.401193,-0.137429,0.594222,0.093591,0.601850,-41.571918,7.615158,20.554075,0.386747,2.014266,0.028243,0.000000,0.000000,0.000000,0.000000,0.000000,0.000000
12410552.000000,-0.345248,0.568049,0.443877,-1.466366,-0.255629,1.977539,0.140751,0.000403,0.281803,-0.087373,-0.401417,-0.137659,0.589469,0.093262,0.502668,-41.595722,7.567551,20.724669,0.369352,2.060043,0.041976,0.000000,0.000000,0.000000,0.000000,0.000000,0.000000
12410553.000000,-0.345242,0.568315,0.443794,-1.466778,-0.255769,1.978129,0.140839,0.001095,0.273896,-0.085100,-0.398292,-0.137915,0.591183,0.092617,0.451093,-41.425129,7.468369,20.899229,0.381254,2.118636,0.067611,0.000000,0.000000,0.000000,0.000000,0.000000,0.000000
12410554.000000,-0.345231,0.568588,0.443709,-1.467173,-0.255905,1.978724,0.140939,0.003321,0.272912,-0.083880,-0.395864,-0.136660,0.594384,0.094930,0.328107,-41.349751,7.396957,21.046019,0.351041,2.125045,0.009017,0.000000,0.000000,0.000000,0.000000,0.000000,0.000000
12410555.000000,-0.345220,0.568861,0.443625,-1.467578,-0.256041,1.979321,0.141018,0.006373,0.275295,-0.083996,-0.395958,-0.138079,0.587811,0.092207,0.276533,-41.254536,7.345383,21.192808,0.356534,2.131454,0.074935,0.000000,0.000000,0.000000,0.000000,0.000000,0.000000
12410556.000000,-0.345211,0.569129,0.443547,-1.467978,-0.256184,1.979904,0.141113,0.003703,0.265368,-0.078674,-0.395690,-0.142673,0.582784,0.094663,0.304304,-41.107746,7.222397,21.418943,0.369352,2.125045,0.021835,0.000000,0.000000,0.000000,0.000000,0.000000,0.000000
12410557.000000,-0.345196,0.569401,0.443466,-1.468385,-0.256325,1.980506,0.141205,0.007492,0.269455,-0.079303,-0.397487,-0.137884,0.587435,0.095366,0.228925,-41.131550,7.174789,21.589537,0.386747,2.112228,0.001693,0.000000,0.000000,0.000000,0.000000,0.000000,0.000000
12410558.000000,-0.345184,0.569673,0.443394,-1.468791,-0.256474,1.981089,0.141290,0.009691,0.270014,-0.078942,-0.396249,-0.143792,0.586545,0.093101,0.177350,-41.056171,7.051804,21.787901,0.416959,2.144271,0.054794,0.000000,0.000000,0.000000,0.000000,0.000000,0.000000
12410559.000000,-0.345168,0.569943,0.443324,-1.469196,-0.256620,1.981675,0.141382,0.012395,0.267972,-0.077769,-0.398891,-0.147235,0.579325,0.093942,0.078168,-41.032368,6.905014,22.010069,0.428861,2.222091,0.021835,0.000000,0.000000,0.000000,0.000000,0.000000,0.000000
12410560.000000,-0.345154,0.570205,0.443254,-1.469594,-0.256760,1.982261,0.141464,0.013599,0.266171,-0.078133,-0.396449,-0.150538,0.574556,0.088041,0.006757,-40.984760,6.782028,22.085447,0.416959,2.274276,0.061202,0.000000,0.000000,0.000000,0.000000,0.000000,0.000000
12410561.000000,-0.345137,0.570470,0.443182,-1.469996,-0.256902,1.982855,0.141558,0.014704,0.265519,-0.075678,-0.408993,-0.146441,0.577897,0.091156,-0.068621,-40.837971,6.706650,22.156858,0.410551,2.267867,0.021835,0.000000,0.000000,0.000000,0.000000,0.000000,0.000000
12410562.000000,-0.345121,0.570731,0.443118,-1.470407,-0.257039,1.983454,0.141644,0.014799,0.260781,-0.071858,-0.410912,-0.139272,0.574761,0.091062,-0.116229,-40.663410,6.559860,22.331419,0.386747,2.248641,0.041976,0.000000,0.000000,0.000000,0.000000,0.000000,0.000000
12410563.000000,-0.345100,0.570986,0.443060,-1.470812,-0.257178,1.984061,0.141736,0.014256,0.259573,-0.068888,-0.411461,-0.142722,0.583452,0.097634,-0.266986,-40.544392,6.365463,22.355223,0.351041,2.209274,0.015426,0.000000,0.000000,0.000000,0.000000,0.000000,0.000000
12410564.000000,-0.345089,0.571252,0.442996,-1.471205,-0.257317,1.984644,0.141821,0.016893,0.258593,-0.065517,-0.407985,-0.140593,0.577985,0.094658,-0.290789,-40.445210,6.266281,22.307615,0.339139,2.242233,0.067611,0.000000,0.000000,0.000000,0.000000,0.000000,0.000000
12410565.000000,-0.345077,0.571518,0.442940,-1.471603,-0.257469,1.985244,0.141918,0.015332,0.260716,-0.062190,-0.406628,-0.143337,0.578699,0.096626,-0.290789,-40.445210,6.119492,22.208433,0.398649,2.255050,0.015426,0.000000,0.000000,0.000000,0.000000,0.000000,0.000000
12410566.000000,-0.345061,0.571777,0.442877,-1.471998,-0.257618,1.985838,0.142011,0.015579,0.261719,-0.061831,-0.400525,-0.145794,0.582045,0.095730,-0.342364,-40.322224,6.067917,22.109251,0.381254,2.222091,0.028243,0.000000,0.000000,0.000000,0.000000,0.000000,0.000000
12410567.000000,-0.345041,0.572049,0.442823,-1.472381,-0.257772,1.986446,0.142100,0.013723,0.264589,-0.059164,-0.397540,-0.150179,0.585099,0.093705,-0.441546,-40.250813,5.948898,21.962461,0.422452,2.150680,0.054794,0.000000,0.000000,0.000000,0.000000,0.000000,0.000000
12410568.000000,-0.345036,0.572314,0.442769,-1.472773,-0.257922,1.987050,0.142190,0.008148,0.263834,-0.058944,-0.393947,-0.148343,0.582943,0.094408,-0.366168,-40.199238,5.873520,21.910887,0.434354,2.079269,0.041976,0.000000,0.000000,0.000000,0.000000,0.000000,0.000000
12410569.000000,-0.345020,0.572574,0.442714,-1.473145,-0.258073,1.987640,0.142278,0.010220,0.263860,-0.058266,-0.391308,-0.144438,0.587231,0.088743,-0.413775,-40.076252,5.798141,21.688719,0.422452,2.092086,0.061202,0.000000,0.000000,0.000000,0.000000,0.000000,0.000000
12410570.000000,-0.345008,0.572827,0.442661,-1.473521,-0.258215,1.988238,0.142372,0.010674,0.262596,-0.059385,-0.387697,-0.143314,0.587747,0.094690,-0.413775,-39.858051,5.679123,21.514158,0.410551,2.144271,0.028243,0.000000,0.000000,0.000000,0.000000,0.000000,0.000000
12410571.000000,-0.344992,0.573089,0.442603,-1.473895,-0.258358,1.988830,0.142460,0.012202,0.257809,-0.060683,-0.381955,-0.140716,0.591300,0.098327,-0.465350,-39.735065,5.679123,21.343565,0.381254,2.163497,0.054794,0.000000,0.000000,0.000000,0.000000,0.000000,0.000000
12410572.000000,-0.344984,0.573345,0.442550,-1.474255,-0.258493,1.989435,0.142552,0.007215,0.254163,-0.061547,-0.376363,-0.142646,0.591512,0.098059,-0.389971,-39.564472,5.579941,21.097593,0.320829,2.125045,0.048385,0.000000,0.000000,0.000000,0.000000,0.000000,0.000000
12410573.000000,-0.344975,0.573604,0.442497,-1.474624,-0.258631,1.990039,0.142644,0.007380,0.254318,-0.060549,-0.373846,-0.135604,0.594510,0.093791,-0.342364,-39.417683,5.504562,20.970640,0.267728,2.144271,0.009017,0.000000,0.000000,0.000000,0.000000,0.000000,0.000000
12410574.000000,-0.344960,0.573870,0.442439,-1.474982,-0.258778,1.990650,0.142728,0.012414,0.252243,-0.061098,-0.367081,-0.140886,0.599071,0.091981,-0.366168,-39.366108,5.504562,20.724669,0.273221,2.079269,0.061202,0.000000,0.000000,0.000000,0.000000,0.000000,0.000000
12410575.000000,-0.344949,0.574136,0.442376,-1.475336,-0.258925,1.991267,0.142823,0.011247,0.253484,-0.062827,-0.360004,-0.142179,0.600461,0.088862,-0.314593,-39.393879,5.579941,20.526304,0.297025,2.027084,0.021835,0.000000,0.000000,0.000000,0.000000,0.000000,0.000000
12410576.000000,-0.344942,0.574394,0.442316,-1.475697,-0.259068,1.991872,0.142906,0.009310,0.253826,-0.059727,-0.359432,-0.141929,0.598916,0.088327,-0.215411,-39.294697,5.579941,20.403318,0.315336,2.007858,0.067611,0.000000,0.000000,0.000000,0.000000,0.000000,0.000000
12410577.000000,-0.344938,0.574653,0.442253,-1.476040,-0.259211,1.992490,0.142995,0.008015,0.250539,-0.061257,-0.351708,-0.141578,0.610794,0.089444,-0.116229,-39.171711,5.627548,20.232725,0.344633,1.968490,0.074935,0.000000,0.000000,0.000000,0.000000,0.000000,0.000000
12410578.000000,-0.344933,0.574909,0.442188,-1.476385,-0.259352,1.993110,0.143088,0.007834,0.253383,-0.062832,-0.347378,-0.136906,0.615307,0.091491,-0.044818,-39.124104,5.679123,20.034361,0.356534,1.903487,0.054794,0.000000,0.000000,0.000000,0.000000,0.000000,0.000000
12410579.000000,-0.344924,0.575173,0.442121,-1.476726,-0.259490,1.993718,0.143186,0.005615,0.255180,-0.061104,-0.344615,-0.136018,0.618274,0.092445,-0.017047,-39.072529,5.750534,19.935179,0.344633,1.871444,0.048385,0.000000,0.000000,0.000000,0.000000,0.000000,0.000000
12410580.000000,-0.344918,0.575438,0.442058,-1.477067,-0.259623,1.994323,0.143279,0.008568,0.255968,-0.061949,-0.342740,-0.135677,0.607367,0.092193,0.078168,-39.001118,5.774338,19.859800,0.297025,1.916305,0.048385,0.000000,0.000000,0.000000,0.000000,0.000000,0.000000
12410581.000000,-0.344912,0.575700,0.441993,-1.477391,-0.259762,1.994933,0.143374,0.008232,0.262719,-0.060004,-0.335985,-0.135424,0.611846,0.092476,0.153547,-39.048725,5.825912,19.590025,0.267728,1.909896,0.054794,0.000000,0.000000,0.000000,0.000000,0.000000,0.000000
12410582.000000,-0.344909,0.575964,0.441925,-1.477718,-0.259904,1.995537,0.143469,0.006201,0.264170,-0.061715,-0.333435,-0.138800,0.610339,0.089101,0.304304,-38.977314,5.897324,19.514647,0.225614,1.897079,0.028243,0.000000,0.000000,0.000000,0.000000,0.000000,0.000000
12410583.000000,-0.344905,0.576226,0.441854,-1.478046,-0.260053,1.996147,0.143559,0.003548,0.265183,-0.065092,-0.328259,-0.145264,0.610181,0.087708,0.375715,-38.878132,5.948898,19.340086,0.237516,1.838485,0.067611,0.000000,0.000000,0.000000,0.000000,0.000000,0.000000
12410584.000000,-0.344902,0.576485,0.441780,-1.478371,-0.260200,1.996741,0.143656,0.003941,0.263234,-0.069396,-0.325886,-0.142765,0.603925,0.091243,0.474897,-38.806721,6.044113,19.193296,0.225614,1.844894,0.028243,0.000000,0.000000,0.000000,0.000000,0.000000,0.000000
12410585.000000,-0.344904,0.576743,0.441707,-1.478685,-0.260357,1.997339,0.143752,0.003075,0.258617,-0.071915,-0.324114,-0.149141,0.602942,0.092403,0.625654,-38.584553,6.119492,19.070311,0.297025,1.865035,0.015426,0.000000,0.000000,0.000000,0.000000,0.000000,0.000000
12410586.000000,-0.344904,0.577004,0.441629,-1.478998,-0.260505,1.997953,0.143837,0.002642,0.259267,-0.074707,-0.320992,-0.147996,0.604637,0.090800,0.772443,-38.390156,6.218674,18.895750,0.320829,1.825668,0.081344,0.000000,0.000000,0.000000,0.000000,0.000000,0.000000
12410587.000000,-0.344893,0.577264,0.441549,-1.479306,-0.260654,1.998555,0.143935,0.005740,0.257869,-0.073043,-0.314201,-0.145097,0.602757,0.089126,0.772443,-38.267170,6.313889,18.772764,0.332731,1.747848,0.021835,0.000000,0.000000,0.000000,0.000000,0.000000,0.000000
12410588.000000,-0.344891,0.577523,0.441471,-1.479613,-0.260799,1.999154,0.144026,0.001909,0.265198,-0.076954,-0.309994,-0.143417,0.596152,0.087927,0.895429,-38.144184,6.389267,18.550596,0.308927,1.754256,0.054794,0.000000,0.000000,0.000000,0.000000,0.000000,0.000000
12410589.000000,-0.344885,0.577791,0.441395,-1.479928,-0.260935,1.999740,0.144116,0.003930,0.267297,-0.072839,-0.308051,-0.143831,0.596575,0.088882,0.947004,-38.068806,6.389267,18.499022,0.225614,1.793624,0.074935,0.000000,0.000000,0.000000,0.000000,0.000000,0.000000
12410590.000000,-0.344873,0.578056,0.441315,-1.480218,-0.261083,2.000340,0.144218,0.007066,0.267088,-0.073358,-0.305116,-0.146465,0.602594,0.093199,0.923200,-38.068806,6.413071,18.253050,0.201810,1.812850,0.009017,0.000000,0.000000,0.000000,0.000000,0.000000,0.000000
12410591.000000,-0.344867,0.578324,0.441236,-1.480523,-0.261235,2.000942,0.144312,0.007626,0.270088,-0.074127,-0.306885,-0.145215,0.608603,0.092875,0.970807,-38.068806,6.436874,18.205442,0.195402,1.806442,0.021835,0.000000,0.000000,0.000000,0.000000,0.000000,0.000000
12410592.000000,-0.344861,0.578590,0.441152,-1.480820,-0.261390,2.001540,0.144405,0.007845,0.267992,-0.075962,-0.302598,-0.148193,0.607352,0.092214,1.022382,-37.949787,6.536057,18.177671,0.207303,1.812850,0.041976,0.000000,0.000000,0.000000,0.000000,0.000000,0.000000
12410593.000000,-0.344857,0.578848,0.441070,-1.481124,-0.261539,2.002145,0.144498,0.007611,0.266725,-0.077272,-0.306481,-0.148392,0.606714,0.091829,1.093793,-37.898212,6.611435,18.177671,0.255826,1.767074,0.067611,0.000000,0.000000,0.000000,0.000000,0.000000,0.000000
12410594.000000,-0.344849,0.579113,0.440986,-1.481428,-0.261690,2.002754,0.144598,0.006035,0.268189,-0.081263,-0.302365,-0.152226,0.615197,0.093768,1.093793,-37.850605,6.682846,18.177671,0.291532,1.793624,0.034652,0.000000,0.000000,0.000000,0.000000,0.000000,0.000000
12410595.000000,-0.344839,0.579379,0.440910,-1.481723,-0.261841,2.003358,0.144691,0.008418,0.264784,-0.080205,-0.299528,-0.153839,0.610501,0.092978,1.069990,-37.751423,6.611435,18.177671,0.320829,1.727706,0.054794,0.000000,0.000000,0.000000,0.000000,0.000000,0.000000
12410596.000000,-0.344824,0.579641,0.440824,-1.482019,-0.261985,2.003969,0.144784,0.011294,0.268318,-0.083203,-0.294712,-0.150203,0.609273,0.093406,0.994611,-37.727619,6.659042,18.106260,0.308927,1.708480,0.054794,0.000000,0.000000,0.000000,0.000000,0.000000,0.000000
12410597.000000,-0.344807,0.579918,0.440748,-1.482310,-0.262128,2.004563,0.144887,0.010060,0.268773,-0.082324,-0.291471,-0.149784,0.603661,0.095201,0.923200,-37.775227,6.583664,18.007078,0.267728,1.695663,0.015426,0.000000,0.000000,0.000000,0.000000,0.000000,0.000000
12410598.000000,-0.344790,0.580194,0.440665,-1.482595,-0.262262,2.005169,0.144977,0.009115,0.270236,-0.082186,-0.290940,-0.148414,0.602158,0.093571,0.847822,-37.751423,6.559860,17.856321,0.171598,1.721298,0.067611,0.000000,0.000000,0.000000,0.000000,0.000000,0.000000
12410599.000000,-0.344774,0.580476,0.440591,-1.482886,-0.262416,2.005773,0.145078,0.008324,0.273066,-0.081364,-0.289895,-0.152246,0.601966,0.096319,0.772443,-37.922016,6.460678,17.685728,0.171598,1.741439,0.001693,0.000000,0.000000,0.000000,0.000000,0.000000,0.000000
12410600.000000,-0.344757,0.580757,0.440510,-1.483175,-0.262570,2.006374,0.145167,0.011344,0.275110,-0.079032,-0.290383,-0.153311,0.604573,0.098248,0.673261,-37.997395,6.436874,17.534971,0.178007,1.689254,0.054794,0.000000,0.000000,0.000000,0.000000,0.000000,0.000000
12410601.000000,-0.344738,0.581034,0.440429,-1.483464,-0.262722,2.006972,0.145254,0.013406,0.277773,-0.081526,-0.287915,-0.151306,0.604339,0.095788,0.574079,-37.973591,6.436874,17.411985,0.195402,1.662704,0.100570,0.000000,0.000000,0.000000,0.000000,0.000000,0.000000
12410602.000000,-0.344724,0.581303,0.440351,-1.483759,-0.262879,2.007575,0.145357,0.013809,0.275294,-0.079365,-0.290778,-0.155092,0.606164,0.098547,0.526471,-37.874409,6.413071,17.340574,0.261320,1.611434,0.021835,0.000000,0.000000,0.000000,0.000000,0.000000,0.000000
12410603.000000,-0.344709,0.581591,0.440274,-1.484046,-0.263030,2.008177,0.145444,0.014295,0.277056,-0.079411,-0.288787,-0.156147,0.601472,0.094610,0.474897,-37.922016,6.365463,17.241392,0.279630,1.584884,0.074935,0.000000,0.000000,0.000000,0.000000,0.000000,0.000000
12410604.000000,-0.344688,0.581869,0.440196,-1.484341,-0.263176,2.008787,0.145544,0.016219,0.276060,-0.078084,-0.289949,-0.152609,0.603096,0.095326,0.351911,-37.874409,6.341660,17.166014,0.285123,1.572067,0.054794,0.000000,0.000000,0.000000,0.000000,0.000000,0.000000
12410605.000000,-0.344670,0.582150,0.440125,-1.484628,-0.263322,2.009377,0.145643,0.016588,0.276748,-0.074092,-0.288121,-0.152561,0.592659,0.096405,0.276533,-37.922016,6.218674,17.066832,0.273221,1.597701,0.028243,0.000000,0.000000,0.000000,0.000000,0.000000,0.000000
12410606.000000,-0.344648,0.582433,0.440050,-1.484922,-0.263458,2.009983,0.145741,0.017470,0.286434,-0.075068,-0.289135,-0.152168,0.588150,0.100647,0.177350,-37.997395,6.143295,17.066832,0.195402,1.630660,0.009017,0.000000,0.000000,0.000000,0.000000,0.000000,0.000000
12410607.000000,-0.344626,0.582720,0.439981,-1.485216,-0.263606,2.010579,0.145834,0.018633,0.285517,-0.076169,-0.291708,-0.151393,0.587486,0.097723,0.054365,-38.068806,6.044113,17.019224,0.135892,1.630660,0.041976,0.000000,0.000000,0.000000,0.000000,0.000000,0.000000
12410608.000000,-0.344605,0.583008,0.439910,-1.485504,-0.263757,2.011186,0.145930,0.020702,0.285765,-0.074302,-0.287226,-0.152435,0.591246,0.096309,0.006757,-38.191792,5.972702,16.967649,0.117582,1.643478,0.034652,0.000000,0.000000,0.000000,0.000000,0.000000,0.000000
12410609.000000,-0.344581,0.583296,0.439834,-1.485790,-0.263905,2.011786,0.146024,0.023074,0.285089,-0.075575,-0.285257,-0.145626,0.589279,0.096121,-0.068621,-38.267170,5.996506,16.868467,0.129484,1.656295,0.028243,0.000000,0.000000,0.000000,0.000000,0.000000,0.000000
12410610.000000,-0.344562,0.583590,0.439763,-1.486087,-0.264056,2.012389,0.146116,0.019957,0.286141,-0.073345,-0.293214,-0.149022,0.594294,0.093560,-0.068621,-38.338581,5.921127,16.943846,0.154203,1.630660,0.081344,0.000000,0.000000,0.000000,0.000000,0.000000,0.000000
12410611.000000,-0.344549,0.583878,0.439689,-1.486377,-0.264205,2.012986,0.146217,0.016622,0.285837,-0.076221,-0.290930,-0.154503,0.587424,0.095369,-0.017047,-38.437763,5.921127,16.868467,0.213712,1.597701,0.041976,0.000000,0.000000,0.000000,0.000000,0.000000,0.000000
12410612.000000,-0.344527,0.584170,0.439619,-1.486673,-0.264349,2.013594,0.146305,0.019843,0.288276,-0.075685,-0.291686,-0.155921,0.601275,0.093392,-0.068621,-38.536945,5.897324,16.920042,0.225614,1.500655,0.087753,0.000000,0.000000,0.000000,0.000000,0.000000,0.000000
12410613.000000,-0.344508,0.584470,0.439548,-1.486962,-0.264499,2.014180,0.146398,0.020896,0.287046,-0.071628,-0.290649,-0.161314,0.593469,0.092985,-0.068621,-38.659931,5.873520,16.892271,0.249418,1.467696,0.100570,0.000000,0.000000,0.000000,0.000000,0.000000,0.000000
12410616.000000,-0.344448,0.585358,0.439343,-1.487860,-0.264936,2.015938,0.146685,0.017584,0.288715,-0.073343,-0.293217,-0.154436,0.583311,0.095862,-0.068621,-38.659931,5.702927,16.943846,0.154203,1.643478,0.028243,0.000000,0.000000,0.000000,0.000000,0.000000,0.000000
12410617.000000,-0.344432,0.585641,0.439270,-1.488159,-0.265086,2.016527,0.146781,0.015604,0.288541,-0.071623,-0.293123,-0.145550,0.578644,0.095656,-0.044818,-38.513142,5.726730,16.991453,0.129484,1.662704,0.021835,0.000000,0.000000,0.000000,0.000000,0.000000,0.000000
12410618.000000,-0.344415,0.585940,0.439197,-1.488460,-0.265240,2.017112,0.146871,0.016756,0.286865,-0.072123,-0.296550,-0.148076,0.586053,0.088701,0.006757,-38.461567,5.726730,17.043028,0.129484,1.656295,0.067611,0.000000,0.000000,0.000000,0.000000,0.000000,0.000000
12410619.000000,-0.344404,0.586231,0.439131,-1.488764,-0.265391,2.017705,0.146970,0.015972,0.287220,-0.068821,-0.296296,-0.148385,0.585734,0.091267,0.129743,-38.437763,5.679123,17.114439,0.171598,1.630660,0.041976,0.000000,0.000000,0.000000,0.000000,0.000000,0.000000
12410620.000000,-0.344388,0.586525,0.439055,-1.489071,-0.265545,2.018284,0.147062,0.017500,0.288607,-0.071031,-0.299726,-0.151382,0.585867,0.087035,0.177350,-38.390156,5.702927,17.213621,0.195402,1.617843,0.048385,0.000000,0.000000,0.000000,0.000000,0.000000,0.000000
12410621.000000,-0.344371,0.586825,0.438978,-1.489375,-0.265699,2.018865,0.147153,0.018964,0.288483,-0.072385,-0.300878,-0.153119,0.579320,0.089076,0.205121,-38.362385,5.750534,17.241392,0.207303,1.662704,0.054794,0.000000,0.000000,0.000000,0.000000,0.000000,0.000000
12410622.000000,-0.344359,0.587120,0.438905,-1.489681,-0.265848,2.019455,0.147242,0.018153,0.291867,-0.073643,-0.297962,-0.149957,0.587869,0.094356,0.304304,-38.485371,5.774338,17.289000,0.195402,1.617843,0.074935,0.000000,0.000000,0.000000,0.000000,0.000000,0.000000
12410623.000000,-0.344343,0.587416,0.438823,-1.489984,-0.266000,2.020033,0.147337,0.016544,0.292445,-0.076270,-0.300358,-0.150043,0.583606,0.095759,0.328107,-38.560749,5.873520,17.364378,0.166105,1.591293,0.034652,0.000000,0.000000,0.000000,0.000000,0.000000,0.000000
12410624.000000,-0.344335,0.587710,0.438748,-1.490292,-0.266156,2.020610,0.147423,0.012406,0.295685,-0.076913,-0.302898,-0.152874,0.582298,0.092860,0.474897,-38.536945,5.921127,17.463560,0.154203,1.605026,0.087753,0.000000,0.000000,0.000000,0.000000,0.000000,0.000000
12410625.000000,-0.344323,0.587999,0.438675,-1.490600,-0.266322,2.021178,0.147520,0.014298,0.297609,-0.076213,-0.301753,-0.159833,0.575597,0.089612,0.550275,-38.560749,5.921127,17.562742,0.171598,1.676437,0.061202,0.000000,0.000000,0.000000,0.000000,0.000000,0.000000
12410626.000000,-0.344311,0.588293,0.438596,-1.490912,-0.266483,2.021751,0.147614,0.013722,0.293271,-0.077671,-0.303574,-0.159107,0.576206,0.091370,0.574079,-38.485371,5.996506,17.661924,0.178007,1.735030,0.041976,0.000000,0.000000,0.000000,0.000000,0.000000,0.000000
12410627.000000,-0.344300,0.588581,0.438518,-1.491230,-0.266642,2.022338,0.147701,0.014366,0.287496,-0.077944,-0.306075,-0.161252,0.578474,0.086893,0.673261,-38.413960,6.044113,17.832518,0.207303,1.747848,0.081344,0.000000,0.000000,0.000000,0.000000,0.000000,0.000000
12410628.000000,-0.344291,0.588868,0.438434,-1.491540,-0.266804,2.022915,0.147801,0.011920,0.284758,-0.078616,-0.312768,-0.160224,0.581634,0.090800,0.772443,-38.314777,6.119492,18.007078,0.219205,1.714889,0.028243,0.000000,0.000000,0.000000,0.000000,0.000000,0.000000
12410629.000000,-0.344279,0.589159,0.438351,-1.491856,-0.266961,2.023498,0.147895,0.011964,0.287012,-0.078612,-0.312635,-0.159877,0.576375,0.091323,0.796247,-38.215595,6.167099,18.153868,0.201810,1.727706,0.041976,0.000000,0.000000,0.000000,0.000000,0.000000,0.000000
12410630.000000,-0.344265,0.589452,0.438266,-1.492174,-0.267122,2.024067,0.147987,0.011836,0.287773,-0.079296,-0.312339,-0.156336,0.573666,0.090805,0.824018,-38.215595,6.242477,18.304625,0.225614,1.754256,0.074935,0.000000,0.000000,0.000000,0.000000,0.000000,0.000000
12410631.000000,-0.344260,0.589752,0.438181,-1.492486,-0.267288,2.024650,0.148087,0.009446,0.291751,-0.082287,-0.312652,-0.159978,0.569938,0.092705,0.947004,-38.243366,6.290085,18.451414,0.207303,1.819259,0.041976,0.000000,0.000000,0.000000,0.000000,0.000000,0.000000
12410632.000000,-0.344247,0.590045,0.438091,-1.492805,-0.267455,2.025230,0.148179,0.010109,0.291650,-0.085771,-0.311143,-0.161620,0.567799,0.091844,0.970807,-38.144184,6.389267,18.550596,0.231107,1.844894,0.074935,0.000000,0.000000,0.000000,0.000000,0.000000,0.000000
12410633.000000,-0.344235,0.590348,0.438003,-1.493124,-0.267626,2.025811,0.148279,0.010477,0.296278,-0.086849,-0.311659,-0.166466,0.573145,0.094234,0.994611,-38.215595,6.436874,18.697386,0.267728,1.825668,0.034652,0.000000,0.000000,0.000000,0.000000,0.000000,0.000000
12410634.000000,-0.344220,0.590653,0.437909,-1.493438,-0.267785,2.026387,0.148374,0.011271,0.298112,-0.089199,-0.314599,-0.164621,0.571499,0.093864,0.994611,-38.267170,6.583664,18.820372,0.279630,1.819259,0.041976,0.000000,0.000000,0.000000,0.000000,0.000000,0.000000
12410635.000000,-0.344208,0.590950,0.437825,-1.493751,-0.267949,2.026972,0.148470,0.013711,0.295321,-0.089055,-0.309355,-0.159706,0.574645,0.093986,1.046186,-38.243366,6.611435,18.919554,0.303434,1.825668,0.041976,0.000000,0.000000,0.000000,0.000000,0.000000,0.000000
12410636.000000,-0.344197,0.591251,0.437737,-1.494058,-0.268114,2.027542,0.148564,0.012520,0.297429,-0.086365,-0.309196,-0.159203,0.572293,0.091891,1.093793,-38.290974,6.659042,19.018736,0.327238,1.844894,0.094161,0.000000,0.000000,0.000000,0.000000,0.000000,0.000000
12410637.000000,-0.344175,0.591551,0.437648,-1.494375,-0.268267,2.028116,0.148664,0.014982,0.301681,-0.087543,-0.311170,-0.152651,0.574374,0.097951,0.994611,-38.290974,6.706650,19.070311,0.267728,1.844894,0.061202,0.000000,0.000000,0.000000,0.000000,0.000000,0.000000
12410638.000000,-0.344161,0.591848,0.437560,-1.494685,-0.268425,2.028682,0.148763,0.013667,0.296493,-0.087195,-0.312067,-0.158525,0.570584,0.097784,1.022382,-38.243366,6.706650,19.094114,0.261320,1.897079,0.041976,0.000000,0.000000,0.000000,0.000000,0.000000,0.000000
12410639.000000,-0.344147,0.592150,0.437471,-1.494990,-0.268587,2.029253,0.148858,0.012874,0.295427,-0.086685,-0.313703,-0.162232,0.572635,0.097208,1.046186,-38.267170,6.706650,19.141722,0.237516,1.955673,0.048385,0.000000,0.000000,0.000000,0.000000,0.000000,0.000000
12410640.000000,-0.344127,0.592445,0.437384,-1.495306,-0.268745,2.029831,0.148957,0.016283,0.294185,-0.087595,-0.311181,-0.156605,0.575115,0.102423,1.022382,-38.191792,6.734421,19.217100,0.213712,1.988631,0.015426,0.000000,0.000000,0.000000,0.000000,0.000000,0.000000
12410641.000000,-0.344109,0.592738,0.437299,-1.495616,-0.268910,2.030407,0.149050,0.015991,0.290737,-0.085688,-0.312777,-0.158519,0.579016,0.099532,0.994611,-38.120380,6.659042,19.268675,0.267728,1.949264,0.041976,0.000000,0.000000,0.000000,0.000000,0.000000,0.000000
12410642.000000,-0.344085,0.593027,0.437204,-1.495935,-0.269069,2.030992,0.149153,0.019856,0.291061,-0.088085,-0.317363,-0.155737,0.575767,0.098201,0.923200,-37.997395,6.734421,19.316282,0.303434,1.909896,0.041976,0.000000,0.000000,0.000000,0.000000,0.000000,0.000000
12410643.000000,-0.344068,0.593326,0.437111,-1.496258,-0.269230,2.031560,0.149248,0.017879,0.291584,-0.089011,-0.318189,-0.157488,0.578542,0.096512,0.923200,-37.874409,6.782028,19.391661,0.332731,1.903487,0.061202,0.000000,0.000000,0.000000,0.000000,0.000000,0.000000
12410644.000000,-0.344052,0.593627,0.437027,-1.496571,-0.269391,2.032140,0.149350,0.015824,0.296996,-0.084365,-0.315743,-0.163223,0.575933,0.096445,0.947004,-37.850605,6.734421,19.463072,0.369352,1.890670,0.048385,0.000000,0.000000,0.000000,0.000000,0.000000,0.000000
12410645.000000,-0.344026,0.593930,0.436939,-1.496882,-0.269542,2.032709,0.149453,0.020428,0.297489,-0.085780,-0.312009,-0.156502,0.572856,0.097127,0.847822,-37.802998,6.758224,19.363890,0.332731,1.897079,0.021835,0.000000,0.000000,0.000000,0.000000,0.000000,0.000000
12410646.000000,-0.344003,0.594236,0.436856,-1.497195,-0.269696,2.033271,0.149548,0.022479,0.297970,-0.084908,-0.318858,-0.160157,0.569011,0.094658,0.796247,-37.802998,6.706650,19.363890,0.303434,1.949264,0.067611,0.000000,0.000000,0.000000,0.000000,0.000000,0.000000
12410647.000000,-0.343982,0.594536,0.436775,-1.497500,-0.269858,2.033835,0.149650,0.020314,0.299510,-0.084039,-0.313754,-0.159859,0.557217,0.095867,0.772443,-37.680012,6.635239,19.193296,0.279630,1.968490,0.034652,0.000000,0.000000,0.000000,0.000000,0.000000,0.000000
12410648.000000,-0.343954,0.594846,0.436690,-1.497810,-0.270017,2.034408,0.149746,0.020498,0.303333,-0.084101,-0.308126,-0.158265,0.555615,0.095483,0.673261,-37.680012,6.583664,19.094114,0.213712,1.962081,0.034652,0.000000,0.000000,0.000000,0.000000,0.000000,0.000000
12410649.000000,-0.343932,0.595146,0.436615,-1.498110,-0.270181,2.034976,0.149840,0.021298,0.297713,-0.081882,-0.302706,-0.158884,0.560689,0.093226,0.673261,-37.604633,6.436874,19.042540,0.243009,1.903487,0.081344,0.000000,0.000000,0.000000,0.000000,0.000000,0.000000
12410650.000000,-0.343908,0.595448,0.436530,-1.498416,-0.270342,2.035554,0.149941,0.022513,0.299283,-0.084448,-0.305197,-0.156547,0.568425,0.094848,0.649457,-37.628437,6.460678,19.018736,0.285123,1.838485,0.048385,0.000000,0.000000,0.000000,0.000000,0.000000,0.000000
12410651.000000,-0.343886,0.595752,0.436443,-1.498718,-0.270502,2.036112,0.150036,0.023556,0.295267,-0.086064,-0.303787,-0.157364,0.567181,0.099356,0.625654,-37.557026,6.488449,18.971128,0.308927,1.858627,0.061202,0.000000,0.000000,0.000000,0.000000,0.000000,0.000000
12410652.000000,-0.343862,0.596056,0.436366,-1.499016,-0.270663,2.036688,0.150135,0.023798,0.297113,-0.084443,-0.303481,-0.159301,0.571798,0.099377,0.625654,-37.580830,6.389267,18.971128,0.362943,1.838485,0.028243,0.000000,0.000000,0.000000,0.000000,0.000000,0.000000
12410653.000000,-0.343833,0.596360,0.436279,-1.499320,-0.270813,2.037264,0.150224,0.026313,0.304898,-0.083022,-0.302100,-0.157712,0.574728,0.096990,0.526471,-37.580830,6.413071,18.947325,0.303434,1.858627,0.067611,0.000000,0.000000,0.000000,0.000000,0.000000,0.000000
12410654.000000,-0.343810,0.596662,0.436211,-1.499612,-0.270971,2.037832,0.150324,0.022552,0.298854,-0.076681,-0.297932,-0.156370,0.578007,0.097000,0.526471,-37.533222,6.218674,18.895750,0.279630,1.844894,0.041976,0.000000,0.000000,0.000000,0.000000,0.000000,0.000000
12410655.000000,-0.343782,0.596962,0.436135,-1.499906,-0.271128,2.038408,0.150423,0.024224,0.299791,-0.075074,-0.298056,-0.152048,0.573963,0.095889,0.474897,-37.533222,6.143295,18.848143,0.255826,1.838485,0.054794,0.000000,0.000000,0.000000,0.000000,0.000000,0.000000
12410656.000000,-0.343752,0.597269,0.436056,-1.500207,-0.271286,2.038966,0.150525,0.025941,0.302170,-0.074400,-0.299611,-0.152400,0.570620,0.095978,0.403486,-37.509418,6.095688,18.848143,0.219205,1.877853,0.041976,0.000000,0.000000,0.000000,0.000000,0.000000,0.000000
12410657.000000,-0.343723,0.597578,0.435981,-1.500501,-0.271444,2.039536,0.150626,0.026573,0.300359,-0.075980,-0.297346,-0.154347,0.567013,0.096135,0.351911,-37.557026,6.020309,18.848143,0.237516,1.949264,0.034652,0.000000,0.000000,0.000000,0.000000,0.000000,0.000000
12410658.000000,-0.343694,0.597879,0.435904,-1.500796,-0.271596,2.040113,0.150717,0.029729,0.298730,-0.075108,-0.296412,-0.157030,0.571678,0.093663,0.304304,-37.509418,5.972702,18.772764,0.249418,1.942855,0.087753,0.000000,0.000000,0.000000,0.000000,0.000000,0.000000
12410659.000000,-0.343664,0.598197,0.435825,-1.501087,-0.271752,2.040693,0.150821,0.032053,0.303298,-0.076042,-0.298118,-0.156798,0.573139,0.096303,0.276533,-37.557026,5.996506,18.721189,0.249418,1.865035,0.021835,0.000000,0.000000,0.000000,0.000000,0.000000,0.000000
12410660.000000,-0.343640,0.598503,0.435747,-1.501381,-0.271910,2.041276,0.150912,0.029416,0.306883,-0.075586,-0.296542,-0.154534,0.572996,0.094120,0.304304,-37.580830,5.972702,18.721189,0.279630,1.793624,0.067611,0.000000,0.000000,0.000000,0.000000,0.000000,0.000000
12410661.000000,-0.343607,0.598813,0.435676,-1.501670,-0.272065,2.041846,0.151009,0.032936,0.307806,-0.075926,-0.293436,-0.151225,0.581308,0.093518,0.228925,-37.533222,5.849716,18.649778,0.267728,1.806442,0.087753,0.000000,0.000000,0.000000,0.000000,0.000000,0.000000
12410662.000000,-0.343576,0.599131,0.435596,-1.501945,-0.272228,2.042420,0.151115,0.031272,0.307337,-0.075622,-0.289161,-0.156759,0.576871,0.095602,0.205121,-37.580830,5.825912,18.499022,0.255826,1.832076,0.034652,0.000000,0.000000,0.000000,0.000000,0.000000,0.000000
12410663.000000,-0.343550,0.599446,0.435523,-1.502223,-0.272396,2.043005,0.151204,0.029545,0.310936,-0.074107,-0.283535,-0.158822,0.578178,0.094668,0.205121,-37.656208,5.750534,18.399839,0.267728,1.838485,0.081344,0.000000,0.000000,0.000000,0.000000,0.000000,0.000000
12410664.000000,-0.343520,0.599770,0.435445,-1.502501,-0.272557,2.043582,0.151306,0.028836,0.315110,-0.074523,-0.287929,-0.156202,0.576559,0.095832,0.177350,-37.703815,5.750534,18.304625,0.213712,1.800033,0.048385,0.000000,0.000000,0.000000,0.000000,0.000000,0.000000
12410665.000000,-0.343482,0.600087,0.435372,-1.502781,-0.272721,2.044172,0.151406,0.033197,0.316088,-0.074451,-0.285718,-0.152555,0.576151,0.101778,0.078168,-37.751423,5.726730,18.304625,0.207303,1.741439,0.021835,0.000000,0.000000,0.000000,0.000000,0.000000,0.000000
12410666.000000,-0.343453,0.600407,0.435293,-1.503057,-0.272889,2.044761,0.151500,0.034068,0.318379,-0.075504,-0.280628,-0.157005,0.575833,0.099086,0.078168,-37.874409,5.750534,18.304625,0.249418,1.670028,0.041976,0.000000,0.000000,0.000000,0.000000,0.000000,0.000000
12410667.000000,-0.343419,0.600725,0.435210,-1.503322,-0.273053,2.045335,0.151594,0.032709,0.316998,-0.080488,-0.277040,-0.161426,0.577381,0.097012,0.030561,-37.898212,5.825912,18.177671,0.255826,1.676437,0.061202,0.000000,0.000000,0.000000,0.000000,0.000000,0.000000
12410668.000000,-0.343389,0.601042,0.435138,-1.503594,-0.273218,2.045907,0.151695,0.030616,0.317596,-0.077425,-0.273786,-0.162587,0.570345,0.101772,0.030561,-37.973591,5.750534,18.177671,0.273221,1.760665,0.041976,0.000000,0.000000,0.000000,0.000000,0.000000,0.000000
12410669.000000,-0.343359,0.601366,0.435056,-1.503862,-0.273387,2.046474,0.151796,0.031535,0.320346,-0.077838,-0.273855,-0.166067,0.577763,0.105166,0.054365,-37.997395,5.798141,18.130064,0.273221,1.793624,0.034652,0.000000,0.000000,0.000000,0.000000,0.000000,0.000000
12410670.000000,-0.343330,0.601686,0.434979,-1.504129,-0.273552,2.047052,0.151890,0.029870,0.315242,-0.077257,-0.272787,-0.167665,0.574640,0.105085,0.054365,-37.997395,5.798141,18.030882,0.243009,1.806442,0.087753,0.000000,0.000000,0.000000,0.000000,0.000000,0.000000
12410671.000000,-0.343299,0.602000,0.434903,-1.504396,-0.273727,2.047637,0.151994,0.031810,0.317563,-0.075733,-0.270040,-0.161632,0.579247,0.104735,0.054365,-37.973591,5.750534,18.007078,0.249418,1.767074,0.028243,0.000000,0.000000,0.000000,0.000000,0.000000,0.000000
12410672.000000,-0.343271,0.602323,0.434816,-1.504654,-0.273889,2.048217,0.152091,0.031988,0.318836,-0.080675,-0.265376,-0.163338,0.577103,0.105660,0.105939,-37.949787,5.825912,17.983274,0.201810,1.735030,0.054794,0.000000,0.000000,0.000000,0.000000,0.000000,0.000000
12410673.000000,-0.343237,0.602638,0.434734,-1.504913,-0.274051,2.048798,0.152188,0.034061,0.324497,-0.077230,-0.265166,-0.158488,0.582067,0.105869,0.078168,-37.922016,5.873520,17.832518,0.207303,1.747848,0.087753,0.000000,0.000000,0.000000,0.000000,0.000000,0.000000
12410674.000000,-0.343207,0.602961,0.434658,-1.505177,-0.274217,2.049373,0.152294,0.034351,0.323260,-0.075417,-0.264484,-0.164049,0.582165,0.109791,0.105939,-37.874409,5.825912,17.784910,0.219205,1.773483,0.034652,0.000000,0.000000,0.000000,0.000000,0.000000,0.000000
12410675.000000,-0.343175,0.603286,0.434574,-1.505427,-0.274381,2.049952,0.152392,0.031917,0.317985,-0.077744,-0.258915,-0.162261,0.577699,0.110020,0.105939,-37.874409,5.921127,17.661924,0.219205,1.806442,0.061202,0.000000,0.000000,0.000000,0.000000,0.000000,0.000000
12410676.000000,-0.343147,0.603607,0.434497,-1.505689,-0.274541,2.050544,0.152496,0.029705,0.319556,-0.076508,-0.259143,-0.162445,0.575383,0.107294,0.129743,-37.874409,5.897324,17.610350,0.219205,1.786300,0.028243,0.000000,0.000000,0.000000,0.000000,0.000000,0.000000
12410677.000000,-0.343117,0.603944,0.434414,-1.505942,-0.274705,2.051123,0.152592,0.031257,0.320626,-0.078587,-0.261996,-0.160271,0.575715,0.103675,0.153547,-37.997395,5.873520,17.586546,0.207303,1.714889,0.041976,0.000000,0.000000,0.000000,0.000000,0.000000,0.000000
12410678.000000,-0.343088,0.604286,0.434324,-1.506190,-0.274873,2.051707,0.152688,0.029802,0.327151,-0.080254,-0.258252,-0.161547,0.572896,0.104794,0.153547,-38.215595,5.972702,17.511168,0.219205,1.682845,0.074935,0.000000,0.000000,0.000000,0.000000,0.000000,0.000000
12410679.000000,-0.343058,0.604623,0.434247,-1.506443,-0.275038,2.052283,0.152787,0.028144,0.330082,-0.080698,-0.256883,-0.161994,0.577593,0.102817,0.177350,-38.362385,5.921127,17.511168,0.219205,1.662704,0.061202,0.000000,0.000000,0.000000,0.000000,0.000000,0.000000
12410680.000000,-0.343023,0.604962,0.434160,-1.506685,-0.275202,2.052852,0.152891,0.031407,0.327702,-0.080069,-0.255275,-0.160550,0.575007,0.101157,0.129743,-38.513142,5.948898,17.487364,0.225614,1.656295,0.041976,0.000000,0.000000,0.000000,0.000000,0.000000,0.000000
12410681.000000,-0.342998,0.605293,0.434077,-1.506929,-0.275366,2.053415,0.152994,0.027515,0.329341,-0.082615,-0.250297,-0.161721,0.561066,0.100012,0.228925,-38.608356,5.972702,17.463560,0.237516,1.708480,0.028243,0.000000,0.000000,0.000000,0.000000,0.000000,0.000000
12410682.000000,-0.342959,0.605625,0.433987,-1.507172,-0.275527,2.053981,0.153091,0.029312,0.327781,-0.084729,-0.258682,-0.164721,0.563233,0.101862,0.129743,-38.584553,6.020309,17.463560,0.219205,1.689254,0.067611,0.000000,0.000000,0.000000,0.000000,0.000000,0.000000
12410683.000000,-0.342935,0.605957,0.433899,-1.507425,-0.275686,2.054546,0.153196,0.029627,0.329798,-0.086576,-0.258989,-0.167628,0.557539,0.101507,0.205121,-38.560749,6.067917,17.534971,0.207303,1.721298,0.028243,0.000000,0.000000,0.000000,0.000000,0.000000,0.000000
12410684.000000,-0.342907,0.606284,0.433812,-1.507669,-0.275847,2.055115,0.153291,0.030664,0.330454,-0.084297,-0.253604,-0.165202,0.558351,0.097926,0.252729,-38.485371,6.095688,17.534971,0.171598,1.754256,0.074935,0.000000,0.000000,0.000000,0.000000,0.000000,0.000000
12410685.000000,-0.342877,0.606618,0.433730,-1.507910,-0.276017,2.055673,0.153393,0.031806,0.329012,-0.081182,-0.251188,-0.161827,0.558853,0.097207,0.276533,-38.485371,6.067917,17.586546,0.141385,1.793624,0.067611,0.000000,0.000000,0.000000,0.000000,0.000000,0.000000
12410686.000000,-0.342843,0.606957,0.433646,-1.508153,-0.276189,2.056237,0.153499,0.030720,0.337505,-0.082924,-0.250426,-0.159275,0.558247,0.098580,0.252729,-38.560749,6.067917,17.562742,0.195402,1.825668,0.015426,0.000000,0.000000,0.000000,0.000000,0.000000,0.000000
12410687.000000,-0.342813,0.607297,0.433557,-1.508402,-0.276352,2.056797,0.153593,0.028848,0.338612,-0.084492,-0.248925,-0.163390,0.565487,0.095216,0.276533,-38.584553,6.095688,17.610350,0.183500,1.819259,0.081344,0.000000,0.000000,0.000000,0.000000,0.000000,0.000000
12410688.000000,-0.342779,0.607638,0.433474,-1.508648,-0.276517,2.057365,0.153699,0.031669,0.338821,-0.086711,-0.247646,-0.161225,0.567737,0.101777,0.252729,-38.608356,6.044113,17.661924,0.166105,1.779891,0.028243,0.000000,0.000000,0.000000,0.000000,0.000000,0.000000
12410689.000000,-0.342747,0.607984,0.433387,-1.508895,-0.276683,2.057934,0.153801,0.033213,0.340692,-0.084005,-0.247207,-0.162462,0.567393,0.104822,0.252729,-38.683735,6.044113,17.634153,0.183500,1.779891,0.021835,0.000000,0.000000,0.000000,0.000000,0.000000,0.000000
12410690.000000,-0.342714,0.608330,0.433294,-1.509140,-0.276846,2.058488,0.153893,0.031746,0.338741,-0.087322,-0.247847,-0.160764,0.559040,0.095623,0.228925,-38.778950,6.143295,17.610350,0.183500,1.747848,0.067611,0.000000,0.000000,0.000000,0.000000,0.000000,0.000000
12410691.000000,-0.342676,0.608676,0.433204,-1.509378,-0.277013,2.059054,0.153995,0.031293,0.349028,-0.091052,-0.242224,-0.166827,0.555788,0.097137,0.177350,-38.901936,6.167099,17.463560,0.189908,1.721298,0.021835,0.000000,0.000000,0.000000,0.000000,0.000000,0.000000
12410692.000000,-0.342645,0.609021,0.433116,-1.509625,-0.277185,2.059606,0.154087,0.028997,0.344110,-0.088995,-0.245020,-0.166339,0.553582,0.094141,0.205121,-38.977314,6.119492,17.463560,0.201810,1.727706,0.081344,0.000000,0.000000,0.000000,0.000000,0.000000,0.000000
12410693.000000,-0.342611,0.609369,0.433030,-1.509863,-0.277358,2.060172,0.154194,0.028606,0.347941,-0.085139,-0.244644,-0.168944,0.552873,0.100765,0.177350,-39.072529,6.095688,17.364378,0.207303,1.714889,0.048385,0.000000,0.000000,0.000000,0.000000,0.000000,0.000000
12410694.000000,-0.342575,0.609708,0.432943,-1.510110,-0.277524,2.060736,0.154293,0.031341,0.344031,-0.085937,-0.242991,-0.162744,0.550518,0.098270,0.153547,-39.024921,6.095688,17.364378,0.213712,1.727706,0.074935,0.000000,0.000000,0.000000,0.000000,0.000000,0.000000
12410695.000000,-0.342541,0.610051,0.432851,-1.510356,-0.277692,2.061301,0.154400,0.029518,0.343491,-0.087413,-0.248155,-0.166151,0.555539,0.103936,0.153547,-39.072529,6.143295,17.411985,0.219205,1.702071,0.021835,0.000000,0.000000,0.000000,0.000000,0.000000,0.000000
12410696.000000,-0.342509,0.610391,0.432765,-1.510609,-0.277856,2.061865,0.154491,0.030929,0.343731,-0.086381,-0.249563,-0.164106,0.556588,0.099234,0.177350,-39.001118,6.095688,17.435789,0.189908,1.702071,0.081344,0.000000,0.000000,0.000000,0.000000,0.000000,0.000000
12410697.000000,-0.342468,0.610726,0.432672,-1.510864,-0.278023,2.062423,0.154593,0.035478,0.339123,-0.087996,-0.248621,-0.163889,0.557589,0.098904,0.054365,-38.977314,6.143295,17.511168,0.183500,1.741439,0.061202,0.000000,0.000000,0.000000,0.000000,0.000000,0.000000
12410698.000000,-0.342434,0.611069,0.432585,-1.511107,-0.278187,2.062995,0.154697,0.034971,0.338106,-0.087353,-0.246338,-0.161527,0.559788,0.098831,0.078168,-38.953510,6.119492,17.511168,0.171598,1.735030,0.028243,0.000000,0.000000,0.000000,0.000000,0.000000,0.000000
12410699.000000,-0.342393,0.611405,0.432499,-1.511356,-0.278353,2.063557,0.154790,0.034077,0.335825,-0.089508,-0.247893,-0.161149,0.565022,0.095216,0.006757,-38.830524,6.067917,17.534971,0.141385,1.747848,0.094161,0.000000,0.000000,0.000000,0.000000,0.000000,0.000000
12410700.000000,-0.342358,0.611745,0.432409,-1.511601,-0.278531,2.064119,0.154899,0.037805,0.335403,-0.088560,-0.244413,-0.172217,0.560799,0.097838,0.006757,-38.778950,6.044113,17.487364,0.195402,1.747848,0.021835,0.000000,0.000000,0.000000,0.000000,0.000000,0.000000
12410701.000000,-0.342316,0.612093,0.432318,-1.511844,-0.278698,2.064680,0.154999,0.039848,0.338357,-0.087998,-0.243024,-0.164144,0.562777,0.096860,-0.092425,-38.707539,6.020309,17.487364,0.207303,1.727706,0.021835,0.000000,0.000000,0.000000,0.000000,0.000000,0.000000
12410702.000000,-0.342281,0.612434,0.432229,-1.512089,-0.278868,2.065247,0.155086,0.039032,0.338548,-0.087130,-0.244818,-0.164054,0.559454,0.093734,-0.092425,-38.731342,5.972702,17.487364,0.207303,1.721298,0.087753,0.000000,0.000000,0.000000,0.000000,0.000000,0.000000
12410703.000000,-0.342245,0.612788,0.432140,-1.512333,-0.279040,2.065798,0.155192,0.037878,0.343321,-0.086939,-0.242300,-0.166715,0.556670,0.096356,-0.068621,-38.806721,5.948898,17.435789,0.207303,1.708480,0.021835,0.000000,0.000000,0.000000,0.000000,0.000000,0.000000
12410704.000000,-0.342206,0.613137,0.432052,-1.512580,-0.279209,2.066360,0.155289,0.038682,0.349069,-0.090515,-0.241506,-0.164860,0.552700,0.093049,-0.116229,-38.925739,5.948898,17.435789,0.178007,1.721298,0.081344,0.000000,0.000000,0.000000,0.000000,0.000000,0.000000
12410705.000000,-0.342170,0.613487,0.431959,-1.512821,-0.279381,2.066914,0.155394,0.038239,0.349651,-0.094462,-0.241807,-0.172857,0.552148,0.099668,-0.116229,-39.048725,6.020309,17.463560,0.171598,1.702071,0.041976,0.000000,0.000000,0.000000,0.000000,0.000000,0.000000
12410706.000000,-0.342136,0.613837,0.431870,-1.513068,-0.279553,2.067478,0.155499,0.033742,0.347793,-0.094844,-0.246007,-0.177636,0.559373,0.103238,-0.068621,-39.100300,5.972702,17.534971,0.135892,1.735030,0.034652,0.000000,0.000000,0.000000,0.000000,0.000000,0.000000
12410707.000000,-0.342104,0.614181,0.431782,-1.513322,-0.279734,2.068043,0.155597,0.033099,0.347267,-0.093169,-0.249443,-0.179736,0.560561,0.104505,-0.017047,-39.171711,5.972702,17.661924,0.147794,1.747848,0.074935,0.000000,0.000000,0.000000,0.000000,0.000000,0.000000
12410708.000000,-0.342068,0.614529,0.431697,-1.513575,-0.279922,2.068597,0.155702,0.033817,0.346978,-0.093860,-0.250381,-0.181003,0.561179,0.102412,0.006757,-39.147907,5.921127,17.832518,0.207303,1.767074,0.061202,0.000000,0.000000,0.000000,0.000000,0.000000,0.000000
12410709.000000,-0.342037,0.614875,0.431604,-1.513829,-0.280102,2.069158,0.155803,0.033124,0.345071,-0.093658,-0.252001,-0.181738,0.559023,0.101346,0.078168,-39.147907,5.972702,17.907896,0.213712,1.838485,0.041976,0.000000,0.000000,0.000000,0.000000,0.000000,0.000000
12410710.000000,-0.342000,0.615215,0.431513,-1.514087,-0.280283,2.069717,0.155907,0.035053,0.344757,-0.089033,-0.253696,-0.178316,0.562043,0.104528,0.054365,-39.100300,5.972702,18.007078,0.249418,1.825668,0.034652,0.000000,0.000000,0.000000,0.000000,0.000000,0.000000
12410711.000000,-0.341961,0.615558,0.431419,-1.514345,-0.280465,2.070288,0.156007,0.036103,0.341950,-0.089400,-0.254023,-0.177502,0.564463,0.104960,0.030561,-39.048725,5.996506,18.205442,0.255826,1.806442,0.074935,0.000000,0.000000,0.000000,0.000000,0.000000,0.000000
12410712.000000,-0.341926,0.615907,0.431329,-1.514597,-0.280638,2.070852,0.156119,0.035441,0.352671,-0.086450,-0.253882,-0.173318,0.561855,0.104377,0.078168,-39.124104,6.020309,18.276854,0.237516,1.773483,0.021835,0.000000,0.000000,0.000000,0.000000,0.000000,0.000000
12410713.000000,-0.341894,0.616263,0.431236,-1.514847,-0.280818,2.071406,0.156221,0.034709,0.349304,-0.087717,-0.258844,-0.173156,0.561825,0.107212,0.129743,-39.124104,6.067917,18.328428,0.213712,1.806442,0.015426,0.000000,0.000000,0.000000,0.000000,0.000000,0.000000
12410714.000000,-0.341860,0.616611,0.431150,-1.515097,-0.280999,2.071957,0.156316,0.034910,0.346120,-0.086522,-0.253980,-0.175941,0.555729,0.101760,0.153547,-39.147907,6.020309,18.352232,0.225614,1.858627,0.074935,0.000000,0.000000,0.000000,0.000000,0.000000,0.000000
12410715.000000,-0.341827,0.616964,0.431055,-1.515343,-0.281180,2.072517,0.156426,0.035250,0.352076,-0.090581,-0.248603,-0.173723,0.553034,0.101892,0.177350,-39.195515,6.044113,18.304625,0.249418,1.884261,0.021835,0.000000,0.000000,0.000000,0.000000,0.000000,0.000000
12410716.000000,-0.341793,0.617318,0.430960,-1.515601,-0.281355,2.073061,0.156528,0.031604,0.349899,-0.093531,-0.251739,-0.174469,0.552634,0.103363,0.228925,-39.270893,6.067917,18.399839,0.255826,1.865035,0.048385,0.000000,0.000000,0.000000,0.000000,0.000000,0.000000
12410717.000000,-0.341760,0.617666,0.430873,-1.515856,-0.281529,2.073620,0.156631,0.031852,0.354236,-0.091523,-0.252501,-0.171066,0.558090,0.100427,0.276533,-39.294697,6.044113,18.475218,0.237516,1.800033,0.067611,0.000000,0.000000,0.000000,0.000000,0.000000,0.000000
12410718.000000,-0.341731,0.618022,0.430777,-1.516102,-0.281700,2.074169,0.156742,0.032294,0.350499,-0.092167,-0.248015,-0.171612,0.552517,0.105671,0.328107,-39.318501,6.119492,18.574400,0.213712,1.760665,0.015426,0.000000,0.000000,0.000000,0.000000,0.000000,0.000000
12410719.000000,-0.341696,0.618381,0.430682,-1.516352,-0.281875,2.074717,0.156843,0.033647,0.353274,-0.094132,-0.245912,-0.178725,0.554046,0.101307,0.328107,-39.417683,6.119492,18.598204,0.231107,1.800033,0.054794,0.000000,0.000000,0.000000,0.000000,0.000000,0.000000
12410720.000000,-0.341661,0.618731,0.430587,-1.516600,-0.282051,2.075265,0.156948,0.034266,0.352592,-0.092541,-0.244636,-0.174959,0.550095,0.101364,0.351911,-39.417683,6.119492,18.649778,0.225614,1.858627,0.009017,0.000000,0.000000,0.000000,0.000000,0.000000,0.000000
12410721.000000,-0.341627,0.619078,0.430491,-1.516850,-0.282232,2.075799,0.157047,0.034640,0.351103,-0.093038,-0.245944,-0.175519,0.547970,0.098111,0.375715,-39.393879,6.190903,18.772764,0.237516,1.909896,0.041976,0.000000,0.000000,0.000000,0.000000,0.000000,0.000000
12410722.000000,-0.341595,0.619421,0.430398,-1.517102,-0.282404,2.076345,0.157150,0.031056,0.352269,-0.091649,-0.248800,-0.167562,0.546133,0.101526,0.427289,-39.294697,6.190903,18.848143,0.243009,1.930038,0.034652,0.000000,0.000000,0.000000,0.000000,0.000000,0.000000
12410723.000000,-0.341563,0.619769,0.430298,-1.517360,-0.282581,2.076885,0.157247,0.028650,0.348376,-0.095368,-0.249142,-0.170878,0.543229,0.103238,0.474897,-39.247089,6.266281,18.994932,0.255826,1.897079,0.067611,0.000000,0.000000,0.000000,0.000000,0.000000,0.000000
12410724.000000,-0.341525,0.620124,0.430201,-1.517604,-0.282754,2.077440,0.157348,0.029692,0.348105,-0.093911,-0.247202,-0.171911,0.544853,0.101066,0.403486,-39.195515,6.290085,19.042540,0.249418,1.884261,0.067611,0.000000,0.000000,0.000000,0.000000,0.000000,0.000000
12410725.000000,-0.341491,0.620469,0.430102,-1.517855,-0.282926,2.077982,0.157453,0.031664,0.343513,-0.093427,-0.247769,-0.165472,0.534828,0.101243,0.403486,-39.072529,6.341660,19.193296,0.267728,1.909896,0.021835,0.000000,0.000000,0.000000,0.000000,0.000000,0.000000
12410726.000000,-0.341457,0.620817,0.430003,-1.518099,-0.283099,2.078513,0.157549,0.032564,0.345879,-0.092911,-0.248132,-0.168442,0.534640,0.102258,0.427289,-38.953510,6.389267,19.193296,0.279630,1.995040,0.067611,0.000000,0.000000,0.000000,0.000000,0.000000,0.000000
12410727.000000,-0.341427,0.621172,0.429905,-1.518342,-0.283269,2.079049,0.157657,0.032157,0.348235,-0.091499,-0.248171,-0.171458,0.528548,0.102997,0.502668,-38.953510,6.389267,19.169493,0.261320,2.098495,0.001693,0.000000,0.000000,0.000000,0.000000,0.000000,0.000000
12410728.000000,-0.341394,0.621527,0.429801,-1.518587,-0.283448,2.079594,0.157752,0.030621,0.349590,-0.095247,-0.246713,-0.168471,0.537372,0.103439,0.502668,-38.977314,6.460678,19.217100,0.231107,2.053634,0.054794,0.000000,0.000000,0.000000,0.000000,0.000000,0.000000
12410729.000000,-0.341353,0.621878,0.429702,-1.518829,-0.283624,2.080150,0.157856,0.031109,0.347815,-0.096984,-0.248268,-0.170391,0.543056,0.100118,0.427289,-38.878132,6.488449,19.240904,0.231107,1.981307,0.081344,0.000000,0.000000,0.000000,0.000000,0.000000,0.000000
12410730.000000,-0.341319,0.622227,0.429606,-1.519071,-0.283792,2.080697,0.157966,0.028703,0.346476,-0.097656,-0.245851,-0.169472,0.545100,0.101228,0.451093,-38.925739,6.488449,19.268675,0.243009,1.949264,0.015426,0.000000,0.000000,0.000000,0.000000,0.000000,0.000000
12410731.000000,-0.341290,0.622591,0.429511,-1.519306,-0.283965,2.081243,0.158065,0.025499,0.353915,-0.096840,-0.246170,-0.172074,0.545611,0.097910,0.550275,-39.048725,6.436874,19.292479,0.261320,1.942855,0.067611,0.000000,0.000000,0.000000,0.000000,0.000000,0.000000
12410732.000000,-0.341252,0.622948,0.429410,-1.519540,-0.284136,2.081791,0.158175,0.029761,0.347267,-0.096381,-0.244457,-0.169288,0.547898,0.098696,0.502668,-39.100300,6.512253,19.292479,0.279630,1.988631,0.021835,0.000000,0.000000,0.000000,0.000000,0.000000,0.000000
12410733.000000,-0.341218,0.623299,0.429310,-1.519777,-0.284308,2.082351,0.158279,0.031202,0.349087,-0.094680,-0.243224,-0.173221,0.547610,0.106422,0.526471,-39.124104,6.536057,19.316282,0.285123,1.995040,0.034652,0.000000,0.000000,0.000000,0.000000,0.000000,0.000000
12410734.000000,-0.341179,0.623653,0.429213,-1.520006,-0.284477,2.082894,0.158383,0.033140,0.347826,-0.092279,-0.239121,-0.171805,0.548030,0.107182,0.502668,-39.072529,6.512253,19.316282,0.231107,1.988631,0.048385,0.000000,0.000000,0.000000,0.000000,0.000000,0.000000
12410735.000000,-0.341142,0.624009,0.429112,-1.520243,-0.284655,2.083454,0.158497,0.034729,0.351421,-0.094845,-0.238005,-0.174409,0.548691,0.105772,0.474897,-39.171711,6.536057,19.415464,0.213712,1.942855,0.001693,0.000000,0.000000,0.000000,0.000000,0.000000,0.000000
12410736.000000,-0.341101,0.624371,0.429011,-1.520476,-0.284842,2.084006,0.158599,0.036467,0.350498,-0.092916,-0.234588,-0.177518,0.549452,0.105080,0.427289,-39.171711,6.536057,19.391661,0.267728,1.916305,0.067611,0.000000,0.000000,0.000000,0.000000,0.000000,0.000000
12410737.000000,-0.341059,0.624727,0.428909,-1.520703,-0.285023,2.084550,0.158710,0.037863,0.350954,-0.097760,-0.229400,-0.177724,0.546380,0.108417,0.375715,-39.171711,6.559860,19.391661,0.285123,1.974899,0.034652,0.000000,0.000000,0.000000,0.000000,0.000000,0.000000
12410738.000000,-0.341023,0.625085,0.428815,-1.520928,-0.285204,2.085102,0.158814,0.033863,0.354528,-0.094180,-0.227477,-0.176291,0.546317,0.109108,0.403486,-39.171711,6.512253,19.363890,0.339139,1.988631,0.048385,0.000000,0.000000,0.000000,0.000000,0.000000,0.000000
12410739.000000,-0.340984,0.625438,0.428715,-1.521151,-0.285378,2.085639,0.158928,0.034414,0.347740,-0.096338,-0.224804,-0.175241,0.551767,0.107021,0.403486,-39.072529,6.536057,19.391661,0.315336,1.981307,0.001693,0.000000,0.000000,0.000000,0.000000,0.000000,0.000000
12410740.000000,-0.340941,0.625800,0.428619,-1.521378,-0.285549,2.086187,0.159030,0.036755,0.361144,-0.094297,-0.224015,-0.171509,0.547695,0.109682,0.328107,-39.147907,6.536057,19.340086,0.291532,2.027084,0.074935,0.000000,0.000000,0.000000,0.000000,0.000000,0.000000
12410741.000000,-0.340902,0.626172,0.428526,-1.521594,-0.285721,2.086728,0.159148,0.036833,0.365000,-0.090803,-0.217986,-0.167098,0.547887,0.112440,0.328107,-39.270893,6.460678,19.193296,0.225614,2.033492,0.028243,0.000000,0.000000,0.000000,0.000000,0.000000,0.000000
12410742.000000,-0.340862,0.626544,0.428431,-1.521808,-0.285901,2.087289,0.159260,0.040505,0.368824,-0.089747,-0.214551,-0.173106,0.549200,0.112413,0.304304,-39.465290,6.436874,19.070311,0.189908,2.007858,0.028243,0.000000,0.000000,0.000000,0.000000,0.000000,0.000000
12410743.000000,-0.340822,0.626911,0.428334,-1.522030,-0.286075,2.087845,0.159368,0.042887,0.366645,-0.092029,-0.216489,-0.170246,0.545694,0.112910,0.276533,-39.564472,6.413071,19.018736,0.166105,1.962081,0.021835,0.000000,0.000000,0.000000,0.000000,0.000000,0.000000
12410744.000000,-0.340777,0.627285,0.428236,-1.522247,-0.286254,2.088398,0.159476,0.045940,0.369620,-0.093096,-0.214084,-0.178831,0.547506,0.107849,0.205121,-39.758869,6.365463,18.919554,0.213712,1.936446,0.028243,0.000000,0.000000,0.000000,0.000000,0.000000,0.000000
12410745.000000,-0.340735,0.627665,0.428139,-1.522464,-0.286434,2.088957,0.159581,0.046798,0.374562,-0.092080,-0.212806,-0.176856,0.551496,0.107501,0.205121,-39.905659,6.365463,18.848143,0.273221,1.923629,0.074935,0.000000,0.000000,0.000000,0.000000,0.000000,0.000000
12410746.000000,-0.340697,0.628032,0.428045,-1.522683,-0.286609,2.089517,0.159695,0.043079,0.371697,-0.094361,-0.213398,-0.179552,0.566737,0.106647,0.252729,-40.076252,6.365463,18.848143,0.297025,1.897079,0.009017,0.000000,0.000000,0.000000,0.000000,0.000000,0.000000
12410747.000000,-0.340653,0.628402,0.427945,-1.522898,-0.286786,2.090080,0.159799,0.043185,0.368710,-0.096677,-0.216341,-0.178729,0.562954,0.106005,0.177350,-40.076252,6.389267,18.820372,0.303434,1.865035,0.061202,0.000000,0.000000,0.000000,0.000000,0.000000,0.000000
12410748.000000,-0.340610,0.628762,0.427849,-1.523116,-0.286956,2.090633,0.159908,0.044840,0.362865,-0.098339,-0.214934,-0.172873,0.561699,0.109763,0.153547,-40.052448,6.413071,18.796568,0.243009,1.897079,0.009017,0.000000,0.000000,0.000000,0.000000,0.000000,0.000000
12410749.000000,-0.340560,0.629127,0.427755,-1.523326,-0.287138,2.091188,0.160013,0.048991,0.361225,-0.096975,-0.212865,-0.172597,0.558942,0.106081,0.030561,-39.981037,6.341660,18.697386,0.201810,1.884261,0.009017,0.000000,0.000000,0.000000,0.000000,0.000000,0.000000
12410750.000000,-0.340515,0.629495,0.427658,-1.523538,-0.287318,2.091733,0.160111,0.046399,0.358153,-0.098101,-0.213435,-0.178903,0.557343,0.105379,0.006757,-39.858051,6.341660,18.697386,0.195402,1.949264,0.074935,0.000000,0.000000,0.000000,0.000000,0.000000,0.000000
12410751.000000,-0.340469,0.629854,0.427561,-1.523748,-0.287494,2.092281,0.160228,0.048352,0.361802,-0.095714,-0.213067,-0.174436,0.554052,0.105703,-0.044818,-39.782673,6.341660,18.550596,0.171598,1.981307,-0.004716,0.000000,0.000000,0.000000,0.000000,0.000000,0.000000
12410752.000000,-0.340425,0.630229,0.427468,-1.523953,-0.287678,2.092817,0.160331,0.048177,0.364349,-0.094614,-0.208431,-0.176060,0.543065,0.105014,-0.044818,-39.782673,6.242477,18.451414,0.201810,1.974899,0.054794,0.000000,0.000000,0.000000,0.000000,0.000000,0.000000
12410753.000000,-0.340375,0.630595,0.427362,-1.524160,-0.287852,2.093366,0.160446,0.049323,0.365316,-0.098616,-0.207161,-0.179111,0.539651,0.108612,-0.092425,-39.810444,6.341660,18.451414,0.219205,1.949264,0.015426,0.000000,0.000000,0.000000,0.000000,0.000000,0.000000
12410754.000000,-0.340332,0.630976,0.427268,-1.524358,-0.288030,2.093911,0.160546,0.048806,0.367041,-0.094550,-0.203611,-0.179798,0.538364,0.102791,-0.068621,-39.905659,6.290085,18.352232,0.243009,1.903487,0.074935,0.000000,0.000000,0.000000,0.000000,0.000000,0.000000
12410755.000000,-0.340290,0.631357,0.427170,-1.524556,-0.288212,2.094463,0.160653,0.047853,0.370073,-0.096778,-0.201152,-0.178282,0.541129,0.105769,-0.017047,-40.052448,6.341660,18.253050,0.225614,1.890670,0.067611,0.000000,0.000000,0.000000,0.000000,0.000000,0.000000
12410756.000000,-0.340240,0.631727,0.427080,-1.524757,-0.288393,2.095014,0.160759,0.046466,0.372348,-0.092207,-0.203301,-0.179382,0.539275,0.107862,-0.068621,-40.076252,6.242477,18.205442,0.213712,1.858627,0.061202,0.000000,0.000000,0.000000,0.000000,0.000000,0.000000
12410757.000000,-0.340187,0.632095,0.426981,-1.524959,-0.288575,2.095555,0.160863,0.049617,0.368823,-0.097465,-0.203732,-0.178514,0.546376,0.108480,-0.167803,-40.052448,6.242477,18.229246,0.213712,1.851302,0.074935,0.000000,0.000000,0.000000,0.000000,0.000000,0.000000
12410758.000000,-0.340138,0.632466,0.426885,-1.525156,-0.288753,2.096105,0.160976,0.046958,0.377702,-0.098462,-0.202170,-0.179712,0.544918,0.115969,-0.191607,-40.028645,6.242477,18.177671,0.207303,1.865035,0.009017,0.000000,0.000000,0.000000,0.000000,0.000000,0.000000
12410759.000000,-0.340096,0.632833,0.426787,-1.525358,-0.288933,2.096643,0.161077,0.046474,0.368749,-0.096356,-0.201794,-0.176420,0.545765,0.108954,-0.144000,-39.905659,6.266281,18.153868,0.225614,1.865035,0.048385,0.000000,0.000000,0.000000,0.000000,0.000000,0.000000
12410760.000000,-0.340051,0.633213,0.426690,-1.525554,-0.289108,2.097190,0.161185,0.043563,0.371455,-0.093731,-0.198280,-0.175439,0.540032,0.105966,-0.116229,-39.929462,6.242477,18.130064,0.201810,1.897079,0.028243,0.000000,0.000000,0.000000,0.000000,0.000000,0.000000
12410761.000000,-0.340005,0.633582,0.426592,-1.525750,-0.289284,2.097734,0.161284,0.044716,0.367966,-0.092354,-0.195770,-0.173569,0.537955,0.107806,-0.116229,-39.834248,6.242477,18.130064,0.219205,1.871444,0.028243,0.000000,0.000000,0.000000,0.000000,0.000000,0.000000
12410762.000000,-0.339951,0.633948,0.426488,-1.525948,-0.289464,2.098272,0.161389,0.048071,0.367050,-0.092841,-0.196076,-0.178152,0.535865,0.103798,-0.215411,-39.711262,6.313889,18.205442,0.189908,1.871444,0.041976,0.000000,0.000000,0.000000,0.000000,0.000000,0.000000
12410763.000000,-0.339907,0.634322,0.426395,-1.526140,-0.289647,2.098817,0.161501,0.047262,0.364160,-0.090947,-0.195068,-0.179576,0.533456,0.102319,-0.167803,-39.588276,6.290085,18.106260,0.195402,1.865035,0.015426,0.000000,0.000000,0.000000,0.000000,0.000000,0.000000
12410764.000000,-0.339863,0.634692,0.426297,-1.526335,-0.289829,2.099361,0.161605,0.043597,0.367783,-0.093375,-0.194769,-0.177007,0.535263,0.102841,-0.116229,-39.612080,6.290085,18.030882,0.225614,1.903487,0.067611,0.000000,0.000000,0.000000,0.000000,0.000000,0.000000
12410765.000000,-0.339818,0.635066,0.426205,-1.526525,-0.290009,2.099891,0.161720,0.044121,0.371975,-0.089660,-0.191766,-0.176351,0.532277,0.106989,-0.068621,-39.588276,6.190903,17.955503,0.213712,1.949264,0.021835,0.000000,0.000000,0.000000,0.000000,0.000000,0.000000
12410766.000000,-0.339772,0.635434,0.426107,-1.526714,-0.290184,2.100438,0.161825,0.045286,0.380486,-0.093192,-0.189265,-0.173389,0.538492,0.108665,-0.068621,-39.612080,6.218674,17.884092,0.213712,1.877853,0.015426,0.000000,0.000000,0.000000,0.000000,0.000000,0.000000
12410767.000000,-0.339729,0.635806,0.426012,-1.526904,-0.290360,2.100984,0.161925,0.042305,0.381945,-0.094241,-0.190470,-0.174146,0.543531,0.108649,-0.017047,-39.564472,6.190903,17.784910,0.207303,1.800033,0.054794,0.000000,0.000000,0.000000,0.000000,0.000000,0.000000
12410768.000000,-0.339685,0.636175,0.425918,-1.527093,-0.290531,2.101536,0.162036,0.043193,0.372966,-0.095419,-0.188274,-0.173973,0.545213,0.105748,0.030561,-39.540668,6.167099,17.685728,0.178007,1.754256,0.034652,0.000000,0.000000,0.000000,0.000000,0.000000,0.000000
12410769.000000,-0.339642,0.636544,0.425818,-1.527286,-0.290712,2.102090,0.162143,0.040923,0.373606,-0.096824,-0.188646,-0.176442,0.545101,0.107823,0.078168,-39.512897,6.167099,17.685728,0.166105,1.773483,0.028243,0.000000,0.000000,0.000000,0.000000,0.000000,0.000000
12410770.000000,-0.339592,0.636915,0.425721,-1.527461,-0.290901,2.102626,0.162253,0.044490,0.368889,-0.097860,-0.186341,-0.177506,0.539134,0.104785,0.030561,-39.465290,6.167099,17.562742,0.195402,1.812850,0.015426,0.000000,0.000000,0.000000,0.000000,0.000000,0.000000
12410771.000000,-0.339549,0.637289,0.425624,-1.527641,-0.291077,2.103175,0.162355,0.044546,0.371854,-0.098563,-0.182309,-0.173769,0.534784,0.109079,0.078168,-39.489094,6.167099,17.487364,0.183500,1.832076,0.061202,0.000000,0.000000,0.000000,0.000000,0.000000,0.000000
12410772.000000,-0.339509,0.637655,0.425527,-1.527825,-0.291259,2.103715,0.162461,0.043746,0.364590,-0.097101,-0.179620,-0.177092,0.533983,0.106480,0.177350,-39.294697,6.218674,17.411985,0.201810,1.812850,0.034652,0.000000,0.000000,0.000000,0.000000,0.000000,0.000000
12410773.000000,-0.339463,0.638026,0.425432,-1.528002,-0.291435,2.104275,0.162567,0.047708,0.368447,-0.097863,-0.181196,-0.181180,0.539505,0.102913,0.205121,-39.171711,6.242477,17.364378,0.183500,1.754256,0.048385,0.000000,0.000000,0.000000,0.000000,0.000000,0.000000
12410774.000000,-0.339416,0.638387,0.425335,-1.528178,-0.291611,2.104827,0.162675,0.049266,0.364369,-0.098397,-0.178196,-0.176028,0.542522,0.106163,0.177350,-38.953510,6.242477,17.289000,0.159696,1.721298,0.028243,0.000000,0.000000,0.000000,0.000000,0.000000,0.000000
12410775.000000,-0.339373,0.638762,0.425240,-1.528347,-0.291796,2.105361,0.162782,0.045826,0.364061,-0.098254,-0.175855,-0.181585,0.548262,0.106947,0.205121,-38.925739,6.218674,17.189817,0.171598,1.727706,0.048385,0.000000,0.000000,0.000000,0.000000,0.000000,0.000000
12410776.000000,-0.339329,0.639138,0.425150,-1.528518,-0.291979,2.105902,0.162890,0.042831,0.372714,-0.097087,-0.173565,-0.181287,0.539674,0.103012,0.252729,-38.854328,6.143295,17.066832,0.147794,1.800033,0.067611,0.000000,0.000000,0.000000,0.000000,0.000000,0.000000
12410777.000000,-0.339289,0.639511,0.425055,-1.528692,-0.292169,2.106439,0.163001,0.043643,0.376920,-0.097447,-0.170490,-0.182259,0.541678,0.102575,0.304304,-38.953510,6.119492,17.019224,0.147794,1.806442,0.021835,0.000000,0.000000,0.000000,0.000000,0.000000,0.000000
12410778.000000,-0.339240,0.639890,0.424952,-1.528866,-0.292359,2.106990,0.163107,0.044099,0.377886,-0.100138,-0.169779,-0.186797,0.540202,0.100031,0.228925,-39.001118,6.190903,17.043028,0.171598,1.767074,0.028243,0.000000,0.000000,0.000000,0.000000,0.000000,0.000000
12410779.000000,-0.339198,0.640260,0.424854,-1.529031,-0.292540,2.107542,0.163207,0.044583,0.376537,-0.097659,-0.166375,-0.181174,0.538634,0.098087,0.276533,-39.072529,6.218674,16.967649,0.166105,1.714889,0.074935,0.000000,0.000000,0.000000,0.000000,0.000000,0.000000
12410780.000000,-0.339155,0.640645,0.424758,-1.529198,-0.292721,2.108082,0.163319,0.041532,0.378185,-0.095015,-0.171826,-0.179998,0.539263,0.103891,0.328107,-39.195515,6.218674,16.991453,0.159696,1.747848,0.021835,0.000000,0.000000,0.000000,0.000000,0.000000,0.000000
12410781.000000,-0.339110,0.641023,0.424662,-1.529370,-0.292902,2.108631,0.163423,0.043885,0.375345,-0.096892,-0.173036,-0.181202,0.540181,0.105796,0.328107,-39.219318,6.242477,16.991453,0.178007,1.747848,0.034652,0.000000,0.000000,0.000000,0.000000,0.000000,0.000000
12410782.000000,-0.339065,0.641400,0.424567,-1.529546,-0.293088,2.109191,0.163530,0.042430,0.374516,-0.094110,-0.172504,-0.181737,0.557808,0.103320,0.328107,-39.318501,6.218674,17.066832,0.166105,1.747848,0.021835,0.000000,0.000000,0.000000,0.000000,0.000000,0.000000
12410783.000000,-0.339018,0.641777,0.424466,-1.529715,-0.293281,2.109732,0.163628,0.041237,0.367921,-0.096259,-0.173813,-0.185390,0.551939,0.103061,0.328107,-39.318501,6.242477,17.090635,0.166105,1.721298,0.087753,0.000000,0.000000,0.000000,0.000000,0.000000,0.000000
12410784.000000,-0.338972,0.642152,0.424366,-1.529892,-0.293469,2.110274,0.163738,0.043023,0.374184,-0.095255,-0.173681,-0.186013,0.555868,0.108306,0.328107,-39.342304,6.290085,17.213621,0.183500,1.702071,0.015426,0.000000,0.000000,0.000000,0.000000,0.000000,0.000000
12410785.000000,-0.338929,0.642538,0.424266,-1.530060,-0.293652,2.110809,0.163846,0.044307,0.375452,-0.096227,-0.173483,-0.188894,0.549156,0.110036,0.351911,-39.366108,6.290085,17.189817,0.183500,1.708480,0.009017,0.000000,0.000000,0.000000,0.000000,0.000000,0.000000
12410786.000000,-0.338886,0.642923,0.424164,-1.530235,-0.293835,2.111342,0.163948,0.042116,0.377076,-0.097262,-0.175301,-0.191977,0.542732,0.107906,0.375715,-39.417683,6.290085,17.241392,0.213712,1.735030,0.081344,0.000000,0.000000,0.000000,0.000000,0.000000,0.000000
12410787.000000,-0.338841,0.643305,0.424059,-1.530407,-0.294016,2.111879,0.164061,0.044277,0.378275,-0.099772,-0.171774,-0.184875,0.538050,0.111461,0.375715,-39.465290,6.365463,17.241392,0.207303,1.760665,0.021835,0.000000,0.000000,0.000000,0.000000,0.000000,0.000000
12410788.000000,-0.338798,0.643684,0.423954,-1.530577,-0.294194,2.112399,0.164164,0.044548,0.380032,-0.100758,-0.170313,-0.186468,0.526093,0.104976,0.427289,-39.489094,6.413071,17.265196,0.171598,1.773483,0.074935,0.000000,0.000000,0.000000,0.000000,0.000000,0.000000
12410789.000000,-0.338752,0.644065,0.423854,-1.530749,-0.294378,2.112924,0.164270,0.045604,0.383029,-0.100481,-0.167142,-0.184811,0.529306,0.106389,0.451093,-39.512897,6.413071,17.340574,0.135892,1.806442,0.081344,0.000000,0.000000,0.000000,0.000000,0.000000,0.000000
12410790.000000,-0.338708,0.644452,0.423756,-1.530914,-0.294570,2.113446,0.164385,0.042440,0.383766,-0.099133,-0.165022,-0.185391,0.529405,0.110115,0.502668,-39.635883,6.365463,17.289000,0.147794,1.800033,0.028243,0.000000,0.000000,0.000000,0.000000,0.000000,0.000000
12410791.000000,-0.338662,0.644846,0.423647,-1.531090,-0.294758,2.113981,0.164486,0.044505,0.387977,-0.103659,-0.169558,-0.184160,0.531277,0.108693,0.502668,-39.758869,6.436874,17.364378,0.171598,1.747848,0.081344,0.000000,0.000000,0.000000,0.000000,0.000000,0.000000
12410792.000000,-0.338615,0.645222,0.423546,-1.531261,-0.294939,2.114515,0.164598,0.046742,0.385557,-0.102712,-0.170096,-0.179864,0.526784,0.112194,0.474897,-39.782673,6.436874,17.340574,0.183500,1.721298,0.021835,0.000000,0.000000,0.000000,0.000000,0.000000,0.000000
12410793.000000,-0.338572,0.645608,0.423441,-1.531436,-0.295124,2.115027,0.164706,0.046422,0.386514,-0.102409,-0.170703,-0.180362,0.525498,0.111896,0.526471,-39.810444,6.460678,17.435789,0.219205,1.754256,0.028243,0.000000,0.000000,0.000000,0.000000,0.000000,0.000000
12410794.000000,-0.338528,0.645998,0.423330,-1.531612,-0.295299,2.115557,0.164809,0.043633,0.384739,-0.106727,-0.171253,-0.175763,0.519521,0.111049,0.550275,-39.834248,6.536057,17.534971,0.213712,1.779891,0.061202,0.000000,0.000000,0.000000,0.000000,0.000000,0.000000
12410795.000000,-0.338481,0.646376,0.423226,-1.531792,-0.295479,2.116080,0.164918,0.045422,0.383606,-0.108596,-0.171341,-0.176984,0.517497,0.111525,0.550275,-39.735065,6.559860,17.634153,0.183500,1.779891,0.061202,0.000000,0.000000,0.000000,0.000000,0.000000,0.000000
12410796.000000,-0.338435,0.646758,0.423121,-1.531966,-0.295661,2.116613,0.165027,0.046085,0.378770,-0.103871,-0.173471,-0.180596,0.519889,0.111365,0.574079,-39.612080,6.583664,17.685728,0.147794,1.793624,0.074935,0.000000,0.000000,0.000000,0.000000,0.000000,0.000000
12410797.000000,-0.338393,0.647138,0.423019,-1.532143,-0.295847,2.117136,0.165140,0.046103,0.380400,-0.102719,-0.172355,-0.182093,0.520300,0.113277,0.625654,-39.540668,6.583664,17.784910,0.147794,1.832076,0.041976,0.000000,0.000000,0.000000,0.000000,0.000000,0.000000
12410798.000000,-0.338350,0.647524,0.422910,-1.532314,-0.296034,2.117651,0.165251,0.045504,0.374256,-0.104107,-0.176026,-0.187154,0.520892,0.112252,0.697065,-39.465290,6.682846,17.832518,0.178007,1.884261,0.067611,0.000000,0.000000,0.000000,0.000000,0.000000,0.000000
12410799.000000,-0.338306,0.647912,0.422807,-1.532480,-0.296216,2.118174,0.165369,0.042604,0.374995,-0.102361,-0.169875,-0.185567,0.524911,0.114812,0.748639,-39.441486,6.659042,17.856321,0.166105,1.936446,0.009017,0.000000,0.000000,0.000000,0.000000,0.000000,0.000000
12410800.000000,-0.338261,0.648296,0.422700,-1.532654,-0.296400,2.118708,0.165476,0.044805,0.375701,-0.102421,-0.168997,-0.181264,0.523821,0.112007,0.748639,-39.441486,6.682846,17.907896,0.189908,1.877853,0.067611,0.000000,0.000000,0.000000,0.000000,0.000000,0.000000
12410801.000000,-0.338213,0.648688,0.422593,-1.532826,-0.296581,2.119236,0.165587,0.043111,0.377919,-0.104823,-0.169137,-0.178432,0.521675,0.111873,0.748639,-39.540668,6.682846,17.983274,0.147794,1.844894,0.074935,0.000000,0.000000,0.000000,0.000000,0.000000,0.000000
12410802.000000,-0.338171,0.649076,0.422481,-1.533004,-0.296768,2.119759,0.165699,0.046722,0.385327,-0.108062,-0.173189,-0.180441,0.518900,0.109336,0.796247,-39.588276,6.734421,18.106260,0.147794,1.812850,0.028243,0.000000,0.000000,0.000000,0.000000,0.000000,0.000000
12410803.000000,-0.338126,0.649474,0.422369,-1.533176,-0.296967,2.120276,0.165805,0.047386,0.390390,-0.106980,-0.171610,-0.189943,0.519659,0.109275,0.796247,-39.758869,6.782028,18.153868,0.147794,1.858627,0.061202,0.000000,0.000000,0.000000,0.000000,0.000000,0.000000
12410804.000000,-0.338086,0.649865,0.422263,-1.533341,-0.297165,2.120801,0.165915,0.042626,0.389660,-0.108373,-0.169361,-0.192877,0.519768,0.111489,0.895429,-39.735065,6.805832,18.153868,0.178007,1.916305,0.028243,0.000000,0.000000,0.000000,0.000000,0.000000,0.000000
12410805.000000,-0.338048,0.650254,0.422155,-1.533515,-0.297363,2.121334,0.166021,0.042479,0.389332,-0.110594,-0.168467,-0.192636,0.521926,0.106925,0.994611,-39.858051,6.853439,18.205442,0.225614,1.936446,0.034652,0.000000,0.000000,0.000000,0.000000,0.000000,0.000000
12410806.000000,-0.338012,0.650647,0.422043,-1.533698,-0.297555,2.121861,0.166125,0.041777,0.390444,-0.108442,-0.169223,-0.198572,0.520254,0.107743,1.121564,-39.834248,6.881210,18.427610,0.231107,1.903487,0.048385,0.000000,0.000000,0.000000,0.000000,0.000000,0.000000
12410807.000000,-0.337965,0.651029,0.421937,-1.533875,-0.297744,2.122393,0.166232,0.044433,0.396130,-0.106790,-0.170626,-0.195903,0.519621,0.109218,1.121564,-39.782673,6.905014,18.574400,0.255826,1.819259,0.028243,0.000000,0.000000,0.000000,0.000000,0.000000,0.000000
