chaoyuefei/paper-gmrm-data/robot_logs/s2_dq_mrm_max_0.30_log_20260314_172813.csv
# time_ms,q_0,q_1,q_2,q_3,q_4,q_5,q_6,dq_0,dq_1,dq_2,dq_3,dq_4,dq_5,dq_6,tau_J_0,tau_J_1,tau_J_2,tau_J_3,tau_J_4,tau_J_5,tau_J_6,O_dP_EE_c_0,O_dP_EE_c_1,O_dP_EE_c_2,O_dP_EE_c_3,O_dP_EE_c_4,O_dP_EE_c_5
11954819.000000,2.313462,-0.961780,-1.822712,-1.385841,-0.923952,1.666940,0.446170,0.000544,-0.000265,-0.000337,0.000426,0.000081,-0.000423,0.000123,0.252729,35.508465,19.592392,12.123594,1.008390,1.409103,-0.149369,0.000000,0.000000,0.000000,0.000000,0.000000,0.000000
11954820.000000,2.313460,-0.961780,-1.822710,-1.385844,-0.923952,1.666938,0.446169,-0.000194,-0.000177,0.000332,-0.000830,0.000054,0.000193,-0.000393,0.276533,35.508465,19.568588,12.171202,1.008390,1.396285,-0.136552,0.000000,0.000000,0.000000,0.000000,0.000000,0.000000
11954821.000000,2.313457,-0.961782,-1.822709,-1.385842,-0.923952,1.666940,0.446169,-0.001336,-0.000768,0.000778,0.000004,0.000036,-0.000109,-0.000024,0.328107,35.536236,19.544785,12.147398,1.008390,1.402694,-0.142960,0.000000,0.000000,0.000000,0.000000,0.000000,0.000000
11954822.000000,2.313458,-0.961778,-1.822709,-1.385842,-0.923951,1.666937,0.446173,0.000316,0.000695,0.000519,0.000002,0.000261,-0.000072,0.001204,0.276533,35.484661,19.544785,12.147398,1.001981,1.402694,-0.175919,0.000000,0.000000,0.000000,0.000000,0.000000,0.000000
11954823.000000,2.313447,-0.961783,-1.822710,-1.385840,-0.923952,1.666939,0.446168,-0.015936,-0.011801,-0.011409,0.000002,-0.001714,0.000664,-0.002113,-0.116229,35.044292,18.981430,12.147398,0.925077,1.383468,-0.097184,0.000000,0.000000,0.000000,0.000000,0.000000,0.000000
11954824.000000,2.313430,-0.961748,-1.822725,-1.385842,-0.923937,1.666940,0.446184,-0.031751,-0.010649,-0.030645,0.000844,0.002878,-0.001501,0.002126,-1.972918,32.767071,17.188217,12.246580,0.554288,1.312057,-0.064225,0.000000,0.000000,0.000000,0.000000,0.000000,0.000000
11954825.000000,2.313419,-0.961698,-1.822789,-1.385840,-0.923918,1.666923,0.446221,-0.031607,0.009024,-0.048512,0.000269,0.012294,-0.007757,0.018522,-5.464129,28.875164,14.367477,12.270384,-0.007845,1.357833,-0.130143,0.000000,0.000000,0.000000,0.000000,0.000000,0.000000
11954826.000000,2.313382,-0.961698,-1.822902,-1.385826,-0.923931,1.666908,0.446258,-0.029238,0.010629,-0.064077,0.006131,0.003543,-0.009680,0.025435,-9.399676,24.812664,11.027023,12.024412,-0.306307,1.461288,-0.064225,0.000000,0.000000,0.000000,0.000000,0.000000,0.000000
11954827.000000,2.313302,-0.961753,-1.823034,-1.385819,-0.923989,1.666907,0.446314,-0.033531,-0.004870,-0.078466,0.005710,-0.016534,-0.007944,0.037489,-13.113055,21.289715,7.515976,11.826048,-0.240389,1.487838,-0.056901,0.000000,0.000000,0.000000,0.000000,0.000000,0.000000
11954828.000000,2.313210,-0.961836,-1.823199,-1.385830,-0.924070,1.666955,0.446383,-0.042165,-0.023046,-0.090609,-0.000499,-0.040152,0.013529,0.050585,-16.457476,18.226971,4.377853,11.726866,-0.043551,1.227828,-0.023942,0.000000,0.000000,0.000000,0.000000,0.000000,0.000000
11954829.000000,2.313108,-0.961960,-1.823352,-1.385847,-0.924172,1.667062,0.446481,-0.044272,-0.044941,-0.096125,-0.009341,-0.064421,0.047352,0.063045,-18.956865,16.072735,1.676132,11.405516,0.243009,0.589706,-0.050492,0.000000,0.000000,0.000000,0.000000,0.000000,0.000000
11954830.000000,2.313005,-0.962105,-1.823506,-1.385883,-0.924278,1.667210,0.446582,-0.046454,-0.069592,-0.102039,-0.021095,-0.078195,0.080715,0.073216,-20.170855,14.874615,-0.140885,10.762815,0.440763,-0.183915,0.015426,0.000000,0.000000,0.000000,0.000000,0.000000,0.000000
11954831.000000,2.312925,-0.962290,-1.823641,-1.385935,-0.924386,1.667368,0.446710,-0.047891,-0.102554,-0.101477,-0.035654,-0.091788,0.112673,0.089032,-20.317644,14.557232,-1.291397,9.774961,0.470060,-0.691117,-0.011124,0.000000,0.000000,0.000000,0.000000,0.000000,0.000000
11954832.000000,2.312864,-0.962466,-1.823749,-1.386008,-0.924505,1.667530,0.446843,-0.050355,-0.126111,-0.100642,-0.048445,-0.097958,0.133028,0.104378,-19.698748,14.481853,-1.957901,8.414183,0.393156,-0.840348,0.001693,0.000000,0.000000,0.000000,0.000000,0.000000,0.000000
11954833.000000,2.312818,-0.962626,-1.823857,-1.386106,-0.924608,1.667694,0.446989,-0.053106,-0.139242,-0.102129,-0.064085,-0.102477,0.147474,0.117834,-18.583941,14.434246,-2.005509,6.835204,0.040677,-0.561112,-0.044083,0.000000,0.000000,0.000000,0.000000,0.000000,0.000000
11954834.000000,2.312763,-0.962753,-1.823962,-1.386225,-0.924710,1.667885,0.447141,-0.059192,-0.137806,-0.107541,-0.079746,-0.098414,0.153390,0.126496,-17.000994,14.041485,-1.735733,5.228453,-0.414340,-0.222367,-0.064225,0.000000,0.000000,0.000000,0.000000,0.000000,0.000000
11954835.000000,2.312696,-0.962835,-1.824062,-1.386395,-0.924826,1.668111,0.447285,-0.070309,-0.123201,-0.111704,-0.106434,-0.102403,0.177370,0.131015,-15.120502,13.089336,-1.366776,4.089842,-0.838229,0.011092,-0.023942,0.000000,0.000000,0.000000,0.000000,0.000000,0.000000
11954836.000000,2.312615,-0.962892,-1.824166,-1.386614,-0.924982,1.668367,0.447449,-0.084625,-0.102210,-0.115169,-0.138213,-0.121297,0.202145,0.143606,-13.113055,11.815838,-0.898636,3.593931,-0.981967,0.186874,-0.103593,0.000000,0.000000,0.000000,0.000000,0.000000,0.000000
11954837.000000,2.312510,-0.962938,-1.824279,-1.386866,-0.925183,1.668645,0.447606,-0.097989,-0.083838,-0.120031,-0.173551,-0.145210,0.230622,0.147827,-10.935016,10.395550,-0.410660,3.371763,-0.838229,0.323287,-0.044083,0.000000,0.000000,0.000000,0.000000,0.000000,0.000000
11954838.000000,2.312380,-0.962978,-1.824410,-1.387136,-0.925424,1.668963,0.447764,-0.112204,-0.069996,-0.126124,-0.201247,-0.173007,0.256948,0.148006,-8.610187,9.022869,0.105087,3.272581,-0.407931,0.381881,-0.023942,0.000000,0.000000,0.000000,0.000000,0.000000,0.000000
11954839.000000,2.312241,-0.963026,-1.824544,-1.387421,-0.925686,1.669305,0.447935,-0.122377,-0.062072,-0.130579,-0.228454,-0.203934,0.278457,0.154219,-6.380572,7.900127,0.497848,3.494749,0.081876,0.381881,-0.050492,0.000000,0.000000,0.000000,0.000000,0.000000,0.000000
11954840.000000,2.312089,-0.963091,-1.824671,-1.387727,-0.925953,1.669666,0.448093,-0.136488,-0.061241,-0.133556,-0.254529,-0.222149,0.305278,0.155147,-4.250140,7.138409,0.620834,3.792296,0.476469,0.336105,0.034652,0.000000,0.000000,0.000000,0.000000,0.000000,0.000000
11954841.000000,2.311940,-0.963174,-1.824811,-1.388026,-0.926190,1.670057,0.448274,-0.141967,-0.070574,-0.135507,-0.273032,-0.229869,0.333216,0.161862,-2.445025,6.698040,0.720016,3.867674,0.470060,0.304061,-0.050492,0.000000,0.000000,0.000000,0.000000,0.000000,0.000000
11954842.000000,2.311817,-0.963294,-1.824957,-1.388317,-0.926421,1.670468,0.448440,-0.135952,-0.088389,-0.132756,-0.277955,-0.226738,0.353954,0.162710,-1.108050,6.920208,0.890610,3.621702,0.225614,0.297652,-0.023942,0.000000,0.000000,0.000000,0.000000,0.000000,0.000000
11954843.000000,2.311706,-0.963449,-1.825097,-1.388612,-0.926645,1.670873,0.448606,-0.123249,-0.107358,-0.129051,-0.278692,-0.221130,0.370677,0.163319,0.105939,7.848553,1.259567,3.101988,-0.049044,0.505477,0.021835,0.000000,0.000000,0.000000,0.000000,0.000000,0.000000
11954844.000000,2.311608,-0.963631,-1.825230,-1.388879,-0.926869,1.671300,0.448789,-0.113196,-0.132221,-0.128543,-0.274575,-0.223293,0.383882,0.167325,1.244550,9.368023,1.874496,2.336302,-0.300814,0.817672,-0.044083,0.000000,0.000000,0.000000,0.000000,0.000000,0.000000
11954845.000000,2.311507,-0.963817,-1.825365,-1.389162,-0.927091,1.671767,0.448965,-0.109331,-0.151187,-0.132371,-0.276312,-0.218926,0.408596,0.172650,2.506147,11.030315,2.830612,1.618224,-0.461947,0.908309,-0.070634,0.000000,0.000000,0.000000,0.000000,0.000000,0.000000
11954846.000000,2.311400,-0.963987,-1.825501,-1.389467,-0.927318,1.672289,0.449134,-0.109429,-0.161286,-0.134617,-0.281999,-0.222234,0.446706,0.170612,3.890729,12.450603,3.957321,1.050902,-0.467440,0.713302,-0.037675,0.000000,0.000000,0.000000,0.000000,0.000000,0.000000
11954847.000000,2.311303,-0.964149,-1.825632,-1.389774,-0.927571,1.672854,0.449308,-0.106429,-0.166077,-0.134972,-0.293873,-0.229450,0.481317,0.170420,5.005537,13.553509,5.064194,0.654173,-0.306307,0.329696,-0.017533,0.000000,0.000000,0.000000,0.000000,0.000000,0.000000
11954848.000000,2.311206,-0.964287,-1.825766,-1.390108,-0.927837,1.673408,0.449482,-0.107952,-0.158609,-0.137341,-0.305684,-0.239057,0.502211,0.171420,5.997358,14.041485,6.020309,0.309019,-0.031649,0.044051,-0.044083,0.000000,0.000000,0.000000,0.000000,0.000000,0.000000
11954849.000000,2.311112,-0.964405,-1.825896,-1.390453,-0.928099,1.673945,0.449646,-0.106375,-0.145462,-0.139580,-0.321684,-0.247065,0.503279,0.168441,6.838422,14.017681,6.734421,0.233641,0.159696,0.115462,0.021835,0.000000,0.000000,0.000000,0.000000,0.000000,0.000000
11954850.000000,2.311025,-0.964511,-1.826030,-1.390809,-0.928369,1.674462,0.449817,-0.097498,-0.134889,-0.141186,-0.332901,-0.252866,0.496808,0.169829,7.457319,13.624920,7.297775,0.035277,0.369352,0.316879,0.001693,0.000000,0.000000,0.000000,0.000000,0.000000,0.000000
11954851.000000,2.310960,-0.964617,-1.826165,-1.391188,-0.928624,1.674999,0.449999,-0.083872,-0.125020,-0.140053,-0.342206,-0.252021,0.500463,0.171122,7.731061,13.013958,7.615158,-0.111513,0.428861,0.434066,-0.031266,0.000000,0.000000,0.000000,0.000000,0.000000,0.000000
11954852.000000,2.310910,-0.964717,-1.826312,-1.391563,-0.928880,1.675535,0.450167,-0.073256,-0.112439,-0.143426,-0.352157,-0.249524,0.501010,0.168502,7.679487,12.157024,7.960312,-0.262270,0.315336,0.486251,0.021835,0.000000,0.000000,0.000000,0.000000,0.000000,0.000000
11954853.000000,2.310853,-0.964840,-1.826457,-1.391954,-0.929132,1.676053,0.450348,-0.064142,-0.111062,-0.141912,-0.358599,-0.251119,0.505690,0.173700,7.655683,11.569866,8.083298,-0.409059,0.141385,0.551253,-0.017533,0.000000,0.000000,0.000000,0.000000,0.000000,0.000000
11954854.000000,2.310811,-0.964986,-1.826615,-1.392337,-0.929382,1.676567,0.450521,-0.056936,-0.121852,-0.145230,-0.368249,-0.249356,0.505091,0.172396,7.433515,11.323895,8.230087,-0.655031,-0.007845,0.694076,-0.011124,0.000000,0.000000,0.000000,0.000000,0.000000,0.000000
11954855.000000,2.310783,-0.965154,-1.826786,-1.392720,-0.929648,1.677075,0.450695,-0.044593,-0.138052,-0.154194,-0.371050,-0.248611,0.510297,0.172045,7.012983,11.323895,8.499863,-1.099367,0.004056,0.765487,0.009017,0.000000,0.000000,0.000000,0.000000,0.000000,0.000000
11954856.000000,2.310754,-0.965355,-1.826954,-1.393122,-0.929927,1.677590,0.450861,-0.038239,-0.156229,-0.155915,-0.368817,-0.263010,0.508731,0.171141,6.540876,11.692852,8.694260,-1.472292,0.147794,0.694076,0.021835,0.000000,0.000000,0.000000,0.000000,0.000000,0.000000
11954857.000000,2.310719,-0.965585,-1.827125,-1.393497,-0.930216,1.678110,0.451037,-0.036879,-0.180356,-0.159088,-0.363958,-0.271662,0.505391,0.171116,5.898176,12.450603,8.817245,-1.595277,0.255826,0.532027,0.009017,0.000000,0.000000,0.000000,0.000000,0.000000,0.000000
11954858.000000,2.310672,-0.965831,-1.827288,-1.393885,-0.930506,1.678628,0.451216,-0.042067,-0.201254,-0.158879,-0.367582,-0.273347,0.506509,0.176756,5.080915,13.406719,8.817245,-1.226320,0.369352,0.394698,-0.023942,0.000000,0.000000,0.000000,0.000000,0.000000,0.000000
11954859.000000,2.310623,-0.966087,-1.827457,-1.394262,-0.930789,1.679156,0.451384,-0.046337,-0.216607,-0.159311,-0.367342,-0.278068,0.515617,0.177639,4.089094,14.533428,8.845016,-0.555849,0.446256,0.251876,0.034652,0.000000,0.000000,0.000000,0.000000,0.000000,0.000000
11954860.000000,2.310564,-0.966355,-1.827618,-1.394635,-0.931061,1.679683,0.451564,-0.045952,-0.232077,-0.155167,-0.366258,-0.277000,0.525246,0.177313,3.049665,15.902142,8.916428,0.408202,0.428861,0.180465,-0.004716,0.000000,0.000000,0.000000,0.000000,0.000000,0.000000
11954861.000000,2.310494,-0.966627,-1.827771,-1.395021,-0.931343,1.680197,0.451734,-0.048396,-0.241989,-0.151734,-0.371664,-0.285976,0.524872,0.174313,2.232404,17.516827,9.114792,1.717406,0.422452,0.310470,0.028243,0.000000,0.000000,0.000000,0.000000,0.000000,0.000000
11954862.000000,2.310409,-0.966899,-1.827915,-1.395393,-0.931622,1.680702,0.451906,-0.059900,-0.250325,-0.148739,-0.377696,-0.277692,0.516075,0.173425,1.688886,19.230694,9.432175,3.173399,0.356534,0.538436,0.015426,0.000000,0.000000,0.000000,0.000000,0.000000,0.000000
11954863.000000,2.310311,-0.967156,-1.828054,-1.395783,-0.931883,1.681217,0.452070,-0.070749,-0.250393,-0.143283,-0.386162,-0.271001,0.513726,0.175061,1.415143,20.873150,9.900314,4.855528,0.147794,0.694076,0.048385,0.000000,0.000000,0.000000,0.000000,0.000000,0.000000
11954864.000000,2.310210,-0.967410,-1.828191,-1.396194,-0.932134,1.681740,0.452240,-0.079178,-0.250826,-0.140242,-0.399648,-0.265029,0.510509,0.174320,1.315961,22.511639,10.439865,6.636839,0.004056,0.771896,0.034652,0.000000,0.000000,0.000000,0.000000,0.000000,0.000000
11954865.000000,2.310111,-0.967651,-1.828325,-1.396603,-0.932396,1.682266,0.452415,-0.085247,-0.249889,-0.138765,-0.404008,-0.263053,0.515822,0.173083,1.244550,23.884319,11.027023,8.215818,-0.049044,0.882674,0.028243,0.000000,0.000000,0.000000,0.000000,0.000000,0.000000
11954866.000000,2.310004,-0.967897,-1.828471,-1.397031,-0.932663,1.682757,0.452581,-0.094551,-0.253465,-0.142078,-0.412211,-0.264801,0.503962,0.171083,1.268354,25.130047,11.689560,9.651976,-0.037142,1.188461,0.061202,0.000000,0.000000,0.000000,0.000000,0.000000,0.000000
11954867.000000,2.309896,-0.968151,-1.828626,-1.397443,-0.932936,1.683240,0.452760,-0.099221,-0.250310,-0.144737,-0.415322,-0.264701,0.493855,0.176654,1.343732,26.256756,12.375900,10.786619,0.076383,1.513473,0.028243,0.000000,0.000000,0.000000,0.000000,0.000000,0.000000
11954868.000000,2.309788,-0.968414,-1.828785,-1.397869,-0.933213,1.683728,0.452927,-0.101537,-0.256627,-0.149575,-0.419989,-0.269665,0.487905,0.173165,1.415143,27.335857,13.066208,11.726866,0.231107,1.702071,0.081344,0.000000,0.000000,0.000000,0.000000,0.000000,0.000000
11954869.000000,2.309679,-0.968688,-1.828959,-1.398300,-0.933468,1.684231,0.453105,-0.107152,-0.260586,-0.156942,-0.422263,-0.268863,0.487959,0.175219,1.542096,28.434795,13.800156,12.298155,0.255826,1.637069,0.009017,0.000000,0.000000,0.000000,0.000000,0.000000,0.000000
11954870.000000,2.309567,-0.968975,-1.829132,-1.398709,-0.933739,1.684737,0.453272,-0.107982,-0.273997,-0.165199,-0.418561,-0.272107,0.488520,0.172952,1.665082,29.462322,14.415085,12.591734,0.261320,1.532699,0.021835,0.000000,0.000000,0.000000,0.000000,0.000000,0.000000
11954871.000000,2.309449,-0.969286,-1.829317,-1.399123,-0.934001,1.685219,0.453435,-0.107943,-0.283214,-0.170938,-0.413019,-0.266394,0.485767,0.170801,1.887250,30.589031,14.978439,12.619505,0.171598,1.494247,0.067611,0.000000,0.000000,0.000000,0.000000,0.000000,0.000000
11954872.000000,2.309331,-0.969610,-1.829504,-1.399521,-0.934266,1.685686,0.453609,-0.111428,-0.300401,-0.178264,-0.413448,-0.270300,0.478172,0.171559,2.133222,31.739544,15.395004,12.444944,0.159696,1.578475,0.041976,0.000000,0.000000,0.000000,0.000000,0.000000,0.000000
11954873.000000,2.309205,-0.969941,-1.829704,-1.399925,-0.934534,1.686143,0.453779,-0.118298,-0.311425,-0.185545,-0.404326,-0.263516,0.483441,0.169560,2.454572,32.842449,15.863144,12.123594,0.166105,1.708480,0.087753,0.000000,0.000000,0.000000,0.000000,0.000000,0.000000
11954874.000000,2.309081,-0.970264,-1.829903,-1.400332,-0.934795,1.686616,0.453952,-0.119773,-0.311303,-0.191036,-0.399627,-0.262203,0.477130,0.171969,2.752119,33.624004,16.208298,11.703062,0.123990,1.682845,0.028243,0.000000,0.000000,0.000000,0.000000,0.000000,0.000000
11954875.000000,2.308947,-0.970586,-1.830113,-1.400729,-0.935069,1.687107,0.454119,-0.122763,-0.311902,-0.196220,-0.398174,-0.269527,0.480701,0.170889,3.148847,34.187359,16.573288,11.457090,0.040677,1.552840,0.034652,0.000000,0.000000,0.000000,0.000000,0.000000,0.000000
11954876.000000,2.308823,-0.970895,-1.830331,-1.401124,-0.935349,1.687586,0.454285,-0.121410,-0.312746,-0.202173,-0.396784,-0.274331,0.481645,0.165146,3.398786,34.457134,17.017624,11.207151,0.076383,1.461288,0.054794,0.000000,0.000000,0.000000,0.000000,0.000000,0.000000
11954877.000000,2.308705,-0.971191,-1.830566,-1.401506,-0.935629,1.688053,0.454452,-0.121027,-0.307569,-0.208379,-0.390615,-0.275179,0.477227,0.161980,3.545576,34.433331,17.557175,10.838194,0.154203,1.481429,0.034652,0.000000,0.000000,0.000000,0.000000,0.000000,0.000000
11954878.000000,2.308588,-0.971487,-1.830803,-1.401881,-0.935914,1.688518,0.454615,-0.120306,-0.299599,-0.217030,-0.385176,-0.276503,0.470869,0.162687,3.644758,34.357952,18.120529,10.540648,0.291532,1.611434,0.067611,0.000000,0.000000,0.000000,0.000000,0.000000,0.000000
11954879.000000,2.308471,-0.971767,-1.831045,-1.402274,-0.936202,1.688975,0.454786,-0.116271,-0.294915,-0.222583,-0.383592,-0.289935,0.466753,0.166448,3.720136,34.115948,18.660080,10.393858,0.410551,1.727706,0.034652,0.000000,0.000000,0.000000,0.000000,0.000000,0.000000
11954880.000000,2.308364,-0.972047,-1.831298,-1.402640,-0.936486,1.689446,0.454956,-0.114960,-0.291367,-0.230572,-0.377532,-0.282902,0.470799,0.166689,3.720136,33.822369,19.223434,10.270872,0.410551,1.773483,0.041976,0.000000,0.000000,0.000000,0.000000,0.000000,0.000000
11954881.000000,2.308257,-0.972326,-1.831549,-1.403014,-0.936769,1.689922,0.455124,-0.112877,-0.286906,-0.234206,-0.375253,-0.276538,0.468803,0.171024,3.692365,33.576397,19.691574,10.120115,0.386747,1.708480,0.048385,0.000000,0.000000,0.000000,0.000000,0.000000,0.000000
11954882.000000,2.308152,-0.972619,-1.831804,-1.403388,-0.937043,1.690392,0.455294,-0.111622,-0.285268,-0.238516,-0.369646,-0.277667,0.470845,0.165557,3.644758,33.576397,20.108139,10.072508,0.356534,1.670028,0.061202,0.000000,0.000000,0.000000,0.000000,0.000000,0.000000
11954883.000000,2.308047,-0.972921,-1.832062,-1.403762,-0.937332,1.690851,0.455470,-0.107589,-0.291291,-0.244950,-0.371478,-0.280151,0.464987,0.168699,3.597150,33.699383,20.500900,10.020933,0.393156,1.819259,0.021835,0.000000,0.000000,0.000000,0.000000,0.000000,0.000000
11954884.000000,2.307947,-0.973224,-1.832324,-1.404129,-0.937629,1.691298,0.455633,-0.103739,-0.297584,-0.248180,-0.369399,-0.290821,0.461237,0.167638,3.497968,33.893780,20.822250,9.874144,0.464567,1.981307,0.054794,0.000000,0.000000,0.000000,0.000000,0.000000,0.000000
11954885.000000,2.307858,-0.973527,-1.832599,-1.404500,-0.937918,1.691759,0.455802,-0.098460,-0.304148,-0.253079,-0.374122,-0.289974,0.462411,0.169707,3.299604,34.064373,21.238815,9.822569,0.500272,2.014266,0.009017,0.000000,0.000000,0.000000,0.000000,0.000000,0.000000
11954886.000000,2.307769,-0.973836,-1.832856,-1.404879,-0.938210,1.692227,0.455969,-0.094892,-0.308703,-0.252401,-0.374974,-0.288859,0.468384,0.168962,3.125043,34.238934,21.457016,9.798765,0.542386,1.930038,0.028243,0.000000,0.000000,0.000000,0.000000,0.000000,0.000000
11954887.000000,2.307682,-0.974137,-1.833117,-1.405271,-0.938495,1.692702,0.456133,-0.093079,-0.306460,-0.250662,-0.378051,-0.287670,0.470443,0.167755,2.950483,34.357952,21.631577,9.874144,0.547880,1.767074,0.067611,0.000000,0.000000,0.000000,0.000000,0.000000,0.000000
11954888.000000,2.307606,-0.974452,-1.833376,-1.405648,-0.938783,1.693171,0.456305,-0.086363,-0.309337,-0.254298,-0.380329,-0.289719,0.470013,0.170128,2.680707,34.480938,21.778366,9.973326,0.506681,1.760665,0.009017,0.000000,0.000000,0.000000,0.000000,0.000000,0.000000
11954889.000000,2.307538,-0.974762,-1.833632,-1.406028,-0.939081,1.693620,0.456463,-0.082360,-0.310477,-0.252751,-0.377148,-0.289653,0.460325,0.170346,2.307783,34.556316,21.802170,10.020933,0.554288,1.890670,0.081344,0.000000,0.000000,0.000000,0.000000,0.000000,0.000000
11954890.000000,2.307481,-0.975073,-1.833891,-1.406408,-0.939366,1.694076,0.456631,-0.074884,-0.315367,-0.251145,-0.383633,-0.284610,0.463266,0.171327,1.863447,34.651531,21.802170,10.120115,0.578092,1.988631,0.054794,0.000000,0.000000,0.000000,0.000000,0.000000,0.000000
11954891.000000,2.307425,-0.975385,-1.834146,-1.406796,-0.939646,1.694551,0.456799,-0.066580,-0.315667,-0.253253,-0.387765,-0.285861,0.470503,0.168954,1.415143,34.651531,21.778366,10.243101,0.524076,2.027084,0.009017,0.000000,0.000000,0.000000,0.000000,0.000000,0.000000
11954892.000000,2.307375,-0.975683,-1.834393,-1.407209,-0.939935,1.695017,0.456951,-0.061223,-0.303537,-0.249717,-0.390085,-0.288385,0.466472,0.166366,0.994611,34.556316,21.679184,10.493040,0.482877,2.027084,0.081344,0.000000,0.000000,0.000000,0.000000,0.000000,0.000000
11954893.000000,2.307328,-0.975992,-1.834645,-1.407597,-0.940231,1.695497,0.457120,-0.057043,-0.309383,-0.247475,-0.394195,-0.287614,0.469565,0.164942,0.574079,34.457134,21.702988,10.691404,0.482877,1.955673,0.015426,0.000000,0.000000,0.000000,0.000000,0.000000,0.000000
11954894.000000,2.307286,-0.976306,-1.834890,-1.408001,-0.940528,1.695971,0.457277,-0.050827,-0.308645,-0.247167,-0.398615,-0.291959,0.472180,0.163204,0.153547,34.409527,21.655380,10.861998,0.512174,1.897079,0.067611,0.000000,0.000000,0.000000,0.000000,0.000000,0.000000
11954895.000000,2.307250,-0.976608,-1.835128,-1.408406,-0.940820,1.696442,0.457452,-0.046024,-0.304071,-0.241510,-0.399361,-0.291798,0.465094,0.167081,-0.290789,34.385723,21.532394,11.012754,0.559781,1.930038,0.015426,0.000000,0.000000,0.000000,0.000000,0.000000,0.000000
11954896.000000,2.307219,-0.976921,-1.835365,-1.408811,-0.941121,1.696913,0.457618,-0.042460,-0.305430,-0.238818,-0.400134,-0.294898,0.463279,0.166632,-0.735125,34.409527,21.433212,11.183348,0.596403,2.020675,0.041976,0.000000,0.000000,0.000000,0.000000,0.000000,0.000000
11954897.000000,2.307186,-0.977234,-1.835593,-1.409232,-0.941416,1.697389,0.457786,-0.041338,-0.309628,-0.236302,-0.402527,-0.291222,0.466278,0.167791,-1.108050,34.532513,21.187241,11.457090,0.578092,2.001449,0.034652,0.000000,0.000000,0.000000,0.000000,0.000000,0.000000
11954898.000000,2.307158,-0.977562,-1.835823,-1.409636,-0.941714,1.697865,0.457954,-0.037328,-0.317905,-0.233079,-0.405037,-0.293450,0.469078,0.167025,-1.480975,34.750713,20.992844,11.603880,0.559781,1.930038,0.061202,0.000000,0.000000,0.000000,0.000000,0.000000,0.000000
11954899.000000,2.307129,-0.977893,-1.836040,-1.410041,-0.942005,1.698336,0.458122,-0.032312,-0.323353,-0.227407,-0.402135,-0.290329,0.471372,0.167611,-1.802325,34.972881,20.794479,11.679258,0.554288,1.884261,0.041976,0.000000,0.000000,0.000000,0.000000,0.000000,0.000000
11954900.000000,2.307104,-0.978224,-1.836250,-1.410468,-0.942297,1.698806,0.458292,-0.031565,-0.321764,-0.219415,-0.405448,-0.292570,0.467404,0.167868,-2.123675,35.290264,20.576279,11.849852,0.518583,1.871444,0.048385,0.000000,0.000000,0.000000,0.000000,0.000000,0.000000
11954901.000000,2.307079,-0.978574,-1.836451,-1.410873,-0.942594,1.699282,0.458463,-0.027845,-0.333470,-0.214672,-0.405712,-0.293990,0.468628,0.168589,-2.445025,35.706829,20.306503,12.048216,0.494779,1.865035,0.054794,0.000000,0.000000,0.000000,0.000000,0.000000,0.000000
11954902.000000,2.307055,-0.978923,-1.836659,-1.411287,-0.942895,1.699748,0.458633,-0.025861,-0.339907,-0.211901,-0.402838,-0.292346,0.470313,0.169390,-2.718768,36.024212,20.159714,12.171202,0.524076,1.838485,0.041976,0.000000,0.000000,0.000000,0.000000,0.000000,0.000000
11954903.000000,2.307030,-0.979266,-1.836859,-1.411688,-0.943177,1.700217,0.458801,-0.025147,-0.343462,-0.208312,-0.400575,-0.289703,0.466272,0.164405,-2.964739,36.293987,19.937546,12.246580,0.500272,1.786300,0.074935,0.000000,0.000000,0.000000,0.000000,0.000000,0.000000
11954904.000000,2.307000,-0.979615,-1.837064,-1.412110,-0.943468,1.700686,0.458974,-0.026668,-0.346785,-0.206418,-0.404918,-0.291186,0.468950,0.167170,-3.111529,36.488384,19.885971,12.444944,0.476469,1.747848,0.041976,0.000000,0.000000,0.000000,0.000000,0.000000,0.000000
11954905.000000,2.306968,-0.979963,-1.837262,-1.412533,-0.943758,1.701162,0.459138,-0.028307,-0.341417,-0.204592,-0.405025,-0.288870,0.464823,0.166655,-3.210711,36.758160,19.715378,12.643309,0.458158,1.741439,0.074935,0.000000,0.000000,0.000000,0.000000,0.000000,0.000000
11954906.000000,2.306936,-0.980319,-1.837461,-1.412935,-0.944047,1.701636,0.459306,-0.030793,-0.347285,-0.205480,-0.405015,-0.286796,0.470172,0.166887,-3.262286,36.980328,19.667770,12.690916,0.428861,1.767074,0.081344,0.000000,0.000000,0.000000,0.000000,0.000000,0.000000
11954907.000000,2.306900,-0.980679,-1.837655,-1.413352,-0.944330,1.702104,0.459476,-0.033310,-0.349375,-0.200036,-0.405183,-0.284695,0.468760,0.169716,-3.262286,37.246136,19.592392,12.913084,0.398649,1.812850,0.028243,0.000000,0.000000,0.000000,0.000000,0.000000,0.000000
11954908.000000,2.306860,-0.981027,-1.837854,-1.413760,-0.944613,1.702572,0.459636,-0.036730,-0.354664,-0.196851,-0.413726,-0.289817,0.467463,0.167389,-3.186907,37.392925,19.568588,13.036070,0.393156,1.838485,0.087753,0.000000,0.000000,0.000000,0.000000,0.000000,0.000000
11954909.000000,2.306817,-0.981380,-1.838051,-1.414178,-0.944900,1.703048,0.459817,-0.039405,-0.353671,-0.197719,-0.413055,-0.290087,0.483523,0.170596,-3.087725,37.515911,19.544785,13.286009,0.339139,1.865035,0.021835,0.000000,0.000000,0.000000,0.000000,0.000000,0.000000
11954910.000000,2.306766,-0.981726,-1.838253,-1.414597,-0.945184,1.703524,0.459979,-0.046872,-0.347836,-0.196162,-0.411884,-0.289367,0.482392,0.167659,-2.889361,37.686504,19.568588,13.408995,0.351041,1.812850,0.094161,0.000000,0.000000,0.000000,0.000000,0.000000,0.000000
11954911.000000,2.306716,-0.982083,-1.838460,-1.414997,-0.945474,1.704002,0.460156,-0.048279,-0.352443,-0.195443,-0.409134,-0.284492,0.485126,0.169782,-2.718768,37.908672,19.616196,13.555784,0.381254,1.767074,0.048385,0.000000,0.000000,0.000000,0.000000,0.000000,0.000000
11954912.000000,2.306660,-0.982442,-1.838663,-1.415409,-0.945754,1.704468,0.460324,-0.053437,-0.355672,-0.198097,-0.409047,-0.282783,0.475665,0.172303,-2.492632,38.154644,19.667770,13.678770,0.351041,1.806442,0.081344,0.000000,0.000000,0.000000,0.000000,0.000000,0.000000
11954913.000000,2.306598,-0.982807,-1.838870,-1.415813,-0.946045,1.704931,0.460501,-0.055741,-0.355505,-0.201909,-0.404356,-0.289876,0.468026,0.173808,-2.199053,38.448223,19.691574,13.706541,0.393156,1.844894,0.041976,0.000000,0.000000,0.000000,0.000000,0.000000,0.000000
11954914.000000,2.306537,-0.983173,-1.839082,-1.416205,-0.946337,1.705404,0.460665,-0.059239,-0.357452,-0.202974,-0.401078,-0.287660,0.470388,0.171804,-1.949114,38.690228,19.885971,13.607359,0.398649,1.812850,0.067611,0.000000,0.000000,0.000000,0.000000,0.000000,0.000000
11954915.000000,2.306470,-0.983548,-1.839293,-1.416602,-0.946624,1.705875,0.460831,-0.062113,-0.368662,-0.207860,-0.394489,-0.280583,0.472204,0.171763,-1.679339,39.035381,20.008957,13.484373,0.362943,1.767074,0.074935,0.000000,0.000000,0.000000,0.000000,0.000000,0.000000
11954916.000000,2.306397,-0.983911,-1.839508,-1.416984,-0.946908,1.706336,0.461006,-0.066058,-0.370135,-0.212325,-0.396394,-0.281000,0.465939,0.177378,-1.330218,39.229778,20.159714,13.333616,0.344633,1.779891,0.034652,0.000000,0.000000,0.000000,0.000000,0.000000,0.000000
11954917.000000,2.306326,-0.984283,-1.839726,-1.417366,-0.947203,1.706789,0.461173,-0.067439,-0.371802,-0.216622,-0.389842,-0.280768,0.459662,0.173719,-1.032672,39.475750,20.354111,13.111448,0.327238,1.851302,0.081344,0.000000,0.000000,0.000000,0.000000,0.000000,0.000000
11954918.000000,2.306252,-0.984657,-1.839950,-1.417753,-0.947501,1.707250,0.461341,-0.068331,-0.368951,-0.219819,-0.388486,-0.282537,0.457021,0.174577,-0.735125,39.693951,20.576279,12.889280,0.339139,1.871444,0.034652,0.000000,0.000000,0.000000,0.000000,0.000000,0.000000
11954919.000000,2.306172,-0.985024,-1.840172,-1.418123,-0.947798,1.707717,0.461503,-0.070073,-0.365274,-0.223622,-0.384781,-0.282866,0.458195,0.172612,-0.389971,39.816936,20.770676,12.667112,0.339139,1.819259,0.067611,0.000000,0.000000,0.000000,0.000000,0.000000,0.000000
11954920.000000,2.306089,-0.985386,-1.840412,-1.418497,-0.948091,1.708178,0.461668,-0.075177,-0.367446,-0.228000,-0.383970,-0.282240,0.462863,0.173236,-0.017047,39.840740,21.115829,12.421141,0.327238,1.786300,0.034652,0.000000,0.000000,0.000000,0.000000,0.000000,0.000000
11954921.000000,2.305998,-0.985744,-1.840644,-1.418867,-0.948394,1.708643,0.461828,-0.080043,-0.366814,-0.226223,-0.380786,-0.293855,0.459984,0.166799,0.403486,39.892315,21.262619,12.298155,0.362943,1.767074,0.054794,0.000000,0.000000,0.000000,0.000000,0.000000,0.000000
11954922.000000,2.305912,-0.986095,-1.840881,-1.419237,-0.948709,1.709102,0.461986,-0.080990,-0.365511,-0.231830,-0.380502,-0.296003,0.469398,0.166246,0.724836,39.840740,21.556198,12.147398,0.398649,1.779891,0.094161,0.000000,0.000000,0.000000,0.000000,0.000000,0.000000
11954923.000000,2.305824,-0.986433,-1.841123,-1.419613,-0.949015,1.709564,0.462153,-0.082202,-0.353392,-0.235485,-0.373971,-0.303674,0.468075,0.169931,1.046186,39.693951,21.849777,12.000608,0.434354,1.825668,0.028243,0.000000,0.000000,0.000000,0.000000,0.000000,0.000000
11954924.000000,2.305725,-0.986776,-1.841363,-1.419965,-0.949322,1.710015,0.462314,-0.088307,-0.354879,-0.237712,-0.371291,-0.304349,0.461340,0.168115,1.466718,39.646343,22.095749,11.802244,0.452665,1.897079,0.067611,0.000000,0.000000,0.000000,0.000000,0.000000,0.000000
11954925.000000,2.305633,-0.987118,-1.841613,-1.420318,-0.949629,1.710466,0.462485,-0.089964,-0.350182,-0.244307,-0.364436,-0.310880,0.452851,0.168781,1.764264,39.499554,22.440903,11.556273,0.405057,1.949264,0.028243,0.000000,0.000000,0.000000,0.000000,0.000000,0.000000
11954926.000000,2.305543,-0.987450,-1.841855,-1.420670,-0.949942,1.710928,0.462643,-0.088888,-0.343404,-0.241870,-0.367240,-0.314420,0.448584,0.166780,1.962629,39.376568,22.611496,11.429319,0.416959,1.923629,0.087753,0.000000,0.000000,0.000000,0.000000,0.000000,0.000000
11954927.000000,2.305457,-0.987783,-1.842101,-1.421012,-0.950262,1.711394,0.462810,-0.090601,-0.341451,-0.241520,-0.357045,-0.312109,0.456659,0.163671,2.109418,39.106792,22.833664,11.107969,0.458158,1.865035,0.087753,0.000000,0.000000,0.000000,0.000000,0.000000,0.000000
11954928.000000,2.305370,-0.988117,-1.842359,-1.421352,-0.950561,1.711840,0.462973,-0.088815,-0.340248,-0.248582,-0.349306,-0.305637,0.448990,0.166013,2.260175,38.912395,23.103439,10.786619,0.422452,1.909896,0.067611,0.000000,0.000000,0.000000,0.000000,0.000000,0.000000
11954929.000000,2.305283,-0.988453,-1.842614,-1.421690,-0.950886,1.712283,0.463143,-0.087773,-0.343719,-0.252973,-0.348439,-0.313328,0.441460,0.168061,2.406965,38.765606,23.325607,10.516844,0.512174,1.981307,0.028243,0.000000,0.000000,0.000000,0.000000,0.000000,0.000000
11954930.000000,2.305199,-0.988788,-1.842861,-1.422030,-0.951214,1.712729,0.463303,-0.085020,-0.339547,-0.249452,-0.345619,-0.312877,0.442963,0.167319,2.482343,38.519634,23.520004,10.294676,0.596403,2.020675,0.034652,0.000000,0.000000,0.000000,0.000000,0.000000,0.000000
11954931.000000,2.305115,-0.989118,-1.843110,-1.422362,-0.951531,1.713188,0.463468,-0.081478,-0.336212,-0.252737,-0.342895,-0.316154,0.447127,0.166662,2.581525,38.396648,23.718369,10.048704,0.620206,1.968490,0.067611,0.000000,0.000000,0.000000,0.000000,0.000000,0.000000
11954932.000000,2.305036,-0.989458,-1.843364,-1.422697,-0.951848,1.713647,0.463641,-0.079768,-0.337703,-0.255481,-0.340678,-0.317445,0.451156,0.169108,2.605329,38.301434,23.912766,9.921751,0.632108,1.903487,0.021835,0.000000,0.000000,0.000000,0.000000,0.000000,0.000000
11954933.000000,2.304955,-0.989786,-1.843611,-1.423029,-0.952168,1.714101,0.463800,-0.081817,-0.333907,-0.251899,-0.335573,-0.318407,0.451170,0.167557,2.629133,38.103069,23.988144,9.822569,0.632108,1.903487,0.067611,0.000000,0.000000,0.000000,0.000000,0.000000,0.000000
11954934.000000,2.304876,-0.990118,-1.843857,-1.423363,-0.952491,1.714559,0.463973,-0.083307,-0.334629,-0.248706,-0.337138,-0.318327,0.450439,0.169973,2.652936,38.055462,24.035751,9.798765,0.601896,1.909896,0.015426,0.000000,0.000000,0.000000,0.000000,0.000000,0.000000
11954935.000000,2.304803,-0.990451,-1.844110,-1.423697,-0.952817,1.715003,0.464136,-0.079603,-0.333350,-0.248952,-0.335391,-0.318032,0.450090,0.163750,2.605329,37.984051,24.182541,9.798765,0.601896,1.930038,0.054794,0.000000,0.000000,0.000000,0.000000,0.000000,0.000000
11954936.000000,2.304730,-0.990768,-1.844349,-1.424038,-0.953131,1.715452,0.464299,-0.078062,-0.323469,-0.241407,-0.334632,-0.319697,0.447372,0.161071,2.581525,37.833294,24.158737,9.850340,0.608304,2.020675,0.041976,0.000000,0.000000,0.000000,0.000000,0.000000,0.000000
11954937.000000,2.304665,-0.991090,-1.844591,-1.424370,-0.953456,1.715913,0.464462,-0.074252,-0.322336,-0.246922,-0.335912,-0.324242,0.444321,0.158420,2.454572,37.615093,24.234116,9.973326,0.578092,2.007858,0.034652,0.000000,0.000000,0.000000,0.000000,0.000000,0.000000
11954938.000000,2.304600,-0.991408,-1.844823,-1.424712,-0.953783,1.716372,0.464625,-0.071748,-0.319695,-0.243293,-0.335682,-0.324446,0.452076,0.160295,2.331586,37.444500,24.182541,10.219297,0.608304,1.988631,0.061202,0.000000,0.000000,0.000000,0.000000,0.000000,0.000000
11954939.000000,2.304535,-0.991724,-1.845060,-1.425057,-0.954101,1.716828,0.464796,-0.071098,-0.325086,-0.241218,-0.339097,-0.324830,0.446535,0.164487,2.232404,37.297710,24.158737,10.465269,0.625699,1.988631,0.028243,0.000000,0.000000,0.000000,0.000000,0.000000,0.000000
11954940.000000,2.304470,-0.992036,-1.845285,-1.425397,-0.954421,1.717266,0.464958,-0.067704,-0.318089,-0.238922,-0.338477,-0.324271,0.449966,0.164067,2.160993,37.027935,24.083359,10.592222,0.661405,2.001449,0.074935,0.000000,0.000000,0.000000,0.000000,0.000000,0.000000
11954941.000000,2.304419,-0.992350,-1.845508,-1.425752,-0.954747,1.717707,0.465128,-0.064512,-0.317151,-0.231341,-0.343434,-0.325112,0.448443,0.167408,1.934858,36.928753,23.912766,10.838194,0.691617,2.053634,0.028243,0.000000,0.000000,0.000000,0.000000,0.000000,0.000000
11954942.000000,2.304366,-0.992666,-1.845730,-1.426098,-0.955069,1.718147,0.465300,-0.060610,-0.317565,-0.225842,-0.343482,-0.323876,0.442360,0.168278,1.764264,36.682781,23.718369,11.060362,0.673307,2.118636,0.009017,0.000000,0.000000,0.000000,0.000000,0.000000,0.000000
11954943.000000,2.304315,-0.992994,-1.845942,-1.426440,-0.955385,1.718580,0.465466,-0.058041,-0.320639,-0.222320,-0.343775,-0.320438,0.440959,0.168887,1.589704,36.710552,23.543808,11.183348,0.613798,2.112228,0.001693,0.000000,0.000000,0.000000,0.000000,0.000000,0.000000
11954944.000000,2.304263,-0.993312,-1.846146,-1.426790,-0.955699,1.719023,0.465620,-0.053902,-0.316705,-0.214659,-0.345593,-0.320997,0.439618,0.161178,1.442914,36.658978,23.297836,11.334105,0.596403,2.079269,0.087753,0.000000,0.000000,0.000000,0.000000,0.000000,0.000000
11954945.000000,2.304218,-0.993635,-1.846345,-1.427149,-0.956015,1.719461,0.465793,-0.052277,-0.317528,-0.209923,-0.345866,-0.322285,0.435044,0.164948,1.244550,36.635174,23.055832,11.580076,0.512174,2.039901,0.054794,0.000000,0.000000,0.000000,0.000000,0.000000,0.000000
11954946.000000,2.304178,-0.993956,-1.846546,-1.427508,-0.956331,1.719891,0.465968,-0.049827,-0.323562,-0.205482,-0.350562,-0.325569,0.434691,0.168439,0.994611,36.658978,22.786057,11.778440,0.512174,2.027084,-0.004716,0.000000,0.000000,0.000000,0.000000,0.000000,0.000000
11954947.000000,2.304134,-0.994289,-1.846738,-1.427861,-0.956651,1.720322,0.466128,-0.047875,-0.325775,-0.198610,-0.350749,-0.326536,0.431622,0.160916,0.847822,36.734356,22.488510,11.949034,0.547880,2.079269,0.067611,0.000000,0.000000,0.000000,0.000000,0.000000,0.000000
11954948.000000,2.304096,-0.994618,-1.846929,-1.428218,-0.956970,1.720756,0.466297,-0.041022,-0.323741,-0.194259,-0.350692,-0.324355,0.432542,0.168280,0.625654,36.833538,22.218735,12.123594,0.535978,2.079269,0.034652,0.000000,0.000000,0.000000,0.000000,0.000000,0.000000
11954949.000000,2.304063,-0.994946,-1.847123,-1.428580,-0.957291,1.721204,0.466465,-0.035662,-0.321814,-0.194288,-0.351728,-0.321001,0.439700,0.167721,0.375715,36.928753,21.972763,12.321959,0.571683,2.014266,0.048385,0.000000,0.000000,0.000000,0.000000,0.000000,0.000000
11954950.000000,2.304025,-0.995269,-1.847310,-1.428943,-0.957606,1.721654,0.466636,-0.034006,-0.320608,-0.194975,-0.351849,-0.319986,0.444759,0.168870,0.228925,36.881145,21.726791,12.643309,0.554288,1.968490,0.028243,0.000000,0.000000,0.000000,0.000000,0.000000,0.000000
11954951.000000,2.303996,-0.995596,-1.847496,-1.429305,-0.957917,1.722098,0.466797,-0.033242,-0.325502,-0.190179,-0.354119,-0.314825,0.444778,0.169148,-0.017047,36.904949,21.532394,12.813902,0.535978,1.890670,0.034652,0.000000,0.000000,0.000000,0.000000,0.000000,0.000000
11954952.000000,2.303963,-0.995921,-1.847674,-1.429664,-0.958231,1.722546,0.466963,-0.034726,-0.327262,-0.185251,-0.353233,-0.316634,0.449942,0.168175,-0.191607,36.857342,21.286423,12.988462,0.524076,1.897079,0.061202,0.000000,0.000000,0.000000,0.000000,0.000000,0.000000
11954953.000000,2.303929,-0.996233,-1.847847,-1.430036,-0.958549,1.722985,0.467139,-0.033853,-0.317995,-0.184860,-0.360340,-0.311968,0.442941,0.170430,-0.314593,36.682781,21.040451,13.210630,0.512174,1.974899,0.015426,0.000000,0.000000,0.000000,0.000000,0.000000,0.000000
11954954.000000,2.303898,-0.996549,-1.848023,-1.430416,-0.958855,1.723426,0.467303,-0.035809,-0.315255,-0.184232,-0.363192,-0.313420,0.438988,0.168477,-0.441546,36.535992,20.794479,13.484373,0.464567,2.020675,0.061202,0.000000,0.000000,0.000000,0.000000,0.000000,0.000000
11954955.000000,2.303861,-0.996867,-1.848194,-1.430785,-0.959164,1.723884,0.467477,-0.036577,-0.317375,-0.183638,-0.366391,-0.305965,0.438742,0.165157,-0.465350,36.365398,20.576279,13.654966,0.446256,1.995040,0.041976,0.000000,0.000000,0.000000,0.000000,0.000000,0.000000
11954956.000000,2.303825,-0.997178,-1.848367,-1.431164,-0.959479,1.724329,0.467642,-0.037699,-0.318704,-0.178468,-0.368176,-0.308595,0.439331,0.166487,-0.465350,36.171001,20.377914,13.829527,0.416959,1.949264,0.041976,0.000000,0.000000,0.000000,0.000000,0.000000,0.000000
11954957.000000,2.303795,-0.997498,-1.848543,-1.431537,-0.959792,1.724766,0.467815,-0.036103,-0.316828,-0.175694,-0.374360,-0.303580,0.440314,0.168149,-0.540728,36.048016,20.231125,14.000120,0.416959,1.974899,0.021835,0.000000,0.000000,0.000000,0.000000,0.000000,0.000000
11954958.000000,2.303761,-0.997810,-1.848718,-1.431924,-0.960112,1.725202,0.467981,-0.038725,-0.311874,-0.177175,-0.375734,-0.303458,0.447622,0.163991,-0.588336,35.901226,20.108139,14.198484,0.452665,2.047225,0.015426,0.000000,0.000000,0.000000,0.000000,0.000000,0.000000
11954959.000000,2.303725,-0.998131,-1.848896,-1.432295,-0.960419,1.725647,0.468143,-0.039108,-0.312420,-0.175973,-0.366751,-0.300807,0.444036,0.164709,-0.588336,35.948833,20.036728,14.127073,0.458158,2.053634,0.034652,0.000000,0.000000,0.000000,0.000000,0.000000,0.000000
11954960.000000,2.303693,-0.998449,-1.849074,-1.432661,-0.960740,1.726103,0.468307,-0.038630,-0.318333,-0.176362,-0.366178,-0.306258,0.444696,0.165847,-0.612139,35.901226,20.008957,14.150877,0.440763,1.962081,0.028243,0.000000,0.000000,0.000000,0.000000,0.000000,0.000000
11954961.000000,2.303660,-0.998774,-1.849237,-1.433024,-0.961061,1.726555,0.468473,-0.037519,-0.322659,-0.173225,-0.360607,-0.303526,0.445125,0.166952,-0.663714,36.024212,19.862167,14.099302,0.405057,1.871444,0.028243,0.000000,0.000000,0.000000,0.000000,0.000000,0.000000
11954962.000000,2.303619,-0.999092,-1.849409,-1.433378,-0.961375,1.726997,0.468639,-0.039520,-0.318540,-0.172417,-0.361898,-0.308413,0.441626,0.163613,-0.588336,36.024212,19.790756,13.976316,0.386747,1.865035,0.009017,0.000000,0.000000,0.000000,0.000000,0.000000,0.000000
11954963.000000,2.303579,-0.999418,-1.849585,-1.433735,-0.961689,1.727439,0.468800,-0.040634,-0.318261,-0.176462,-0.357082,-0.309528,0.441994,0.159110,-0.512957,36.123394,19.766953,13.853331,0.344633,1.923629,0.034652,0.000000,0.000000,0.000000,0.000000,0.000000,0.000000
11954964.000000,2.303545,-0.999723,-1.849759,-1.434087,-0.962019,1.727874,0.468964,-0.039281,-0.320144,-0.174891,-0.355355,-0.321845,0.438171,0.162520,-0.540728,36.000408,19.691574,13.706541,0.393156,1.962081,0.021835,0.000000,0.000000,0.000000,0.000000,0.000000,0.000000
11954965.000000,2.303508,-1.000034,-1.849936,-1.434434,-0.962350,1.728319,0.469120,-0.039715,-0.324125,-0.178245,-0.352388,-0.324244,0.431967,0.158378,-0.512957,35.829815,19.667770,13.583555,0.446256,1.955673,0.061202,0.000000,0.000000,0.000000,0.000000,0.000000,0.000000
11954966.000000,2.303466,-1.000340,-1.850114,-1.434789,-0.962674,1.728767,0.469276,-0.041548,-0.315453,-0.178547,-0.352326,-0.327096,0.439057,0.156069,-0.413775,35.607647,19.691574,13.555784,0.434354,1.903487,0.054794,0.000000,0.000000,0.000000,0.000000,0.000000,0.000000
11954967.000000,2.303424,-1.000642,-1.850293,-1.435140,-0.962993,1.729217,0.469443,-0.039568,-0.306683,-0.177119,-0.350265,-0.335760,0.445187,0.160715,-0.314593,35.290264,19.667770,13.432798,0.428861,1.825668,0.028243,0.000000,0.000000,0.000000,0.000000,0.000000,0.000000
11954968.000000,2.303387,-1.000957,-1.850467,-1.435474,-0.963325,1.729659,0.469604,-0.036789,-0.307980,-0.175730,-0.344454,-0.331889,0.448149,0.161019,-0.266986,35.119671,19.616196,13.262205,0.416959,1.779891,0.074935,0.000000,0.000000,0.000000,0.000000,0.000000,0.000000
11954969.000000,2.303347,-1.001269,-1.850647,-1.435810,-0.963667,1.730093,0.469775,-0.034771,-0.312982,-0.176978,-0.341867,-0.336389,0.441904,0.161255,-0.215411,34.972881,19.667770,13.063841,0.482877,1.838485,0.015426,0.000000,0.000000,0.000000,0.000000,0.000000,0.000000
11954970.000000,2.303309,-1.001581,-1.850819,-1.436131,-0.963988,1.730530,0.469940,-0.036796,-0.317636,-0.174889,-0.332536,-0.332623,0.436769,0.162770,-0.144000,34.849895,19.592392,12.790098,0.470060,1.897079,0.028243,0.000000,0.000000,0.000000,0.000000,0.000000,0.000000
11954971.000000,2.303265,-1.001895,-1.850993,-1.436451,-0.964315,1.730965,0.470104,-0.038697,-0.316090,-0.174206,-0.326439,-0.335536,0.435716,0.158978,-0.044818,34.726910,19.544785,12.544127,0.398649,1.903487,0.054794,0.000000,0.000000,0.000000,0.000000,0.000000,0.000000
11954972.000000,2.303225,-1.002207,-1.851170,-1.436773,-0.964651,1.731412,0.470273,-0.041389,-0.310662,-0.175699,-0.319795,-0.324640,0.433468,0.163277,-0.017047,34.556316,19.469406,12.345762,0.381254,1.832076,0.015426,0.000000,0.000000,0.000000,0.000000,0.000000,0.000000
11954973.000000,2.303182,-1.002524,-1.851350,-1.437076,-0.964990,1.731858,0.470435,-0.041521,-0.313158,-0.178771,-0.313843,-0.329976,0.431190,0.163143,0.054365,34.457134,19.497177,12.099791,0.405057,1.754256,0.054794,0.000000,0.000000,0.000000,0.000000,0.000000,0.000000
11954974.000000,2.303141,-1.002841,-1.851531,-1.437388,-0.965325,1.732295,0.470601,-0.041891,-0.315834,-0.177478,-0.313526,-0.327267,0.436371,0.166424,0.129743,34.409527,19.469406,11.925230,0.393156,1.754256,0.015426,0.000000,0.000000,0.000000,0.000000,0.000000,0.000000
11954975.000000,2.303101,-1.003153,-1.851715,-1.437678,-0.965666,1.732736,0.470767,-0.044216,-0.311558,-0.180071,-0.310164,-0.333305,0.437553,0.166587,0.153547,34.286541,19.469406,11.655455,0.440763,1.800033,0.034652,0.000000,0.000000,0.000000,0.000000,0.000000,0.000000
11954976.000000,2.303063,-1.003474,-1.851904,-1.437978,-0.966014,1.733182,0.470938,-0.039148,-0.311529,-0.183450,-0.309554,-0.335960,0.443415,0.162266,0.153547,34.310345,19.520981,11.528502,0.494779,1.793624,0.041976,0.000000,0.000000,0.000000,0.000000,0.000000,0.000000
11954977.000000,2.303029,-1.003793,-1.852089,-1.438282,-0.966349,1.733636,0.471097,-0.038225,-0.313159,-0.184540,-0.305594,-0.337253,0.447791,0.158486,0.129743,34.262737,19.520981,11.405516,0.500272,1.721298,0.067611,0.000000,0.000000,0.000000,0.000000,0.000000,0.000000
11954978.000000,2.302981,-1.004114,-1.852274,-1.438578,-0.966680,1.734092,0.471268,-0.041603,-0.318104,-0.183042,-0.301349,-0.337268,0.445584,0.162587,0.276533,34.187359,19.544785,11.357908,0.464567,1.662704,0.028243,0.000000,0.000000,0.000000,0.000000,0.000000,0.000000
11954979.000000,2.302945,-1.004423,-1.852447,-1.438872,-0.967020,1.734527,0.471429,-0.040369,-0.319841,-0.178912,-0.299446,-0.340611,0.442737,0.159932,0.276533,34.064373,19.445602,11.258726,0.416959,1.649886,0.021835,0.000000,0.000000,0.000000,0.000000,0.000000,0.000000
11954980.000000,2.302912,-1.004741,-1.852633,-1.439162,-0.967361,1.734972,0.471588,-0.034699,-0.315385,-0.181473,-0.295883,-0.337805,0.441088,0.156378,0.205121,33.992962,19.469406,11.183348,0.440763,1.741439,0.054794,0.000000,0.000000,0.000000,0.000000,0.000000,0.000000
11954981.000000,2.302883,-1.005064,-1.852816,-1.439437,-0.967700,1.735420,0.471754,-0.036107,-0.317619,-0.182604,-0.287668,-0.332910,0.441592,0.160688,0.105939,33.992962,19.445602,11.012754,0.428861,1.800033,0.028243,0.000000,0.000000,0.000000,0.000000,0.000000,0.000000
11954982.000000,2.302848,-1.005391,-1.853002,-1.439718,-0.968035,1.735866,0.471916,-0.036606,-0.324096,-0.183517,-0.284877,-0.338419,0.450207,0.162814,0.105939,33.893780,19.421799,10.861998,0.386747,1.773483,0.034652,0.000000,0.000000,0.000000,0.000000,0.000000,0.000000
11954983.000000,2.302820,-1.005707,-1.853190,-1.439999,-0.968383,1.736316,0.472087,-0.031641,-0.321662,-0.187897,-0.285693,-0.340282,0.447148,0.165559,0.006757,33.746990,19.421799,10.814390,0.393156,1.721298,0.015426,0.000000,0.000000,0.000000,0.000000,0.000000,0.000000
11954984.000000,2.302794,-1.006029,-1.853376,-1.440279,-0.968733,1.736760,0.472254,-0.031217,-0.324378,-0.188696,-0.284359,-0.336393,0.441577,0.165239,-0.092425,33.699383,19.445602,10.814390,0.434354,1.649886,0.054794,0.000000,0.000000,0.000000,0.000000,0.000000,0.000000
11954985.000000,2.302768,-1.006351,-1.853561,-1.440557,-0.969070,1.737202,0.472430,-0.027805,-0.321505,-0.187188,-0.281335,-0.343526,0.445917,0.167670,-0.191607,33.600201,19.397995,10.739012,0.446256,1.597701,0.021835,0.000000,0.000000,0.000000,0.000000,0.000000,0.000000
11954986.000000,2.302743,-1.006690,-1.853744,-1.440827,-0.969422,1.737639,0.472605,-0.028387,-0.325863,-0.183241,-0.279644,-0.349129,0.435745,0.168774,-0.290789,33.723186,19.346420,10.691404,0.482877,1.649886,0.001693,0.000000,0.000000,0.000000,0.000000,0.000000,0.000000
11954987.000000,2.302722,-1.007031,-1.853925,-1.441094,-0.969776,1.738063,0.472766,-0.024335,-0.333980,-0.186160,-0.276382,-0.347783,0.428673,0.166635,-0.441546,33.794598,19.275009,10.592222,0.518583,1.695663,0.074935,0.000000,0.000000,0.000000,0.000000,0.000000,0.000000
11954988.000000,2.302703,-1.007361,-1.854109,-1.441371,-0.970116,1.738496,0.472943,-0.022566,-0.327254,-0.183272,-0.280294,-0.346785,0.428717,0.169313,-0.564532,33.794598,19.251205,10.592222,0.518583,1.702071,0.028243,0.000000,0.000000,0.000000,0.000000,0.000000,0.000000
11954989.000000,2.302681,-1.007695,-1.854285,-1.441647,-0.970449,1.738930,0.473115,-0.021304,-0.330566,-0.182494,-0.275924,-0.344267,0.429315,0.168153,-0.663714,33.893780,19.152023,10.564451,0.398649,1.591293,0.061202,0.000000,0.000000,0.000000,0.000000,0.000000,0.000000
11954990.000000,2.302665,-1.008033,-1.854471,-1.441913,-0.970792,1.739357,0.473290,-0.022361,-0.327784,-0.179778,-0.270984,-0.343520,0.422388,0.173931,-0.810504,34.040569,19.104416,10.465269,0.374845,1.546432,0.048385,0.000000,0.000000,0.000000,0.000000,0.000000,0.000000
11954991.000000,2.302653,-1.008366,-1.854656,-1.442185,-0.971138,1.739783,0.473470,-0.019322,-0.327657,-0.184199,-0.270973,-0.348970,0.427447,0.174094,-1.008868,34.064373,19.052841,10.393858,0.374845,1.597701,0.009017,0.000000,0.000000,0.000000,0.000000,0.000000,0.000000
11954992.000000,2.302639,-1.008710,-1.854839,-1.442463,-0.971477,1.740201,0.473643,-0.016069,-0.334358,-0.181446,-0.271765,-0.346650,0.421761,0.172794,-1.108050,34.115948,19.005234,10.370054,0.381254,1.662704,0.015426,0.000000,0.000000,0.000000,0.000000,0.000000,0.000000
11954993.000000,2.302622,-1.009045,-1.855018,-1.442733,-0.971819,1.740626,0.473814,-0.017394,-0.327315,-0.180416,-0.274393,-0.351984,0.415172,0.170273,-1.183428,34.115948,18.882248,10.342283,0.398649,1.649886,0.061202,0.000000,0.000000,0.000000,0.000000,0.000000,0.000000
11954994.000000,2.302608,-1.009382,-1.855204,-1.443017,-0.972173,1.741061,0.473992,-0.013852,-0.332395,-0.182962,-0.275725,-0.352139,0.416558,0.171724,-1.306414,34.139751,18.882248,10.370054,0.494779,1.617843,0.021835,0.000000,0.000000,0.000000,0.000000,0.000000,0.000000
11954995.000000,2.302590,-1.009724,-1.855392,-1.443303,-0.972507,1.741489,0.474160,-0.013825,-0.333243,-0.181947,-0.275890,-0.348371,0.418210,0.171536,-1.330218,34.163555,18.906052,10.370054,0.482877,1.559249,0.015426,0.000000,0.000000,0.000000,0.000000,0.000000,0.000000
11954996.000000,2.302572,-1.010070,-1.855578,-1.443580,-0.972844,1.741910,0.474327,-0.016631,-0.340350,-0.183053,-0.276049,-0.350455,0.417032,0.174359,-1.354022,34.262737,18.882248,10.370054,0.440763,1.546432,0.041976,0.000000,0.000000,0.000000,0.000000,0.000000,0.000000
11954997.000000,2.302561,-1.010432,-1.855758,-1.443861,-0.973198,1.742331,0.474505,-0.016166,-0.345061,-0.183935,-0.277747,-0.347355,0.418935,0.182360,-1.480975,34.409527,18.858444,10.294676,0.446256,1.597701,0.021835,0.000000,0.000000,0.000000,0.000000,0.000000,0.000000
11954998.000000,2.302546,-1.010783,-1.855944,-1.444137,-0.973537,1.742759,0.474678,-0.015117,-0.342287,-0.184026,-0.275004,-0.345976,0.415896,0.178263,-1.504779,34.556316,18.830673,10.171690,0.422452,1.643478,0.048385,0.000000,0.000000,0.000000,0.000000,0.000000,0.000000
11954999.000000,2.302524,-1.011138,-1.856133,-1.444417,-0.973875,1.743193,0.474848,-0.015976,-0.349654,-0.185857,-0.275858,-0.337939,0.416475,0.176657,-1.453204,34.679302,18.858444,10.171690,0.369352,1.624252,0.054794,0.000000,0.000000,0.000000,0.000000,0.000000,0.000000
11955000.000000,2.302504,-1.011493,-1.856321,-1.444704,-0.974216,1.743630,0.475023,-0.016290,-0.356898,-0.189655,-0.276564,-0.342200,0.423821,0.176061,-1.405596,34.849895,18.858444,10.195494,0.332731,1.546432,0.028243,0.000000,0.000000,0.000000,0.000000,0.000000,0.000000
11955001.000000,2.302477,-1.011851,-1.856516,-1.444982,-0.974568,1.744064,0.475191,-0.018802,-0.362734,-0.191445,-0.276763,-0.343174,0.427429,0.173408,-1.254840,35.044292,18.953659,10.195494,0.339139,1.487838,0.067611,0.000000,0.000000,0.000000,0.000000,0.000000,0.000000
11955002.000000,2.302455,-1.012214,-1.856711,-1.445267,-0.974921,1.744483,0.475363,-0.018169,-0.361390,-0.192887,-0.279221,-0.343718,0.429252,0.174540,-1.207232,35.214886,19.052841,10.294676,0.393156,1.474105,0.015426,0.000000,0.000000,0.000000,0.000000,0.000000,0.000000
11955003.000000,2.302430,-1.012569,-1.856907,-1.445551,-0.975266,1.744909,0.475522,-0.019068,-0.355686,-0.192276,-0.275810,-0.345618,0.423279,0.166848,-1.108050,35.437054,19.104416,10.318480,0.446256,1.539108,0.061202,0.000000,0.000000,0.000000,0.000000,0.000000,0.000000
11955004.000000,2.302398,-1.012927,-1.857100,-1.445837,-0.975622,1.745335,0.475696,-0.024088,-0.359192,-0.195230,-0.279037,-0.349502,0.425276,0.168845,-0.933489,35.536236,19.199631,10.441465,0.446256,1.559249,0.021835,0.000000,0.000000,0.000000,0.000000,0.000000,0.000000
11955005.000000,2.302372,-1.013283,-1.857296,-1.446119,-0.975984,1.745758,0.475858,-0.025479,-0.356785,-0.195485,-0.280628,-0.348769,0.423154,0.162500,-0.862078,35.536236,19.298813,10.441465,0.500272,1.546432,0.081344,0.000000,0.000000,0.000000,0.000000,0.000000,0.000000
11955006.000000,2.302341,-1.013634,-1.857489,-1.446407,-0.976323,1.746182,0.476029,-0.027685,-0.353366,-0.194185,-0.280680,-0.340726,0.420091,0.165502,-0.735125,35.508465,19.346420,10.493040,0.446256,1.552840,0.054794,0.000000,0.000000,0.000000,0.000000,0.000000,0.000000
11955007.000000,2.302314,-1.013984,-1.857690,-1.446696,-0.976670,1.746592,0.476200,-0.028783,-0.350433,-0.198417,-0.281149,-0.341523,0.420217,0.167643,-0.635943,35.337872,19.469406,10.564451,0.374845,1.578475,0.028243,0.000000,0.000000,0.000000,0.000000,0.000000,0.000000
11955008.000000,2.302280,-1.014326,-1.857888,-1.446979,-0.977019,1.747002,0.476358,-0.031390,-0.342679,-0.196279,-0.281748,-0.339562,0.416061,0.162470,-0.465350,35.167278,19.520981,10.516844,0.381254,1.656295,0.054794,0.000000,0.000000,0.000000,0.000000,0.000000,0.000000
11955009.000000,2.302245,-1.014682,-1.858094,-1.447259,-0.977370,1.747421,0.476523,-0.029615,-0.349404,-0.195593,-0.278827,-0.341356,0.418994,0.160013,-0.314593,35.044292,19.592392,10.441465,0.393156,1.708480,0.034652,0.000000,0.000000,0.000000,0.000000,0.000000,0.000000
11955010.000000,2.302208,-1.015037,-1.858298,-1.447549,-0.977719,1.747834,0.476680,-0.031489,-0.353960,-0.195550,-0.278435,-0.340674,0.418728,0.161781,-0.144000,34.945110,19.691574,10.465269,0.386747,1.702071,0.054794,0.000000,0.000000,0.000000,0.000000,0.000000,0.000000
11955011.000000,2.302166,-1.015391,-1.858500,-1.447832,-0.978075,1.748252,0.476847,-0.035326,-0.352671,-0.199268,-0.287599,-0.348727,0.417536,0.164507,0.129743,34.774517,19.691574,10.393858,0.446256,1.682845,0.034652,0.000000,0.000000,0.000000,0.000000,0.000000,0.000000
11955012.000000,2.302127,-1.015750,-1.858703,-1.448115,-0.978426,1.748670,0.477014,-0.035774,-0.352208,-0.197932,-0.285942,-0.346065,0.412625,0.165460,0.304304,34.774517,19.766953,10.294676,0.452665,1.676437,0.041976,0.000000,0.000000,0.000000,0.000000,0.000000,0.000000
11955013.000000,2.302090,-1.016107,-1.858911,-1.448400,-0.978769,1.749076,0.477181,-0.034719,-0.348787,-0.200992,-0.282709,-0.348562,0.409011,0.162857,0.427289,34.798321,19.885971,10.243101,0.476469,1.656295,0.015426,0.000000,0.000000,0.000000,0.000000,0.000000,0.000000
11955014.000000,2.302046,-1.016474,-1.859112,-1.448675,-0.979124,1.749484,0.477340,-0.039890,-0.352382,-0.200548,-0.279175,-0.352972,0.410624,0.161759,0.649457,34.897503,19.885971,10.143919,0.500272,1.637069,0.081344,0.000000,0.000000,0.000000,0.000000,0.000000,0.000000
11955015.000000,2.302005,-1.016834,-1.859317,-1.448951,-0.979477,1.749892,0.477509,-0.038967,-0.357346,-0.201658,-0.279851,-0.347107,0.411484,0.169507,0.824018,34.897503,19.937546,10.048704,0.452665,1.637069,0.034652,0.000000,0.000000,0.000000,0.000000,0.000000,0.000000
11955016.000000,2.301967,-1.017185,-1.859529,-1.449229,-0.979821,1.750301,0.477675,-0.036825,-0.350975,-0.203078,-0.279092,-0.345108,0.411555,0.169278,0.923200,34.849895,20.036728,10.020933,0.410551,1.649886,0.041976,0.000000,0.000000,0.000000,0.000000,0.000000,0.000000
11955017.000000,2.301925,-1.017545,-1.859730,-1.449506,-0.980171,1.750707,0.477841,-0.039236,-0.359085,-0.201417,-0.279051,-0.348238,0.407935,0.164829,1.046186,34.921307,20.008957,10.020933,0.386747,1.643478,0.028243,0.000000,0.000000,0.000000,0.000000,0.000000,0.000000
11955018.000000,2.301882,-1.017889,-1.859938,-1.449785,-0.980529,1.751104,0.478004,-0.041377,-0.360822,-0.204227,-0.279601,-0.348887,0.402989,0.166085,1.192975,34.774517,20.008957,10.072508,0.332731,1.695663,0.028243,0.000000,0.000000,0.000000,0.000000,0.000000,0.000000
11955019.000000,2.301839,-1.018241,-1.860156,-1.450053,-0.980888,1.751503,0.478169,-0.039456,-0.349785,-0.208115,-0.276475,-0.354293,0.398956,0.165699,1.315961,34.703106,20.084335,10.096312,0.374845,1.735030,0.067611,0.000000,0.000000,0.000000,0.000000,0.000000,0.000000
11955020.000000,2.301793,-1.018598,-1.860362,-1.450329,-0.981244,1.751899,0.478348,-0.038593,-0.353130,-0.206677,-0.277176,-0.351524,0.401973,0.169408,1.466718,34.603924,20.108139,10.120115,0.416959,1.767074,0.001693,0.000000,0.000000,0.000000,0.000000,0.000000,0.000000
11955021.000000,2.301752,-1.018943,-1.860575,-1.450610,-0.981602,1.752307,0.478506,-0.040379,-0.346081,-0.205910,-0.276855,-0.348384,0.404418,0.166731,1.589704,34.480938,20.159714,10.243101,0.452665,1.793624,0.074935,0.000000,0.000000,0.000000,0.000000,0.000000,0.000000
11955022.000000,2.301711,-1.019293,-1.860777,-1.450877,-0.981965,1.752721,0.478673,-0.041173,-0.351583,-0.209151,-0.274165,-0.354102,0.402867,0.167313,1.688886,34.357952,20.131943,10.270872,0.500272,1.773483,0.074935,0.000000,0.000000,0.000000,0.000000,0.000000,0.000000
11955023.000000,2.301670,-1.019650,-1.860993,-1.451155,-0.982319,1.753130,0.478843,-0.041554,-0.354229,-0.211865,-0.275338,-0.353221,0.412419,0.161513,1.764264,34.310345,20.207321,10.318480,0.458158,1.721298,0.028243,0.000000,0.000000,0.000000,0.000000,0.000000,0.000000
11955024.000000,2.301632,-1.019995,-1.861209,-1.451419,-0.982670,1.753540,0.479006,-0.041056,-0.351031,-0.210491,-0.271353,-0.360384,0.411539,0.162355,1.811872,34.211163,20.278732,10.270872,0.440763,1.735030,0.061202,0.000000,0.000000,0.000000,0.000000,0.000000,0.000000
11955025.000000,2.301593,-1.020354,-1.861415,-1.451690,-0.983034,1.753951,0.479174,-0.041033,-0.356231,-0.209300,-0.270120,-0.359672,0.418306,0.165507,1.863447,34.187359,20.207321,10.294676,0.440763,1.747848,0.028243,0.000000,0.000000,0.000000,0.000000,0.000000,0.000000
11955026.000000,2.301562,-1.020709,-1.861631,-1.451952,-0.983386,1.754345,0.479339,-0.038293,-0.353777,-0.211020,-0.267745,-0.358123,0.414193,0.165125,1.811872,34.286541,20.254929,10.120115,0.386747,1.825668,0.067611,0.000000,0.000000,0.000000,0.000000,0.000000,0.000000
11955027.000000,2.301527,-1.021077,-1.861849,-1.452217,-0.983736,1.754751,0.479517,-0.038901,-0.359917,-0.212380,-0.269252,-0.353195,0.411138,0.167314,1.835676,34.409527,20.278732,10.072508,0.339139,1.909896,0.034652,0.000000,0.000000,0.000000,0.000000,0.000000,0.000000
11955028.000000,2.301496,-1.021435,-1.862059,-1.452480,-0.984105,1.755169,0.479682,-0.037437,-0.360134,-0.209883,-0.263457,-0.356469,0.410576,0.166249,1.788068,34.409527,20.306503,10.020933,0.381254,1.838485,0.081344,0.000000,0.000000,0.000000,0.000000,0.000000,0.000000
11955029.000000,2.301465,-1.021796,-1.862268,-1.452747,-0.984459,1.755593,0.479862,-0.036659,-0.361628,-0.207751,-0.269469,-0.353503,0.410511,0.169823,1.764264,34.457134,20.330307,10.048704,0.374845,1.727706,0.009017,0.000000,0.000000,0.000000,0.000000,0.000000,0.000000
11955030.000000,2.301436,-1.022161,-1.862475,-1.453013,-0.984823,1.756010,0.480033,-0.032070,-0.364376,-0.207561,-0.268192,-0.356689,0.407884,0.169250,1.688886,34.457134,20.401718,10.048704,0.422452,1.689254,0.021835,0.000000,0.000000,0.000000,0.000000,0.000000,0.000000
11955031.000000,2.301405,-1.022513,-1.862688,-1.453274,-0.985188,1.756416,0.480198,-0.030082,-0.367513,-0.209863,-0.260792,-0.367694,0.409311,0.167943,1.665082,34.433331,20.453293,10.048704,0.512174,1.682845,0.061202,0.000000,0.000000,0.000000,0.000000,0.000000,0.000000
11955032.000000,2.301382,-1.022872,-1.862898,-1.453538,-0.985554,1.756821,0.480368,-0.029530,-0.369547,-0.208270,-0.263848,-0.366717,0.404565,0.165220,1.565900,34.385723,20.477097,10.143919,0.524076,1.702071,0.015426,0.000000,0.000000,0.000000,0.000000,0.000000,0.000000
11955033.000000,2.301363,-1.023233,-1.863103,-1.453802,-0.985920,1.757220,0.480530,-0.028447,-0.368577,-0.205646,-0.262536,-0.360908,0.400623,0.164614,1.415143,34.310345,20.453293,10.219297,0.566190,1.747848,0.061202,0.000000,0.000000,0.000000,0.000000,0.000000,0.000000
11955034.000000,2.301345,-1.023584,-1.863317,-1.454069,-0.986270,1.757628,0.480705,-0.025282,-0.359357,-0.206282,-0.263416,-0.359407,0.398983,0.167510,1.292158,34.115948,20.552475,10.370054,0.500272,1.760665,0.021835,0.000000,0.000000,0.000000,0.000000,0.000000,0.000000
11955035.000000,2.301322,-1.023939,-1.863521,-1.454331,-0.986631,1.758030,0.480873,-0.024762,-0.359802,-0.206770,-0.266171,-0.355295,0.398279,0.168242,1.244550,34.064373,20.500900,10.493040,0.374845,1.760665,0.028243,0.000000,0.000000,0.000000,0.000000,0.000000,0.000000
11955036.000000,2.301309,-1.024300,-1.863724,-1.454599,-0.987002,1.758419,0.481035,-0.022067,-0.360905,-0.205163,-0.264697,-0.369147,0.394520,0.163924,1.093793,34.016766,20.500900,10.616026,0.405057,1.851302,0.028243,0.000000,0.000000,0.000000,0.000000,0.000000,0.000000
11955037.000000,2.301296,-1.024664,-1.863932,-1.454872,-0.987363,1.758807,0.481202,-0.020293,-0.357979,-0.203963,-0.266174,-0.367804,0.387492,0.161318,0.947004,34.139751,20.500900,10.838194,0.393156,1.909896,0.015426,0.000000,0.000000,0.000000,0.000000,0.000000,0.000000
11955038.000000,2.301281,-1.025033,-1.864141,-1.455135,-0.987737,1.759188,0.481358,-0.019865,-0.363894,-0.208700,-0.264006,-0.365485,0.388939,0.161801,0.847822,34.238934,20.600082,10.937376,0.405057,1.942855,0.061202,0.000000,0.000000,0.000000,0.000000,0.000000,0.000000
11955039.000000,2.301269,-1.025394,-1.864347,-1.455409,-0.988116,1.759585,0.481521,-0.019078,-0.359111,-0.208694,-0.266811,-0.372599,0.391140,0.160832,0.724836,34.334148,20.576279,11.084166,0.482877,1.936446,0.021835,0.000000,0.000000,0.000000,0.000000,0.000000,0.000000
11955040.000000,2.301260,-1.025759,-1.864556,-1.455685,-0.988492,1.759989,0.481677,-0.014737,-0.363813,-0.212872,-0.270655,-0.371426,0.390771,0.160766,0.574079,34.480938,20.623886,11.306334,0.506681,1.851302,0.074935,0.000000,0.000000,0.000000,0.000000,0.000000,0.000000
11955041.000000,2.301250,-1.026121,-1.864766,-1.455958,-0.988863,1.760386,0.481847,-0.015803,-0.365563,-0.212179,-0.270127,-0.367221,0.390354,0.166043,0.474897,34.457134,20.600082,11.405516,0.488370,1.760665,0.001693,0.000000,0.000000,0.000000,0.000000,0.000000,0.000000
11955042.000000,2.301243,-1.026475,-1.864968,-1.456232,-0.989238,1.760780,0.482012,-0.013074,-0.360314,-0.206971,-0.276874,-0.367197,0.393943,0.161711,0.375715,34.409527,20.500900,11.457090,0.494779,1.793624,0.015426,0.000000,0.000000,0.000000,0.000000,0.000000,0.000000
11955043.000000,2.301242,-1.026847,-1.865178,-1.456503,-0.989608,1.761161,0.482170,-0.009743,-0.364477,-0.208685,-0.275768,-0.367932,0.397166,0.160571,0.205121,34.457134,20.500900,11.429319,0.458158,1.909896,0.100570,0.000000,0.000000,0.000000,0.000000,0.000000,0.000000
11955044.000000,2.301239,-1.027206,-1.865379,-1.456778,-0.989975,1.761540,0.482340,-0.007837,-0.357064,-0.205484,-0.274109,-0.375584,0.394178,0.165048,0.054365,34.457134,20.453293,11.504698,0.452665,1.988631,0.048385,0.000000,0.000000,0.000000,0.000000,0.000000,0.000000
11955045.000000,2.301232,-1.027574,-1.865577,-1.457055,-0.990355,1.761938,0.482509,-0.008852,-0.364862,-0.201536,-0.275640,-0.377431,0.393746,0.167035,0.006757,34.409527,20.330307,11.556273,0.446256,2.014266,0.021835,0.000000,0.000000,0.000000,0.000000,0.000000,0.000000
11955046.000000,2.301229,-1.027946,-1.865778,-1.457333,-0.990728,1.762340,0.482670,-0.007973,-0.367607,-0.201892,-0.276321,-0.371372,0.398056,0.167628,-0.092425,34.433331,20.330307,11.603880,0.416959,1.923629,0.028243,0.000000,0.000000,0.000000,0.000000,0.000000,0.000000
11955047.000000,2.301222,-1.028312,-1.865985,-1.457610,-0.991092,1.762743,0.482831,-0.004830,-0.363812,-0.204496,-0.279416,-0.370525,0.396593,0.162065,-0.167803,34.334148,20.330307,11.726866,0.434354,1.806442,0.067611,0.000000,0.000000,0.000000,0.000000,0.000000,0.000000
11955048.000000,2.301219,-1.028685,-1.866181,-1.457886,-0.991480,1.763143,0.483002,-0.004915,-0.365790,-0.202216,-0.278133,-0.375667,0.396638,0.165407,-0.266986,34.286541,20.254929,11.726866,0.512174,1.793624,0.034652,0.000000,0.000000,0.000000,0.000000,0.000000,0.000000
11955049.000000,2.301212,-1.029049,-1.866385,-1.458167,-0.991863,1.763527,0.483161,-0.006422,-0.372195,-0.204573,-0.278818,-0.377247,0.393646,0.165070,-0.314593,34.262737,20.231125,11.802244,0.542386,1.858627,0.074935,0.000000,0.000000,0.000000,0.000000,0.000000,0.000000
11955050.000000,2.301212,-1.029429,-1.866585,-1.458434,-0.992237,1.763913,0.483327,-0.005607,-0.369220,-0.205476,-0.274922,-0.379570,0.387422,0.161121,-0.441546,34.357952,20.159714,11.802244,0.559781,1.890670,0.081344,0.000000,0.000000,0.000000,0.000000,0.000000,0.000000
11955051.000000,2.301212,-1.029805,-1.866784,-1.458711,-0.992614,1.764299,0.483493,-0.001332,-0.374042,-0.203557,-0.273153,-0.377455,0.387529,0.160167,-0.588336,34.385723,20.108139,11.849852,0.530485,1.942855,0.041976,0.000000,0.000000,0.000000,0.000000,0.000000,0.000000
11955052.000000,2.301204,-1.030177,-1.866977,-1.458989,-0.992978,1.764706,0.483650,-0.004390,-0.371019,-0.200403,-0.272540,-0.364265,0.391716,0.160714,-0.612139,34.385723,20.008957,11.925230,0.458158,1.897079,0.087753,0.000000,0.000000,0.000000,0.000000,0.000000,0.000000
11955053.000000,2.301201,-1.030553,-1.867166,-1.459253,-0.993346,1.765116,0.483818,-0.002572,-0.377591,-0.199372,-0.273454,-0.366826,0.396144,0.161501,-0.663714,34.457134,19.937546,11.925230,0.410551,1.806442,0.015426,0.000000,0.000000,0.000000,0.000000,0.000000,0.000000
11955054.000000,2.301199,-1.030932,-1.867361,-1.459532,-0.993711,1.765512,0.483974,-0.000034,-0.380335,-0.200064,-0.271681,-0.373073,0.401031,0.162730,-0.762896,34.433331,19.937546,11.976805,0.386747,1.793624,0.034652,0.000000,0.000000,0.000000,0.000000,0.000000,0.000000
11955055.000000,2.301193,-1.031305,-1.867551,-1.459796,-0.994085,1.765905,0.484126,-0.002711,-0.372602,-0.197456,-0.268929,-0.377580,0.396317,0.163142,-0.810504,34.433331,19.814560,11.949034,0.410551,1.865035,0.094161,0.000000,0.000000,0.000000,0.000000,0.000000,0.000000
11955056.000000,2.301192,-1.031685,-1.867742,-1.460057,-0.994465,1.766288,0.484298,-0.003144,-0.377629,-0.194561,-0.268579,-0.374468,0.394167,0.167509,-0.909686,34.385723,19.766953,11.849852,0.464567,1.916305,0.028243,0.000000,0.000000,0.000000,0.000000,0.000000,0.000000
11955057.000000,2.301184,-1.032061,-1.867932,-1.460331,-0.994829,1.766687,0.484455,-0.003381,-0.370130,-0.194334,-0.268316,-0.371629,0.399987,0.161286,-0.885882,34.357952,19.691574,11.877623,0.470060,1.903487,0.081344,0.000000,0.000000,0.000000,0.000000,0.000000,0.000000
11955058.000000,2.301176,-1.032439,-1.868119,-1.460591,-0.995208,1.767098,0.484622,-0.003358,-0.374345,-0.193460,-0.266260,-0.379049,0.405534,0.164285,-0.862078,34.286541,19.616196,11.826048,0.458158,1.851302,0.054794,0.000000,0.000000,0.000000,0.000000,0.000000,0.000000
11955059.000000,2.301169,-1.032817,-1.868310,-1.460852,-0.995585,1.767504,0.484780,-0.002649,-0.376481,-0.194090,-0.264410,-0.376950,0.402920,0.160608,-0.862078,34.211163,19.544785,11.778440,0.410551,1.735030,0.067611,0.000000,0.000000,0.000000,0.000000,0.000000,0.000000
11955060.000000,2.301163,-1.033199,-1.868504,-1.461110,-0.995955,1.767907,0.484944,-0.002723,-0.376834,-0.192779,-0.267543,-0.373974,0.405178,0.163653,-0.834307,34.211163,19.544785,11.703062,0.405057,1.708480,0.048385,0.000000,0.000000,0.000000,0.000000,0.000000,0.000000
11955061.000000,2.301158,-1.033592,-1.868688,-1.461364,-0.996339,1.768301,0.485105,-0.002603,-0.379808,-0.194178,-0.263296,-0.375455,0.406205,0.164866,-0.810504,34.357952,19.497177,11.556273,0.422452,1.800033,0.061202,0.000000,0.000000,0.000000,0.000000,0.000000,0.000000
11955062.000000,2.301156,-1.033984,-1.868877,-1.461610,-0.996716,1.768689,0.485268,-0.004642,-0.384206,-0.195183,-0.254034,-0.370260,0.401475,0.162457,-0.834307,34.603924,19.469406,11.405516,0.452665,1.858627,0.034652,0.000000,0.000000,0.000000,0.000000,0.000000,0.000000
11955063.000000,2.301153,-1.034373,-1.869065,-1.461854,-0.997086,1.769091,0.485429,-0.004055,-0.388525,-0.189256,-0.250633,-0.367366,0.402329,0.162566,-0.810504,34.726910,19.421799,11.258726,0.416959,1.779891,0.067611,0.000000,0.000000,0.000000,0.000000,0.000000,0.000000
11955064.000000,2.301150,-1.034761,-1.869258,-1.462101,-0.997467,1.769502,0.485593,-0.004120,-0.392061,-0.189881,-0.246549,-0.368553,0.405525,0.169257,-0.762896,34.774517,19.445602,11.183348,0.393156,1.649886,0.067611,0.000000,0.000000,0.000000,0.000000,0.000000,0.000000
11955065.000000,2.301144,-1.035151,-1.869450,-1.462340,-0.997841,1.769908,0.485761,-0.004180,-0.387145,-0.189094,-0.239868,-0.367674,0.405350,0.165248,-0.711321,34.897503,19.445602,11.084166,0.393156,1.572067,0.054794,0.000000,0.000000,0.000000,0.000000,0.000000,0.000000
11955066.000000,2.301145,-1.035536,-1.869651,-1.462574,-0.998218,1.770301,0.485925,-0.002957,-0.390965,-0.194302,-0.240752,-0.367447,0.406583,0.165394,-0.711321,34.921307,19.544785,10.961180,0.422452,1.584884,0.081344,0.000000,0.000000,0.000000,0.000000,0.000000,0.000000
11955067.000000,2.301146,-1.035930,-1.869842,-1.462811,-0.998585,1.770685,0.486091,-0.002099,-0.397373,-0.194751,-0.238068,-0.377946,0.395412,0.168099,-0.711321,35.044292,19.497177,10.861998,0.446256,1.670028,0.041976,0.000000,0.000000,0.000000,0.000000,0.000000,0.000000
11955068.000000,2.301142,-1.036328,-1.870039,-1.463045,-0.998964,1.771076,0.486249,-0.002609,-0.406737,-0.196398,-0.237801,-0.379263,0.392727,0.161045,-0.663714,35.119671,19.497177,10.814390,0.434354,1.721298,0.107894,0.000000,0.000000,0.000000,0.000000,0.000000,0.000000
11955069.000000,2.301141,-1.036727,-1.870233,-1.463279,-0.999343,1.771466,0.486417,-0.002461,-0.406844,-0.196136,-0.239111,-0.377832,0.389748,0.164873,-0.635943,35.091900,19.568588,10.838194,0.434354,1.702071,0.041976,0.000000,0.000000,0.000000,0.000000,0.000000,0.000000
11955070.000000,2.301143,-1.037115,-1.870426,-1.463513,-0.999713,1.771872,0.486583,-0.001045,-0.396291,-0.193616,-0.238139,-0.376172,0.393611,0.166417,-0.663714,35.091900,19.568588,10.786619,0.410551,1.649886,0.034652,0.000000,0.000000,0.000000,0.000000,0.000000,0.000000
11955071.000000,2.301139,-1.037512,-1.870618,-1.463743,-1.000089,1.772271,0.486744,-0.001943,-0.399202,-0.192751,-0.236443,-0.379073,0.392586,0.165373,-0.612139,35.143475,19.592392,10.814390,0.315336,1.682845,0.094161,0.000000,0.000000,0.000000,0.000000,0.000000,0.000000
11955072.000000,2.301143,-1.037908,-1.870813,-1.463965,-1.000478,1.772657,0.486914,-0.000120,-0.398807,-0.191493,-0.231201,-0.380367,0.387648,0.168695,-0.663714,35.214886,19.592392,10.715208,0.362943,1.714889,0.041976,0.000000,0.000000,0.000000,0.000000,0.000000,0.000000
11955073.000000,2.301146,-1.038308,-1.871017,-1.464186,-1.000855,1.773053,0.487075,0.001011,-0.397204,-0.193315,-0.231184,-0.378850,0.388399,0.168196,-0.711321,35.385479,19.715378,10.616026,0.410551,1.735030,0.087753,0.000000,0.000000,0.000000,0.000000,0.000000,0.000000
11955074.000000,2.301143,-1.038705,-1.871212,-1.464417,-1.001235,1.773444,0.487243,-0.000457,-0.394616,-0.192293,-0.227674,-0.380725,0.386710,0.164225,-0.663714,35.560040,19.739182,10.639830,0.362943,1.714889,0.081344,0.000000,0.000000,0.000000,0.000000,0.000000,0.000000
11955075.000000,2.301148,-1.039098,-1.871410,-1.464640,-1.001622,1.773841,0.487406,0.000796,-0.388884,-0.191266,-0.223335,-0.369454,0.390946,0.165020,-0.711321,35.683025,19.766953,10.592222,0.386747,1.662704,0.100570,0.000000,0.000000,0.000000,0.000000,0.000000,0.000000
11955076.000000,2.301151,-1.039492,-1.871620,-1.464856,-1.002004,1.774244,0.487575,0.001078,-0.393353,-0.198939,-0.223918,-0.373983,0.392378,0.168025,-0.735125,35.706829,19.913742,10.564451,0.405057,1.649886,0.048385,0.000000,0.000000,0.000000,0.000000,0.000000,0.000000
11955077.000000,2.301156,-1.039893,-1.871819,-1.465074,-1.002395,1.774644,0.487736,0.002475,-0.395406,-0.197374,-0.222728,-0.379703,0.394404,0.165533,-0.810504,35.730633,19.985153,10.493040,0.422452,1.617843,0.041976,0.000000,0.000000,0.000000,0.000000,0.000000,0.000000
11955078.000000,2.301160,-1.040280,-1.872016,-1.465287,-1.002787,1.775037,0.487893,0.005252,-0.389079,-0.197547,-0.223326,-0.386530,0.393434,0.160162,-0.834307,35.655254,19.985153,10.393858,0.452665,1.630660,0.087753,0.000000,0.000000,0.000000,0.000000,0.000000,0.000000
11955079.000000,2.301161,-1.040673,-1.872213,-1.465509,-1.003176,1.775431,0.488062,0.003751,-0.396217,-0.196660,-0.221775,-0.384724,0.402635,0.163932,-0.834307,35.560040,20.060532,10.417662,0.458158,1.708480,0.054794,0.000000,0.000000,0.000000,0.000000,0.000000,0.000000
11955080.000000,2.301168,-1.041055,-1.872417,-1.465722,-1.003554,1.775817,0.488218,0.004452,-0.386110,-0.197776,-0.218738,-0.394941,0.400795,0.163918,-0.909686,35.337872,20.084335,10.370054,0.452665,1.714889,0.094161,0.000000,0.000000,0.000000,0.000000,0.000000,0.000000
11955081.000000,2.301175,-1.041448,-1.872620,-1.465934,-1.003945,1.776205,0.488386,0.004315,-0.391241,-0.195248,-0.217222,-0.391786,0.390819,0.162224,-0.961260,35.167278,20.084335,10.342283,0.446256,1.682845,0.048385,0.000000,0.000000,0.000000,0.000000,0.000000,0.000000
11955082.000000,2.301185,-1.041844,-1.872826,-1.466155,-1.004333,1.776587,0.488544,0.004653,-0.391643,-0.200788,-0.214548,-0.386188,0.395328,0.163653,-1.032672,35.068096,20.131943,10.393858,0.405057,1.727706,0.061202,0.000000,0.000000,0.000000,0.000000,0.000000,0.000000
11955083.000000,2.301186,-1.042237,-1.873032,-1.466365,-1.004718,1.776975,0.488700,0.002067,-0.391999,-0.200204,-0.211443,-0.379250,0.395116,0.163300,-0.985064,35.068096,20.131943,10.393858,0.422452,1.735030,0.114303,0.000000,0.000000,0.000000,0.000000,0.000000,0.000000
11955084.000000,2.301189,-1.042635,-1.873235,-1.466570,-1.005105,1.777354,0.488871,0.003935,-0.396109,-0.200149,-0.208406,-0.378811,0.385192,0.163198,-0.961260,35.091900,20.131943,10.370054,0.398649,1.754256,0.034652,0.000000,0.000000,0.000000,0.000000,0.000000,0.000000
11955085.000000,2.301194,-1.043031,-1.873444,-1.466783,-1.005498,1.777733,0.489022,0.005320,-0.403754,-0.198317,-0.210177,-0.379687,0.385016,0.157116,-0.933489,35.143475,20.183517,10.393858,0.428861,1.708480,0.114303,0.000000,0.000000,0.000000,0.000000,0.000000,0.000000
11955086.000000,2.301204,-1.043430,-1.873651,-1.466992,-1.005879,1.778113,0.489189,0.008514,-0.398219,-0.196169,-0.208403,-0.383270,0.383502,0.161028,-0.985064,35.191082,20.207321,10.417662,0.482877,1.676437,0.094161,0.000000,0.000000,0.000000,0.000000,0.000000,0.000000
11955087.000000,2.301205,-1.043830,-1.873853,-1.467199,-1.006271,1.778480,0.489365,0.007806,-0.403829,-0.197903,-0.206451,-0.385148,0.375757,0.165158,-0.909686,35.290264,20.231125,10.417662,0.464567,1.714889,0.041976,0.000000,0.000000,0.000000,0.000000,0.000000,0.000000
11955088.000000,2.301210,-1.044229,-1.874057,-1.467407,-1.006651,1.778845,0.489519,0.007820,-0.402143,-0.200166,-0.204604,-0.382049,0.374170,0.158805,-0.862078,35.361675,20.183517,10.393858,0.405057,1.767074,0.114303,0.000000,0.000000,0.000000,0.000000,0.000000,0.000000
11955089.000000,2.301213,-1.044631,-1.874265,-1.467623,-1.007036,1.779224,0.489696,0.004815,-0.411228,-0.206110,-0.208778,-0.381977,0.375238,0.159699,-0.810504,35.437054,20.207321,10.465269,0.374845,1.760665,0.048385,0.000000,0.000000,0.000000,0.000000,0.000000,0.000000
11955090.000000,2.301220,-1.045040,-1.874472,-1.467832,-1.007431,1.779600,0.489856,0.006301,-0.413562,-0.207435,-0.208948,-0.383855,0.376925,0.160623,-0.786700,35.484661,20.183517,10.441465,0.327238,1.735030,0.094161,0.000000,0.000000,0.000000,0.000000,0.000000,0.000000
11955091.000000,2.301221,-1.045437,-1.874678,-1.468040,-1.007822,1.779970,0.490019,0.002032,-0.405285,-0.205053,-0.207589,-0.384337,0.375185,0.163362,-0.663714,35.508465,20.159714,10.465269,0.315336,1.760665,0.100570,0.000000,0.000000,0.000000,0.000000,0.000000,0.000000
11955092.000000,2.301216,-1.045846,-1.874886,-1.468260,-1.008213,1.780335,0.490191,0.000823,-0.408823,-0.207201,-0.212757,-0.382876,0.380137,0.162179,-0.489153,35.583843,20.159714,10.616026,0.327238,1.838485,0.048385,0.000000,0.000000,0.000000,0.000000,0.000000,0.000000
11955093.000000,2.301214,-1.046248,-1.875094,-1.468477,-1.008608,1.780712,0.490357,-0.001678,-0.405509,-0.205684,-0.213617,-0.380778,0.380520,0.163506,-0.366168,35.655254,20.183517,10.639830,0.351041,1.812850,0.061202,0.000000,0.000000,0.000000,0.000000,0.000000,0.000000
11955094.000000,2.301215,-1.046659,-1.875302,-1.468691,-1.009014,1.781090,0.490526,-0.002394,-0.410641,-0.205889,-0.214797,-0.389407,0.376169,0.168880,-0.290789,35.706829,20.231125,10.691404,0.416959,1.773483,0.074935,0.000000,0.000000,0.000000,0.000000,0.000000,0.000000
11955095.000000,2.301209,-1.047074,-1.875504,-1.468901,-1.009412,1.781465,0.490691,-0.002454,-0.415772,-0.201904,-0.213846,-0.386919,0.376659,0.164642,-0.116229,35.925030,20.254929,10.691404,0.440763,1.767074,0.107894,0.000000,0.000000,0.000000,0.000000,0.000000,0.000000
11955096.000000,2.301205,-1.047486,-1.875711,-1.469111,-1.009803,1.781842,0.490865,-0.003443,-0.412819,-0.201770,-0.217468,-0.394557,0.370216,0.167830,-0.017047,36.071819,20.278732,10.639830,0.381254,1.793624,0.061202,0.000000,0.000000,0.000000,0.000000,0.000000,0.000000
11955097.000000,2.301202,-1.047899,-1.875916,-1.469329,-1.010206,1.782229,0.491028,-0.003025,-0.419110,-0.202049,-0.216516,-0.395736,0.369758,0.166803,0.030561,36.218609,20.306503,10.639830,0.381254,1.727706,0.100570,0.000000,0.000000,0.000000,0.000000,0.000000,0.000000
11955098.000000,2.301195,-1.048315,-1.876130,-1.469541,-1.010596,1.782605,0.491195,-0.002842,-0.422923,-0.204375,-0.213407,-0.399586,0.369008,0.163686,0.078168,36.389202,20.429489,10.540648,0.405057,1.662704,0.081344,0.000000,0.000000,0.000000,0.000000,0.000000,0.000000
11955099.000000,2.301184,-1.048729,-1.876339,-1.469751,-1.010986,1.782980,0.491359,-0.004648,-0.417307,-0.200637,-0.213322,-0.398769,0.369045,0.160523,0.205121,36.512188,20.453293,10.516844,0.362943,1.695663,0.074935,0.000000,0.000000,0.000000,0.000000,0.000000,0.000000
11955100.000000,2.301178,-1.049146,-1.876544,-1.469967,-1.011384,1.783344,0.491525,-0.003493,-0.415405,-0.203777,-0.216764,-0.397171,0.363482,0.166748,0.228925,36.512188,20.453293,10.516844,0.344633,1.773483,0.074935,0.000000,0.000000,0.000000,0.000000,0.000000,0.000000
11955101.000000,2.301172,-1.049553,-1.876755,-1.470183,-1.011777,1.783714,0.491693,-0.005490,-0.408602,-0.200476,-0.216421,-0.395275,0.366935,0.167573,0.228925,36.512188,20.500900,10.516844,0.381254,1.773483,0.074935,0.000000,0.000000,0.000000,0.000000,0.000000,0.000000
11955102.000000,2.301168,-1.049965,-1.876966,-1.470391,-1.012176,1.784098,0.491860,-0.003842,-0.412254,-0.203835,-0.211678,-0.398601,0.371004,0.166590,0.228925,36.440777,20.647690,10.465269,0.422452,1.735030,0.107894,0.000000,0.000000,0.000000,0.000000,0.000000,0.000000
11955103.000000,2.301150,-1.050381,-1.877173,-1.470605,-1.012575,1.784472,0.492031,-0.006782,-0.419248,-0.203716,-0.213105,-0.396538,0.373259,0.169340,0.403486,36.535992,20.699265,10.516844,0.381254,1.714889,0.061202,0.000000,0.000000,0.000000,0.000000,0.000000,0.000000
11955104.000000,2.301146,-1.050788,-1.877386,-1.470821,-1.012969,1.784835,0.492194,-0.004624,-0.411932,-0.207290,-0.211868,-0.394528,0.362613,0.168061,0.403486,36.535992,20.770676,10.592222,0.393156,1.754256,0.094161,0.000000,0.000000,0.000000,0.000000,0.000000,0.000000
11955105.000000,2.301145,-1.051205,-1.877598,-1.471032,-1.013362,1.785201,0.492364,-0.002510,-0.415073,-0.207131,-0.212077,-0.394165,0.365258,0.170533,0.375715,36.682781,20.846054,10.592222,0.386747,1.779891,0.041976,0.000000,0.000000,0.000000,0.000000,0.000000,0.000000
11955106.000000,2.301133,-1.051620,-1.877814,-1.471243,-1.013763,1.785567,0.492518,-0.004701,-0.411492,-0.210314,-0.209196,-0.383512,0.367695,0.167983,0.502668,36.805767,20.945236,10.592222,0.374845,1.800033,0.100570,0.000000,0.000000,0.000000,0.000000,0.000000,0.000000
11955107.000000,2.301123,-1.052032,-1.878030,-1.471445,-1.014170,1.785932,0.492681,-0.005497,-0.416689,-0.216023,-0.207169,-0.389131,0.363966,0.168511,0.601850,36.952557,21.092026,10.592222,0.381254,1.838485,0.120712,0.000000,0.000000,0.000000,0.000000,0.000000,0.000000
11955108.000000,2.301126,-1.052438,-1.878261,-1.471664,-1.014570,1.786289,0.492848,-0.004417,-0.416883,-0.220475,-0.208307,-0.390375,0.365670,0.170037,0.502668,36.857342,21.337997,10.715208,0.374845,1.890670,0.094161,0.000000,0.000000,0.000000,0.000000,0.000000,0.000000
11955109.000000,2.301120,-1.052833,-1.878485,-1.471872,-1.014974,1.786670,0.493018,-0.004893,-0.407719,-0.218607,-0.209364,-0.395708,0.364700,0.171478,0.574079,36.734356,21.508591,10.762815,0.422452,1.851302,0.054794,0.000000,0.000000,0.000000,0.000000,0.000000,0.000000
11955110.000000,2.301115,-1.053236,-1.878704,-1.472080,-1.015382,1.787044,0.493177,-0.005233,-0.410407,-0.219815,-0.207683,-0.402932,0.371221,0.164965,0.649457,36.512188,21.655380,10.786619,0.482877,1.825668,0.100570,0.000000,0.000000,0.000000,0.000000,0.000000,0.000000
11955111.000000,2.301109,-1.053638,-1.878931,-1.472294,-1.015773,1.787401,0.493335,-0.005408,-0.405570,-0.221206,-0.211157,-0.394902,0.365261,0.165496,0.724836,36.488384,21.825974,10.885801,0.500272,1.890670,0.120712,0.000000,0.000000,0.000000,0.000000,0.000000,0.000000
11955112.000000,2.301109,-1.054045,-1.879153,-1.472508,-1.016176,1.787759,0.493509,-0.003073,-0.410662,-0.222062,-0.212154,-0.397520,0.359776,0.169195,0.697065,36.365398,21.849777,10.913572,0.512174,1.995040,0.048385,0.000000,0.000000,0.000000,0.000000,0.000000,0.000000
11955113.000000,2.301106,-1.054451,-1.879369,-1.472718,-1.016581,1.788117,0.493663,-0.002786,-0.412747,-0.219843,-0.208163,-0.396460,0.359465,0.168333,0.724836,36.270184,21.877548,10.885801,0.506681,2.014266,0.074935,0.000000,0.000000,0.000000,0.000000,0.000000,0.000000
11955114.000000,2.301104,-1.054857,-1.879601,-1.472926,-1.016964,1.788481,0.493821,-0.002480,-0.405998,-0.221892,-0.211109,-0.395815,0.355847,0.167734,0.748639,36.171001,22.071945,10.885801,0.434354,1.974899,0.107894,0.000000,0.000000,0.000000,0.000000,0.000000,0.000000
11955115.000000,2.301104,-1.055258,-1.879813,-1.473129,-1.017362,1.788854,0.493988,-0.001703,-0.410322,-0.220992,-0.208060,-0.395818,0.362714,0.170142,0.748639,36.071819,22.024338,10.861998,0.398649,1.942855,0.061202,0.000000,0.000000,0.000000,0.000000,0.000000,0.000000
11955116.000000,2.301105,-1.055658,-1.880036,-1.473341,-1.017756,1.789211,0.494147,-0.001729,-0.414402,-0.219854,-0.209033,-0.398210,0.360542,0.167858,0.772443,35.948833,22.071945,10.861998,0.440763,1.968490,0.120712,0.000000,0.000000,0.000000,0.000000,0.000000,0.000000
11955117.000000,2.301104,-1.056069,-1.880256,-1.473543,-1.018145,1.789571,0.494325,-0.001737,-0.414015,-0.220102,-0.208590,-0.399887,0.354192,0.171529,0.796247,36.000408,22.171127,10.786619,0.440763,1.988631,0.028243,0.000000,0.000000,0.000000,0.000000,0.000000,0.000000
11955118.000000,2.301097,-1.056480,-1.880466,-1.473749,-1.018551,1.789925,0.494485,-0.003499,-0.412466,-0.217758,-0.206204,-0.399789,0.359853,0.173280,0.895429,35.948833,22.147324,10.762815,0.458158,1.995040,0.067611,0.000000,0.000000,0.000000,0.000000,0.000000,0.000000
11955119.000000,2.301102,-1.056872,-1.880682,-1.473952,-1.018951,1.790287,0.494650,-0.000678,-0.404864,-0.216056,-0.207041,-0.401200,0.355220,0.171980,0.824018,35.829815,22.147324,10.691404,0.482877,1.981307,0.081344,0.000000,0.000000,0.000000,0.000000,0.000000,0.000000
11955120.000000,2.301104,-1.057281,-1.880898,-1.474163,-1.019348,1.790648,0.494818,-0.000464,-0.411014,-0.215638,-0.207062,-0.401522,0.356323,0.172714,0.824018,35.778240,22.171127,10.739012,0.482877,1.974899,0.048385,0.000000,0.000000,0.000000,0.000000,0.000000,0.000000
11955121.000000,2.301103,-1.057679,-1.881105,-1.474367,-1.019756,1.790996,0.494981,-0.000875,-0.412445,-0.209396,-0.204842,-0.407387,0.351353,0.171998,0.847822,35.607647,22.071945,10.715208,0.428861,1.995040,0.048385,0.000000,0.000000,0.000000,0.000000,0.000000,0.000000
11955122.000000,2.301107,-1.058082,-1.881320,-1.474562,-1.020160,1.791358,0.495140,-0.000033,-0.405420,-0.209223,-0.202828,-0.407123,0.354695,0.166519,0.824018,35.484661,22.024338,10.663633,0.434354,2.060043,0.054794,0.000000,0.000000,0.000000,0.000000,0.000000,0.000000
11955123.000000,2.301115,-1.058483,-1.881532,-1.474767,-1.020562,1.791712,0.495303,0.002293,-0.409423,-0.213047,-0.204379,-0.404964,0.354896,0.166686,0.724836,35.413250,22.000534,10.739012,0.458158,2.079269,0.074935,0.000000,0.000000,0.000000,0.000000,0.000000,0.000000
11955124.000000,2.301114,-1.058878,-1.881737,-1.474972,-1.020969,1.792083,0.495465,0.003612,-0.404819,-0.206825,-0.204096,-0.410903,0.354274,0.163446,0.772443,35.238689,21.877548,10.762815,0.446256,1.995040,0.061202,0.000000,0.000000,0.000000,0.000000,0.000000,0.000000
11955125.000000,2.301112,-1.059289,-1.881934,-1.475172,-1.021384,1.792444,0.495624,0.000909,-0.409471,-0.207923,-0.204600,-0.410606,0.355107,0.158857,0.847822,35.238689,21.754562,10.814390,0.482877,1.988631,0.094161,0.000000,0.000000,0.000000,0.000000,0.000000,0.000000
11955126.000000,2.301117,-1.059703,-1.882137,-1.475372,-1.021793,1.792805,0.495778,0.004087,-0.411651,-0.202833,-0.201176,-0.408008,0.356136,0.157953,0.847822,35.238689,21.726791,10.861998,0.518583,1.981307,0.114303,0.000000,0.000000,0.000000,0.000000,0.000000,0.000000
11955127.000000,2.301124,-1.060113,-1.882336,-1.475567,-1.022201,1.793169,0.495943,0.004353,-0.410610,-0.199076,-0.201741,-0.410783,0.356211,0.162432,0.796247,35.385479,21.580002,10.937376,0.500272,1.968490,0.074935,0.000000,0.000000,0.000000,0.000000,0.000000,0.000000
11955128.000000,2.301128,-1.060533,-1.882536,-1.475761,-1.022611,1.793529,0.496101,0.002569,-0.413686,-0.199078,-0.199602,-0.411548,0.368579,0.158886,0.824018,35.484661,21.532394,10.861998,0.482877,1.974899,0.114303,0.000000,0.000000,0.000000,0.000000,0.000000,0.000000
11955129.000000,2.301136,-1.060938,-1.882727,-1.475961,-1.023005,1.793897,0.496260,0.005894,-0.409433,-0.195266,-0.201049,-0.414602,0.369087,0.162677,0.796247,35.536236,21.337997,10.913572,0.470060,2.014266,0.087753,0.000000,0.000000,0.000000,0.000000,0.000000,0.000000
11955130.000000,2.301146,-1.061351,-1.882923,-1.476152,-1.023408,1.794274,0.496420,0.005495,-0.401563,-0.196254,-0.198405,-0.413909,0.367902,0.163724,0.748639,35.536236,21.286423,10.937376,0.374845,1.955673,0.100570,0.000000,0.000000,0.000000,0.000000,0.000000,0.000000
11955131.000000,2.301154,-1.061769,-1.883113,-1.476337,-1.023816,1.794645,0.496587,0.007024,-0.410654,-0.195757,-0.194511,-0.410075,0.363383,0.170777,0.748639,35.683025,21.187241,10.885801,0.393156,1.884261,0.054794,0.000000,0.000000,0.000000,0.000000,0.000000,0.000000
11955132.000000,2.301165,-1.062187,-1.883309,-1.476524,-1.024212,1.795016,0.496741,0.012079,-0.411517,-0.193475,-0.192639,-0.404507,0.366523,0.167804,0.724836,35.778240,21.163437,10.861998,0.405057,1.871444,0.133529,0.000000,0.000000,0.000000,0.000000,0.000000,0.000000
11955133.000000,2.301175,-1.062610,-1.883497,-1.476715,-1.024618,1.795385,0.496916,0.012300,-0.418465,-0.191488,-0.188604,-0.408490,0.364712,0.166652,0.724836,35.877422,21.115829,10.861998,0.410551,1.851302,0.054794,0.000000,0.000000,0.000000,0.000000,0.000000,0.000000
11955134.000000,2.301190,-1.063032,-1.883679,-1.476905,-1.025021,1.795744,0.497079,0.014233,-0.420947,-0.187760,-0.189422,-0.402756,0.362801,0.167124,0.649457,36.000408,20.969040,10.913572,0.458158,1.851302,0.061202,0.000000,0.000000,0.000000,0.000000,0.000000,0.000000
11955135.000000,2.301202,-1.063445,-1.883862,-1.477087,-1.025413,1.796106,0.497241,0.014649,-0.413303,-0.185962,-0.185358,-0.397863,0.360501,0.165656,0.601850,36.000408,20.869858,10.885801,0.428861,1.851302,0.107894,0.000000,0.000000,0.000000,0.000000,0.000000,0.000000
11955136.000000,2.301213,-1.063861,-1.884051,-1.477269,-1.025816,1.796472,0.497407,0.013466,-0.414486,-0.186688,-0.184946,-0.399997,0.361357,0.163895,0.625654,35.925030,20.846054,10.838194,0.374845,1.806442,0.061202,0.000000,0.000000,0.000000,0.000000,0.000000,0.000000
11955137.000000,2.301231,-1.064269,-1.884232,-1.477451,-1.026218,1.796833,0.497565,0.015923,-0.409560,-0.184296,-0.184377,-0.405711,0.360742,0.164229,0.502668,35.948833,20.723068,10.762815,0.374845,1.793624,0.094161,0.000000,0.000000,0.000000,0.000000,0.000000,0.000000
11955138.000000,2.301253,-1.064683,-1.884415,-1.477631,-1.026612,1.797183,0.497734,0.019088,-0.412281,-0.186800,-0.185203,-0.403010,0.362437,0.166486,0.328107,35.948833,20.671494,10.739012,0.303434,1.851302,0.067611,0.000000,0.000000,0.000000,0.000000,0.000000,0.000000
11955139.000000,2.301264,-1.065094,-1.884598,-1.477804,-1.027020,1.797534,0.497898,0.016255,-0.416654,-0.185911,-0.180458,-0.409612,0.360013,0.166356,0.351911,35.948833,20.600082,10.639830,0.261320,1.890670,0.094161,0.000000,0.000000,0.000000,0.000000,0.000000,0.000000
11955140.000000,2.301281,-1.065510,-1.884785,-1.477970,-1.027426,1.797884,0.498067,0.016926,-0.412058,-0.182118,-0.176836,-0.410960,0.350096,0.164041,0.276533,36.000408,20.524704,10.516844,0.320829,1.877853,0.054794,0.000000,0.000000,0.000000,0.000000,0.000000,0.000000
11955141.000000,2.301304,-1.065920,-1.884977,-1.478148,-1.027825,1.798236,0.498229,0.019012,-0.415003,-0.183916,-0.177248,-0.402790,0.347716,0.163805,0.129743,35.976604,20.647690,10.516844,0.327238,1.819259,0.100570,0.000000,0.000000,0.000000,0.000000,0.000000,0.000000
11955142.000000,2.301319,-1.066329,-1.885155,-1.478323,-1.028227,1.798592,0.498398,0.014291,-0.410804,-0.182548,-0.172931,-0.406004,0.351455,0.167256,0.105939,35.901226,20.552475,10.465269,0.308927,1.786300,0.054794,0.000000,0.000000,0.000000,0.000000,0.000000,0.000000
11955143.000000,2.301335,-1.066729,-1.885333,-1.478493,-1.028644,1.798952,0.498558,0.015365,-0.415492,-0.183814,-0.170419,-0.412032,0.347998,0.166426,0.030561,35.683025,20.453293,10.441465,0.339139,1.786300,0.087753,0.000000,0.000000,0.000000,0.000000,0.000000,0.000000
11955144.000000,2.301356,-1.067139,-1.885523,-1.478660,-1.029055,1.799303,0.498718,0.016695,-0.417714,-0.185467,-0.167524,-0.407324,0.349813,0.159117,-0.068621,35.484661,20.453293,10.393858,0.327238,1.806442,0.087753,0.000000,0.000000,0.000000,0.000000,0.000000,0.000000
11955145.000000,2.301387,-1.067536,-1.885712,-1.478823,-1.029472,1.799657,0.498883,0.020301,-0.412941,-0.185569,-0.170341,-0.413749,0.351850,0.163045,-0.290789,35.214886,20.429489,10.318480,0.369352,1.786300,0.054794,0.000000,0.000000,0.000000,0.000000,0.000000,0.000000
11955146.000000,2.301405,-1.067948,-1.885894,-1.478987,-1.029893,1.800014,0.499046,0.020830,-0.411521,-0.184778,-0.166618,-0.420937,0.358884,0.162730,-0.290789,35.068096,20.354111,10.219297,0.393156,1.838485,0.107894,0.000000,0.000000,0.000000,0.000000,0.000000,0.000000
11955147.000000,2.301429,-1.068349,-1.886083,-1.479153,-1.030296,1.800363,0.499216,0.020174,-0.410788,-0.188365,-0.168286,-0.421022,0.357113,0.162096,-0.366168,34.921307,20.330307,10.171690,0.374845,1.884261,0.067611,0.000000,0.000000,0.000000,0.000000,0.000000,0.000000
11955148.000000,2.301447,-1.068759,-1.886274,-1.479311,-1.030714,1.800726,0.499380,0.018248,-0.407924,-0.188636,-0.163299,-0.427076,0.355150,0.162646,-0.389971,34.798321,20.330307,10.120115,0.369352,1.806442,0.094161,0.000000,0.000000,0.000000,0.000000,0.000000,0.000000
11955149.000000,2.301471,-1.069168,-1.886459,-1.479471,-1.031136,1.801086,0.499549,0.021359,-0.411660,-0.186522,-0.160465,-0.423378,0.362064,0.169924,-0.465350,34.726910,20.231125,10.120115,0.344633,1.767074,0.048385,0.000000,0.000000,0.000000,0.000000,0.000000,0.000000
11955150.000000,2.301492,-1.069577,-1.886648,-1.479627,-1.031544,1.801453,0.499711,0.022619,-0.408036,-0.186805,-0.160884,-0.410934,0.361566,0.164373,-0.489153,34.726910,20.231125,10.096312,0.332731,1.741439,0.067611,0.000000,0.000000,0.000000,0.000000,0.000000,0.000000
11955151.000000,2.301514,-1.069987,-1.886835,-1.479781,-1.031970,1.801812,0.499871,0.023946,-0.415074,-0.187475,-0.157027,-0.413476,0.355545,0.160639,-0.540728,34.750713,20.231125,10.020933,0.315336,1.754256,0.094161,0.000000,0.000000,0.000000,0.000000,0.000000,0.000000
11955152.000000,2.301531,-1.070399,-1.887025,-1.479940,-1.032394,1.802158,0.500032,0.023075,-0.418783,-0.184651,-0.159048,-0.411152,0.354521,0.164535,-0.512957,34.826092,20.231125,10.048704,0.344633,1.800033,0.054794,0.000000,0.000000,0.000000,0.000000,0.000000,0.000000
11955153.000000,2.301551,-1.070826,-1.887221,-1.480095,-1.032801,1.802512,0.500188,0.019650,-0.420154,-0.185669,-0.157258,-0.410814,0.349624,0.163111,-0.489153,35.020489,20.231125,10.048704,0.362943,1.819259,0.120712,0.000000,0.000000,0.000000,0.000000,0.000000,0.000000
11955154.000000,2.301567,-1.071243,-1.887408,-1.480247,-1.033223,1.802872,0.500361,0.017188,-0.417600,-0.188572,-0.155945,-0.411521,0.354427,0.167946,-0.465350,34.996685,20.183517,10.048704,0.351041,1.747848,0.041976,0.000000,0.000000,0.000000,0.000000,0.000000,0.000000
11955155.000000,2.301586,-1.071657,-1.887603,-1.480401,-1.033639,1.803224,0.500512,0.018688,-0.416894,-0.188662,-0.155253,-0.414006,0.351896,0.161950,-0.441546,35.091900,20.207321,10.072508,0.356534,1.708480,0.087753,0.000000,0.000000,0.000000,0.000000,0.000000,0.000000
11955156.000000,2.301606,-1.072075,-1.887794,-1.480561,-1.034060,1.803582,0.500671,0.017345,-0.421031,-0.195788,-0.159031,-0.422146,0.351831,0.159219,-0.441546,35.091900,20.159714,10.143919,0.362943,1.741439,0.081344,0.000000,0.000000,0.000000,0.000000,0.000000,0.000000
11955157.000000,2.301624,-1.072497,-1.887984,-1.480718,-1.034488,1.803936,0.500822,0.018157,-0.427106,-0.192181,-0.156513,-0.419287,0.353447,0.156003,-0.389971,35.119671,20.084335,10.143919,0.339139,1.741439,0.114303,0.000000,0.000000,0.000000,0.000000,0.000000,0.000000
11955158.000000,2.301641,-1.072914,-1.888175,-1.480870,-1.034905,1.804294,0.500984,0.015717,-0.422395,-0.188173,-0.155543,-0.421585,0.350275,0.156548,-0.342364,35.143475,20.084335,10.171690,0.362943,1.714889,0.067611,0.000000,0.000000,0.000000,0.000000,0.000000,0.000000
11955159.000000,2.301660,-1.073336,-1.888363,-1.481027,-1.035326,1.804642,0.501132,0.014578,-0.428388,-0.192134,-0.155448,-0.420635,0.359657,0.153694,-0.314593,35.214886,20.108139,10.219297,0.369352,1.708480,0.100570,0.000000,0.000000,0.000000,0.000000,0.000000,0.000000
11955160.000000,2.301673,-1.073761,-1.888548,-1.481181,-1.035744,1.804994,0.501287,0.015194,-0.425185,-0.189822,-0.151399,-0.412476,0.357580,0.159766,-0.215411,35.337872,20.060532,10.243101,0.344633,1.747848,0.048385,0.000000,0.000000,0.000000,0.000000,0.000000,0.000000
11955161.000000,2.301688,-1.074197,-1.888732,-1.481330,-1.036163,1.805344,0.501437,0.013081,-0.432208,-0.187380,-0.153289,-0.415355,0.352356,0.155165,-0.144000,35.536236,19.961349,10.195494,0.320829,1.760665,0.100570,0.000000,0.000000,0.000000,0.000000,0.000000,0.000000
11955162.000000,2.301708,-1.074634,-1.888928,-1.481482,-1.036586,1.805690,0.501590,0.017001,-0.435338,-0.190191,-0.153786,-0.420849,0.350671,0.153858,-0.167803,35.754436,20.060532,10.120115,0.332731,1.721298,0.107894,0.000000,0.000000,0.000000,0.000000,0.000000,0.000000
11955163.000000,2.301721,-1.075071,-1.889114,-1.481628,-1.037001,1.806049,0.501753,0.016944,-0.436599,-0.186309,-0.153300,-0.413688,0.353997,0.155454,-0.068621,36.000408,20.060532,10.020933,0.297025,1.670028,0.048385,0.000000,0.000000,0.000000,0.000000,0.000000,0.000000
11955164.000000,2.301735,-1.075505,-1.889304,-1.481776,-1.037418,1.806402,0.501900,0.017562,-0.436923,-0.184840,-0.151430,-0.415150,0.354579,0.151426,0.006757,36.123394,20.108139,9.949522,0.297025,1.682845,0.120712,0.000000,0.000000,0.000000,0.000000,0.000000,0.000000
11955165.000000,2.301754,-1.075936,-1.889497,-1.481929,-1.037826,1.806749,0.502059,0.016814,-0.442581,-0.184107,-0.151535,-0.427227,0.351183,0.153392,0.006757,36.147198,20.183517,9.949522,0.297025,1.662704,0.067611,0.000000,0.000000,0.000000,0.000000,0.000000,0.000000
11955166.000000,2.301775,-1.076366,-1.889696,-1.482072,-1.038243,1.807095,0.502215,0.016725,-0.429978,-0.187400,-0.148580,-0.422067,0.348236,0.152140,-0.017047,36.171001,20.278732,9.822569,0.297025,1.649886,0.074935,0.000000,0.000000,0.000000,0.000000,0.000000,0.000000
11955167.000000,2.301790,-1.076810,-1.889883,-1.482222,-1.038662,1.807438,0.502365,0.014555,-0.434503,-0.184635,-0.150898,-0.416334,0.344052,0.151751,0.030561,36.293987,20.306503,9.751158,0.315336,1.702071,0.094161,0.000000,0.000000,0.000000,0.000000,0.000000,0.000000
11955168.000000,2.301808,-1.077243,-1.890085,-1.482377,-1.039070,1.807784,0.502523,0.013801,-0.429713,-0.192273,-0.151885,-0.405393,0.341779,0.152531,0.054365,36.389202,20.477097,9.774961,0.291532,1.735030,0.067611,0.000000,0.000000,0.000000,0.000000,0.000000,0.000000
11955169.000000,2.301822,-1.077681,-1.890277,-1.482526,-1.039495,1.808130,0.502678,0.014823,-0.435186,-0.191824,-0.151873,-0.405399,0.342404,0.151052,0.129743,36.488384,20.524704,9.774961,0.297025,1.708480,0.094161,0.000000,0.000000,0.000000,0.000000,0.000000,0.000000
11955170.000000,2.301843,-1.078119,-1.890479,-1.482677,-1.039909,1.808480,0.502839,0.018280,-0.440828,-0.192791,-0.149325,-0.402527,0.347130,0.152352,0.105939,36.635174,20.623886,9.822569,0.273221,1.689254,0.061202,0.000000,0.000000,0.000000,0.000000,0.000000,0.000000
11955171.000000,2.301860,-1.078552,-1.890688,-1.482817,-1.040316,1.808826,0.502991,0.016559,-0.436790,-0.198317,-0.145341,-0.407093,0.344471,0.150813,0.129743,36.710552,20.794479,9.774961,0.243009,1.689254,0.087753,0.000000,0.000000,0.000000,0.000000,0.000000,0.000000
11955172.000000,2.301883,-1.078982,-1.890891,-1.482967,-1.040745,1.809169,0.503150,0.019793,-0.440024,-0.200221,-0.144376,-0.410788,0.343258,0.152339,0.078168,36.710552,20.869858,9.798765,0.279630,1.682845,0.048385,0.000000,0.000000,0.000000,0.000000,0.000000,0.000000
11955173.000000,2.301904,-1.079408,-1.891099,-1.483113,-1.041164,1.809501,0.503297,0.018108,-0.429517,-0.201728,-0.145099,-0.418862,0.340285,0.149497,0.078168,36.635174,20.969040,9.751158,0.308927,1.735030,0.107894,0.000000,0.000000,0.000000,0.000000,0.000000,0.000000
11955174.000000,2.301928,-1.079836,-1.891304,-1.483267,-1.041586,1.809837,0.503455,0.020891,-0.436395,-0.207662,-0.146446,-0.426078,0.336589,0.151412,0.030561,36.587566,21.040451,9.874144,0.327238,1.825668,0.061202,0.000000,0.000000,0.000000,0.000000,0.000000,0.000000
11955175.000000,2.301953,-1.080266,-1.891509,-1.483410,-1.042016,1.810172,0.503600,0.019730,-0.434771,-0.203538,-0.143531,-0.423674,0.333835,0.145932,-0.017047,36.440777,21.092026,9.850340,0.344633,1.800033,0.107894,0.000000,0.000000,0.000000,0.000000,0.000000,0.000000
11955176.000000,2.301971,-1.080700,-1.891723,-1.483561,-1.042435,1.810510,0.503762,0.020435,-0.435417,-0.208754,-0.146853,-0.425167,0.331353,0.149342,0.006757,36.440777,21.238815,9.949522,0.362943,1.767074,0.054794,0.000000,0.000000,0.000000,0.000000,0.000000,0.000000
11955177.000000,2.301990,-1.081134,-1.891926,-1.483705,-1.042854,1.810845,0.503916,0.018290,-0.437909,-0.207347,-0.144529,-0.426838,0.344199,0.148664,0.006757,36.341595,21.286423,9.949522,0.315336,1.800033,0.081344,0.000000,0.000000,0.000000,0.000000,0.000000,0.000000
11955178.000000,2.302008,-1.081559,-1.892139,-1.483851,-1.043276,1.811182,0.504068,0.018960,-0.434786,-0.209875,-0.142346,-0.416818,0.340003,0.152981,0.054365,36.242413,21.361801,9.921751,0.291532,1.884261,0.107894,0.000000,0.000000,0.000000,0.000000,0.000000,0.000000
11955179.000000,2.302035,-1.081993,-1.892349,-1.484000,-1.043709,1.811520,0.504231,0.022270,-0.426922,-0.213919,-0.145288,-0.420426,0.342945,0.155245,-0.017047,36.171001,21.433212,9.949522,0.315336,1.923629,0.054794,0.000000,0.000000,0.000000,0.000000,0.000000,0.000000
11955180.000000,2.302058,-1.082440,-1.892563,-1.484143,-1.044143,1.811852,0.504379,0.022892,-0.438935,-0.215546,-0.142494,-0.427646,0.342721,0.152028,-0.017047,36.270184,21.532394,9.921751,0.285123,1.916305,0.107894,0.000000,0.000000,0.000000,0.000000,0.000000,0.000000
11955181.000000,2.302066,-1.082868,-1.892778,-1.484293,-1.044568,1.812195,0.504544,0.018884,-0.428200,-0.212812,-0.146337,-0.427361,0.342210,0.154370,0.177350,36.270184,21.607773,9.997129,0.297025,1.897079,0.041976,0.000000,0.000000,0.000000,0.000000,0.000000,0.000000
11955182.000000,2.302083,-1.083310,-1.892991,-1.484441,-1.044993,1.812541,0.504694,0.018800,-0.436727,-0.211039,-0.146658,-0.426423,0.342550,0.147248,0.252729,36.317791,21.679184,10.096312,0.320829,1.871444,0.081344,0.000000,0.000000,0.000000,0.000000,0.000000,0.000000
11955183.000000,2.302102,-1.083736,-1.893199,-1.484594,-1.045422,1.812882,0.504844,0.019340,-0.434131,-0.207999,-0.149785,-0.433874,0.342901,0.148143,0.304304,36.242413,21.679184,10.195494,0.332731,1.844894,0.087753,0.000000,0.000000,0.000000,0.000000,0.000000,0.000000
11955184.000000,2.302121,-1.084175,-1.893408,-1.484736,-1.045857,1.813217,0.505005,0.017022,-0.429289,-0.207124,-0.148716,-0.437675,0.340604,0.150313,0.351911,36.171001,21.726791,10.143919,0.339139,1.858627,0.041976,0.000000,0.000000,0.000000,0.000000,0.000000,0.000000
11955185.000000,2.302138,-1.084605,-1.893611,-1.484888,-1.046294,1.813551,0.505157,0.018389,-0.428241,-0.202214,-0.147768,-0.437792,0.342235,0.147522,0.403486,36.000408,21.726791,10.219297,0.356534,1.936446,0.087753,0.000000,0.000000,0.000000,0.000000,0.000000,0.000000
11955186.000000,2.302154,-1.085039,-1.893821,-1.485037,-1.046728,1.813890,0.505317,0.016432,-0.425449,-0.205061,-0.149562,-0.438058,0.338970,0.150168,0.451093,35.925030,21.754562,10.270872,0.339139,2.007858,0.041976,0.000000,0.000000,0.000000,0.000000,0.000000,0.000000
