chaoyuefei/paper-gmrm-data/robot_logs/s2_dq_gmrm_xz_max_0.50_log_20260314_175106.csv
# time_ms,q_0,q_1,q_2,q_3,q_4,q_5,q_6,dq_0,dq_1,dq_2,dq_3,dq_4,dq_5,dq_6,tau_J_0,tau_J_1,tau_J_2,tau_J_3,tau_J_4,tau_J_5,tau_J_6,O_dP_EE_c_0,O_dP_EE_c_1,O_dP_EE_c_2,O_dP_EE_c_3,O_dP_EE_c_4,O_dP_EE_c_5
13328687.000000,-0.258964,0.525633,0.336247,-1.429390,-0.177851,1.925865,0.097034,-0.000556,0.000245,0.000457,-0.000379,-0.000057,0.000084,-0.000813,-0.017047,-39.048725,4.619858,19.590025,0.984586,1.331283,-0.130143,0.000000,0.000000,0.000000,0.000000,0.000000,0.000000
13328688.000000,-0.258964,0.525633,0.336240,-1.429388,-0.177855,1.925865,0.097040,-0.000371,0.000163,-0.001459,0.006620,-0.000479,-0.000181,0.001390,-0.017047,-39.048725,4.695236,19.562254,0.996488,1.337692,-0.182328,0.000000,0.000000,0.000000,0.000000,0.000000,0.000000
13328689.000000,-0.258965,0.525633,0.336241,-1.429390,-0.177855,1.925866,0.097040,-0.000804,0.000109,-0.000972,0.004283,-0.000082,0.000354,0.000927,0.006757,-39.048725,4.695236,19.590025,0.990079,1.324874,-0.182328,0.000000,0.000000,0.000000,0.000000,0.000000,0.000000
13328690.000000,-0.258960,0.525635,0.336241,-1.429390,-0.177853,1.925865,0.097035,0.001227,0.000072,-0.000091,0.003894,0.000590,-0.000239,-0.001077,-0.068621,-39.048725,4.671432,19.562254,0.972684,1.337692,-0.136552,0.000000,0.000000,0.000000,0.000000,0.000000,0.000000
13328691.000000,-0.258985,0.525633,0.336242,-1.429392,-0.177855,1.925863,0.097043,-0.021310,0.011501,-0.009691,-0.003903,-0.002355,0.000315,0.009428,-0.465350,-38.461567,4.008896,19.316282,0.930570,1.324874,-0.155778,0.000000,0.000000,0.000000,0.000000,0.000000,0.000000
13328692.000000,-0.259014,0.525624,0.336222,-1.429394,-0.177834,1.925859,0.097057,-0.042259,0.019245,-0.034396,-0.010572,-0.004853,-0.003195,0.015011,-2.591815,-36.331135,2.021286,18.276854,0.547880,1.292831,-0.116410,0.000000,0.000000,0.000000,0.000000,0.000000,0.000000
13328693.000000,-0.259052,0.525649,0.336137,-1.429417,-0.177813,1.925853,0.097087,-0.042505,0.033698,-0.050044,-0.020523,0.004364,-0.007447,0.020317,-6.083025,-33.248554,-0.751846,16.570921,0.064481,1.299239,-0.103593,0.000000,0.000000,0.000000,0.000000,0.000000,0.000000
13328694.000000,-0.259096,0.525711,0.336007,-1.429438,-0.177834,1.925850,0.097133,-0.024284,0.032111,-0.065899,-0.021852,-0.003697,-0.007067,0.025991,-9.526629,-29.920002,-3.282974,14.075499,-0.043551,1.337692,-0.136552,0.000000,0.000000,0.000000,0.000000,0.000000,0.000000
13328695.000000,-0.259173,0.525785,0.335871,-1.429505,-0.177893,1.925849,0.097179,-0.018243,0.035971,-0.071017,-0.032489,-0.020819,-0.004140,0.031274,-11.577716,-26.809650,-5.246780,11.726866,0.159696,1.435653,-0.077042,0.000000,0.000000,0.000000,0.000000,0.000000,0.000000
13328696.000000,-0.259262,0.525875,0.335750,-1.429606,-0.177971,1.925911,0.097237,-0.026391,0.043168,-0.068307,-0.049716,-0.040254,0.018619,0.037272,-12.125201,-24.191242,-6.274307,9.699583,0.458158,1.110641,-0.064225,0.000000,0.000000,0.000000,0.000000,0.000000,0.000000
13328697.000000,-0.259323,0.525976,0.335651,-1.429718,-0.178065,1.926042,0.097293,-0.033539,0.052467,-0.071385,-0.065618,-0.060639,0.058643,0.044196,-11.950641,-22.013203,-6.349686,7.771483,0.715421,0.264693,0.009017,0.000000,0.000000,0.000000,0.000000,0.000000,0.000000
13328698.000000,-0.259371,0.526082,0.335593,-1.429825,-0.178157,1.926218,0.097356,-0.037197,0.064271,-0.061682,-0.071376,-0.073338,0.095032,0.050143,-11.157184,-20.323139,-6.004532,5.843382,0.799650,-0.684708,0.067611,0.000000,0.000000,0.000000,0.000000,0.000000,0.000000
13328699.000000,-0.259415,0.526190,0.335575,-1.429935,-0.178231,1.926364,0.097429,-0.040497,0.077355,-0.048107,-0.075712,-0.072935,0.120795,0.056552,-9.919391,-18.879047,-5.540359,4.165221,0.494779,-1.016129,0.074935,0.000000,0.000000,0.000000,0.000000,0.000000,0.000000
13328700.000000,-0.259432,0.526289,0.335565,-1.430042,-0.178306,1.926481,0.097520,-0.036147,0.081221,-0.039051,-0.081006,-0.073568,0.120762,0.066278,-8.832355,-17.387348,-4.802444,2.729063,0.069974,-0.671891,-0.056901,0.000000,0.000000,0.000000,0.000000,0.000000,0.000000
13328701.000000,-0.259436,0.526379,0.335573,-1.430162,-0.178399,1.926611,0.097606,-0.031406,0.085398,-0.029243,-0.088214,-0.079891,0.128436,0.073770,-7.864336,-15.967060,-4.116104,1.594420,-0.234896,-0.085954,-0.089860,0.000000,0.000000,0.000000,0.000000,0.000000,0.000000
13328702.000000,-0.259452,0.526430,0.335567,-1.430308,-0.178493,1.926789,0.097690,-0.029721,0.072962,-0.026881,-0.108003,-0.080671,0.139293,0.075986,-6.777300,-14.181782,-3.159989,1.122313,-0.539767,0.304061,-0.017533,0.000000,0.000000,0.000000,0.000000,0.000000,0.000000
13328703.000000,-0.259474,0.526452,0.335552,-1.430498,-0.178606,1.927030,0.097798,-0.028407,0.056326,-0.025616,-0.134351,-0.089483,0.167546,0.085175,-5.662493,-12.075153,-2.128495,1.372252,-0.634982,0.297652,-0.142960,0.000000,0.000000,0.000000,0.000000,0.000000,0.000000
13328704.000000,-0.259507,0.526472,0.335529,-1.430717,-0.178757,1.927307,0.097893,-0.033954,0.046827,-0.028829,-0.168298,-0.108169,0.202933,0.090811,-4.500079,-10.067707,-1.144608,2.114134,-0.389620,0.134689,-0.110001,0.000000,0.000000,0.000000,0.000000,0.000000,0.000000
13328705.000000,-0.259548,0.526499,0.335486,-1.430943,-0.178933,1.927579,0.097993,-0.036648,0.039973,-0.039118,-0.189741,-0.127637,0.225634,0.094795,-3.385272,-8.330036,-0.065506,2.756834,0.046171,0.193282,-0.077042,0.000000,0.000000,0.000000,0.000000,0.000000,0.000000
13328706.000000,-0.259611,0.526558,0.335443,-1.431165,-0.179113,1.927867,0.098096,-0.048421,0.048480,-0.041745,-0.198087,-0.148296,0.241497,0.097723,-2.099871,-7.179523,0.819198,3.149595,0.446256,0.414840,-0.031266,0.000000,0.000000,0.000000,0.000000,0.000000,0.000000
13328707.000000,-0.259676,0.526645,0.335418,-1.431386,-0.179280,1.928182,0.098202,-0.055101,0.062344,-0.035893,-0.208844,-0.153733,0.261634,0.100685,-0.885882,-6.544758,1.235763,3.347960,0.596403,0.564071,-0.004716,0.000000,0.000000,0.000000,0.000000,0.000000,0.000000
13328708.000000,-0.259722,0.526755,0.335398,-1.431614,-0.179427,1.928518,0.098321,-0.051979,0.082485,-0.033524,-0.213605,-0.147398,0.285650,0.105671,-0.144000,-6.274982,1.430160,3.423338,0.464567,0.603439,-0.056901,0.000000,0.000000,0.000000,0.000000,0.000000,0.000000
13328709.000000,-0.259760,0.526884,0.335390,-1.431850,-0.179546,1.928897,0.098429,-0.051508,0.103436,-0.023914,-0.222722,-0.138265,0.316546,0.106560,0.375715,-6.199604,1.382553,3.300352,0.069974,0.518295,-0.031266,0.000000,0.000000,0.000000,0.000000,0.000000,0.000000
13328710.000000,-0.259794,0.527025,0.335379,-1.432080,-0.179659,1.929298,0.098545,-0.044318,0.118874,-0.017796,-0.225320,-0.130671,0.350991,0.108943,0.697065,-6.199604,1.330978,2.979002,-0.377719,0.459701,-0.050492,0.000000,0.000000,0.000000,0.000000,0.000000,0.000000
13328711.000000,-0.259831,0.527162,0.335356,-1.432324,-0.179783,1.929711,0.098670,-0.042921,0.131439,-0.018756,-0.228125,-0.125536,0.369744,0.112364,1.022382,-6.052814,1.481735,2.681456,-0.616671,0.518295,-0.116410,0.000000,0.000000,0.000000,0.000000,0.000000,0.000000
13328712.000000,-0.259872,0.527295,0.335334,-1.432590,-0.179933,1.930149,0.098783,-0.039592,0.131456,-0.018940,-0.243390,-0.136487,0.391224,0.111117,1.343732,-5.759235,1.604721,2.506895,-0.575472,0.622665,-0.083451,0.000000,0.000000,0.000000,0.000000,0.000000,0.000000
13328713.000000,-0.259913,0.527405,0.335302,-1.432884,-0.180116,1.930605,0.098901,-0.040708,0.123790,-0.021984,-0.257019,-0.149586,0.410558,0.114729,1.665082,-5.148273,1.846725,2.558470,-0.264193,0.662032,-0.050492,0.000000,0.000000,0.000000,0.000000,0.000000,0.000000
13328714.000000,-0.259947,0.527508,0.335263,-1.433199,-0.180306,1.931103,0.099018,-0.036939,0.118401,-0.028534,-0.273700,-0.164765,0.441634,0.113182,1.911054,-4.390522,2.144272,2.780638,0.112089,0.492660,-0.017533,0.000000,0.000000,0.000000,0.000000,0.000000,0.000000
13328715.000000,-0.259983,0.527610,0.335237,-1.433525,-0.180495,1.931646,0.099142,-0.033318,0.112644,-0.028018,-0.289110,-0.175726,0.476193,0.118147,2.109418,-3.533589,2.215683,3.002806,0.393156,0.284835,-0.023942,0.000000,0.000000,0.000000,0.000000,0.000000,0.000000
13328716.000000,-0.260014,0.527724,0.335220,-1.433853,-0.180670,1.932192,0.099259,-0.032994,0.111432,-0.023404,-0.300095,-0.176465,0.497857,0.119123,2.260175,-2.771870,2.092697,2.979002,0.482877,0.154830,0.041976,0.000000,0.000000,0.000000,0.000000,0.000000,0.000000
13328717.000000,-0.260033,0.527859,0.335207,-1.434181,-0.180817,1.932749,0.099386,-0.024620,0.119000,-0.021439,-0.311833,-0.166462,0.508639,0.119805,2.184797,-2.359272,1.874496,2.804442,0.279630,0.277511,-0.011124,0.000000,0.000000,0.000000,0.000000,0.000000,0.000000
13328718.000000,-0.260042,0.528014,0.335196,-1.434500,-0.180958,1.933287,0.099516,-0.018708,0.129721,-0.019916,-0.309971,-0.151821,0.516233,0.120048,1.962629,-2.212483,1.628525,2.284727,-0.025240,0.597030,-0.070634,0.000000,0.000000,0.000000,0.000000,0.000000,0.000000
13328719.000000,-0.260050,0.528181,0.335190,-1.434834,-0.181086,1.933857,0.099629,-0.014982,0.142781,-0.014244,-0.318794,-0.139618,0.528069,0.119408,1.740461,-2.160908,1.307175,1.887999,-0.401522,0.901900,0.001693,0.000000,0.000000,0.000000,0.000000,0.000000,0.000000
13328720.000000,-0.260062,0.528363,0.335177,-1.435159,-0.181229,1.934483,0.099756,-0.011174,0.156194,-0.013423,-0.317619,-0.140869,0.551371,0.120022,1.589704,-2.160908,1.112778,1.273070,-0.634982,0.817672,-0.056901,0.000000,0.000000,0.000000,0.000000,0.000000,0.000000
13328721.000000,-0.260079,0.528560,0.335157,-1.435506,-0.181391,1.935140,0.099874,-0.013974,0.166185,-0.015678,-0.322698,-0.149650,0.587189,0.117604,1.542096,-2.184712,1.037399,0.927916,-0.658785,0.492660,-0.044083,0.000000,0.000000,0.000000,0.000000,0.000000,0.000000
13328722.000000,-0.260100,0.528764,0.335129,-1.435865,-0.181576,1.935811,0.099982,-0.015127,0.174818,-0.019442,-0.338962,-0.160601,0.604768,0.113892,1.589704,-2.283894,1.061203,0.630369,-0.438143,0.226241,0.034652,0.000000,0.000000,0.000000,0.000000,0.000000,0.000000
13328723.000000,-0.260117,0.528984,0.335107,-1.436222,-0.181773,1.936496,0.100105,-0.017080,0.189672,-0.023438,-0.341249,-0.171881,0.630813,0.119592,1.565900,-2.506062,1.013595,0.233641,-0.097567,0.011092,0.001693,0.000000,0.000000,0.000000,0.000000,0.000000,0.000000
13328724.000000,-0.260132,0.529211,0.335085,-1.436587,-0.181964,1.937207,0.100218,-0.014926,0.203207,-0.023133,-0.345044,-0.180896,0.655741,0.116027,1.514325,-2.700459,0.965988,-0.210695,0.166105,-0.112504,0.054794,0.000000,0.000000,0.000000,0.000000,0.000000,0.000000
13328725.000000,-0.260135,0.529448,0.335066,-1.436950,-0.182138,1.937944,0.100338,-0.009880,0.214074,-0.024092,-0.352250,-0.178290,0.678964,0.115491,1.315961,-2.799641,0.843002,-0.631227,0.189908,-0.203141,0.054794,0.000000,0.000000,0.000000,0.000000,0.000000,0.000000
13328726.000000,-0.260134,0.529679,0.335048,-1.437337,-0.182295,1.938687,0.100461,-0.008487,0.215336,-0.022012,-0.359518,-0.169335,0.703028,0.116964,1.069990,-2.748066,0.720016,-0.952577,0.015958,-0.242509,-0.004716,0.000000,0.000000,0.000000,0.000000,0.000000,0.000000
13328727.000000,-0.260122,0.529918,0.335034,-1.437735,-0.182432,1.939452,0.100573,-0.001617,0.223091,-0.021862,-0.367100,-0.157727,0.716877,0.115876,0.697065,-2.700459,0.521652,-1.174745,-0.312716,-0.203141,-0.004716,0.000000,0.000000,0.000000,0.000000,0.000000,0.000000
13328728.000000,-0.260118,0.530161,0.335014,-1.438145,-0.182584,1.940213,0.100692,0.003257,0.226998,-0.024382,-0.381134,-0.153033,0.746338,0.115516,0.451093,-2.454487,0.426437,-1.297731,-0.557162,0.004684,-0.017533,0.000000,0.000000,0.000000,0.000000,0.000000,0.000000
13328729.000000,-0.260128,0.530413,0.334987,-1.438571,-0.182751,1.941002,0.100802,-0.002621,0.238681,-0.025785,-0.392689,-0.152561,0.762462,0.112809,0.474897,-2.331501,0.450241,-1.349306,-0.623080,0.147506,0.034652,0.000000,0.000000,0.000000,0.000000,0.000000,0.000000
13328730.000000,-0.260149,0.530671,0.334955,-1.439019,-0.182929,1.941824,0.100919,-0.008925,0.245407,-0.026591,-0.408124,-0.162244,0.777669,0.114444,0.601850,-2.184712,0.474045,-1.250124,-0.527865,0.193282,-0.004716,0.000000,0.000000,0.000000,0.000000,0.000000,0.000000
13328731.000000,-0.260173,0.530947,0.334928,-1.439484,-0.183118,1.942662,0.101031,-0.017272,0.255685,-0.026460,-0.423563,-0.172518,0.798720,0.112986,0.772443,-2.137104,0.474045,-1.099367,-0.330111,0.141097,0.015426,0.000000,0.000000,0.000000,0.000000,0.000000,0.000000
13328732.000000,-0.260196,0.531230,0.334893,-1.439975,-0.183301,1.943542,0.101138,-0.019533,0.263237,-0.031684,-0.441925,-0.178515,0.827340,0.111627,0.923200,-2.212483,0.573227,-0.778017,-0.162570,-0.047501,0.054794,0.000000,0.000000,0.000000,0.000000,0.000000,0.000000
13328733.000000,-0.260225,0.531540,0.334863,-1.440457,-0.183477,1.944450,0.101258,-0.022058,0.279346,-0.030522,-0.457705,-0.178935,0.849306,0.113317,1.121564,-2.478291,0.597031,-0.730409,-0.085665,-0.268143,0.021835,0.000000,0.000000,0.000000,0.000000,0.000000,0.000000
13328734.000000,-0.260245,0.531868,0.334825,-1.440955,-0.183641,1.945349,0.101374,-0.021276,0.295435,-0.030723,-0.467644,-0.175662,0.865256,0.116832,1.216779,-2.799641,0.668442,-0.730409,-0.109469,-0.326737,0.048385,0.000000,0.000000,0.000000,0.000000,0.000000,0.000000
13328735.000000,-0.260256,0.532200,0.334792,-1.441464,-0.183805,1.946262,0.101486,-0.017933,0.305669,-0.031713,-0.479462,-0.173067,0.876723,0.120228,1.192975,-3.212239,0.644638,-0.730409,-0.264193,-0.196732,0.061202,0.000000,0.000000,0.000000,0.000000,0.000000,0.000000
13328736.000000,-0.260276,0.532542,0.334755,-1.441996,-0.183970,1.947182,0.101608,-0.018550,0.317073,-0.030552,-0.497499,-0.171500,0.892288,0.119725,1.292158,-3.557392,0.668442,-0.730409,-0.414340,-0.033768,0.021835,0.000000,0.000000,0.000000,0.000000,0.000000,0.000000
13328737.000000,-0.260300,0.532879,0.334715,-1.442560,-0.184138,1.948133,0.101716,-0.020145,0.322232,-0.033929,-0.514813,-0.170052,0.909033,0.116031,1.442914,-3.727986,0.743820,-0.583620,-0.479342,0.004684,0.061202,0.000000,0.000000,0.000000,0.000000,0.000000,0.000000
13328738.000000,-0.260326,0.533212,0.334673,-1.443138,-0.184309,1.949122,0.101835,-0.022285,0.324606,-0.036421,-0.535632,-0.170461,0.923854,0.115837,1.641279,-3.704182,0.819198,-0.357485,-0.503146,-0.020951,0.048385,0.000000,0.000000,0.000000,0.000000,0.000000,0.000000
13328739.000000,-0.260364,0.533550,0.334623,-1.443747,-0.184494,1.950113,0.101955,-0.026593,0.326009,-0.040474,-0.560687,-0.175409,0.945767,0.116238,1.962629,-3.509785,0.989792,-0.063905,-0.396029,-0.079545,0.015426,0.000000,0.000000,0.000000,0.000000,0.000000,0.000000
13328740.000000,-0.260400,0.533897,0.334569,-1.444365,-0.184675,1.951122,0.102064,-0.031371,0.333815,-0.042134,-0.590778,-0.179630,0.959614,0.113144,2.232404,-3.434407,1.112778,0.285216,-0.264193,-0.001725,0.074935,0.000000,0.000000,0.000000,0.000000,0.000000,0.000000
13328741.000000,-0.260442,0.534254,0.334513,-1.445001,-0.184858,1.952134,0.102184,-0.035446,0.338665,-0.047573,-0.604314,-0.184747,0.978971,0.115522,2.529951,-3.335224,1.283371,0.507384,-0.174471,0.134689,0.028243,0.000000,0.000000,0.000000,0.000000,0.000000,0.000000
13328742.000000,-0.260479,0.534610,0.334456,-1.445657,-0.185032,1.953183,0.102292,-0.037262,0.349186,-0.050872,-0.614717,-0.184655,1.004193,0.112666,2.779890,-3.188435,1.430160,0.630369,-0.199191,0.121871,0.087753,0.000000,0.000000,0.000000,0.000000,0.000000,0.000000
13328743.000000,-0.260517,0.534989,0.334404,-1.446310,-0.185204,1.954249,0.102409,-0.037442,0.353056,-0.051179,-0.629278,-0.177829,1.020085,0.114391,2.978254,-3.287617,1.481735,0.729552,-0.294406,0.063277,0.048385,0.000000,0.000000,0.000000,0.000000,0.000000,0.000000
13328744.000000,-0.260549,0.535380,0.334350,-1.446975,-0.185377,1.955294,0.102522,-0.034144,0.353795,-0.052581,-0.634186,-0.174097,1.025100,0.112540,3.025861,-3.997761,1.576950,1.122313,-0.353915,0.050460,0.081344,0.000000,0.000000,0.000000,0.000000,0.000000,0.000000
13328745.000000,-0.260584,0.535770,0.334295,-1.447637,-0.185545,1.956371,0.102645,-0.032917,0.359852,-0.051111,-0.631517,-0.172952,1.036516,0.115148,2.978254,-5.541035,1.699936,1.915770,-0.384127,0.037643,0.015426,0.000000,0.000000,0.000000,0.000000,0.000000,0.000000
13328746.000000,-0.260636,0.536160,0.334245,-1.448284,-0.185719,1.957440,0.102764,-0.040454,0.369352,-0.048081,-0.631726,-0.173990,1.066763,0.119216,3.148847,-7.695271,1.874496,3.272581,-0.348422,0.089828,0.015426,0.000000,0.000000,0.000000,0.000000,0.000000,0.000000
13328747.000000,-0.260683,0.536539,0.334185,-1.448924,-0.185900,1.958522,0.102874,-0.040287,0.374870,-0.051543,-0.631943,-0.175932,1.068972,0.119034,3.200422,-10.143085,2.168075,5.006285,-0.174471,0.226241,0.100570,0.000000,0.000000,0.000000,0.000000,0.000000,0.000000
13328748.000000,-0.260720,0.536892,0.334125,-1.449557,-0.186081,1.959614,0.102996,-0.036747,0.368998,-0.054426,-0.631409,-0.181837,1.069539,0.119719,3.101240,-12.416340,2.485458,7.029601,0.022367,0.356246,0.048385,0.000000,0.000000,0.000000,0.000000,0.000000,0.000000
13328749.000000,-0.260753,0.537243,0.334065,-1.450190,-0.186258,1.960661,0.103110,-0.035359,0.367163,-0.052119,-0.635403,-0.181229,1.064873,0.121034,2.902875,-14.594379,2.755234,9.179869,0.100187,0.694076,0.087753,0.000000,0.000000,0.000000,0.000000,0.000000,0.000000
13328750.000000,-0.260787,0.537579,0.334005,-1.450818,-0.186439,1.961721,0.103227,-0.032687,0.360493,-0.052751,-0.634222,-0.183820,1.060430,0.118174,2.752119,-16.431232,3.001205,11.207151,0.135892,1.058456,0.114303,0.000000,0.000000,0.000000,0.000000,0.000000,0.000000
13328751.000000,-0.260811,0.537936,0.333945,-1.451429,-0.186619,1.962793,0.103355,-0.031211,0.362538,-0.055978,-0.628033,-0.180795,1.061623,0.119658,2.482343,-18.291889,3.223373,12.766294,0.154203,1.207687,0.041976,0.000000,0.000000,0.000000,0.000000,0.000000,0.000000
13328752.000000,-0.260831,0.538294,0.333884,-1.452045,-0.186791,1.963830,0.103471,-0.026193,0.363832,-0.057145,-0.625938,-0.180722,1.048736,0.116610,2.160993,-20.005756,3.393966,14.075499,0.105680,1.467696,0.074935,0.000000,0.000000,0.000000,0.000000,0.000000,0.000000
13328753.000000,-0.260849,0.538662,0.333820,-1.452649,-0.186963,1.964858,0.103592,-0.023893,0.369610,-0.061323,-0.623995,-0.180199,1.030562,0.117201,1.887250,-21.644245,3.564560,15.015745,0.034269,1.767074,0.034652,0.000000,0.000000,0.000000,0.000000,0.000000,0.000000
13328754.000000,-0.260861,0.539053,0.333752,-1.453273,-0.187144,1.965899,0.103715,-0.020626,0.379060,-0.064679,-0.622683,-0.182072,1.029332,0.121853,1.542096,-23.235126,3.739120,15.781431,0.027860,1.800033,-0.004716,0.000000,0.000000,0.000000,0.000000,0.000000,0.000000
13328755.000000,-0.260878,0.539454,0.333681,-1.453881,-0.187328,1.966944,0.103830,-0.018669,0.391496,-0.070679,-0.619297,-0.185719,1.029517,0.116840,1.343732,-24.877583,3.933517,16.126585,0.076383,1.767074,0.067611,0.000000,0.000000,0.000000,0.000000,0.000000,0.000000
13328756.000000,-0.260891,0.539876,0.333604,-1.454470,-0.187523,1.967988,0.103958,-0.017030,0.401641,-0.073325,-0.606091,-0.188991,1.032011,0.116489,1.145368,-26.420856,4.179489,16.225767,0.141385,1.649886,0.054794,0.000000,0.000000,0.000000,0.000000,0.000000,0.000000
13328757.000000,-0.260900,0.540319,0.333522,-1.455072,-0.187730,1.969018,0.104081,-0.012035,0.411758,-0.078408,-0.599678,-0.196577,1.037967,0.114564,0.923200,-27.912556,4.425461,16.178160,0.231107,1.546432,0.081344,0.000000,0.000000,0.000000,0.000000,0.000000,0.000000
13328758.000000,-0.260905,0.540762,0.333448,-1.455663,-0.187936,1.970046,0.104205,-0.007616,0.423414,-0.077497,-0.605865,-0.198591,1.032689,0.119780,0.673261,-29.309040,4.473068,16.102781,0.344633,1.474105,0.061202,0.000000,0.000000,0.000000,0.000000,0.000000,0.000000
13328759.000000,-0.260901,0.541222,0.333375,-1.456267,-0.188136,1.971063,0.104327,-0.005261,0.429122,-0.074686,-0.602956,-0.200380,1.048005,0.117135,0.328107,-30.578571,4.548447,16.078978,0.362943,1.448470,0.100570,0.000000,0.000000,0.000000,0.000000,0.000000,0.000000
13328760.000000,-0.260891,0.541671,0.333298,-1.456867,-0.188330,1.972100,0.104457,0.000187,0.445664,-0.078765,-0.592947,-0.195898,1.044339,0.117679,-0.044818,-31.633869,4.619858,15.955992,0.327238,1.370651,0.061202,0.000000,0.000000,0.000000,0.000000,0.000000,0.000000
13328761.000000,-0.260878,0.542136,0.333229,-1.457465,-0.188519,1.973138,0.104583,0.006987,0.452172,-0.076194,-0.594688,-0.190556,1.037380,0.121607,-0.413775,-32.562214,4.572250,15.904417,0.231107,1.383468,0.048385,0.000000,0.000000,0.000000,0.000000,0.000000,0.000000
13328762.000000,-0.260863,0.542597,0.333162,-1.458080,-0.188720,1.974146,0.104703,0.008333,0.454256,-0.074001,-0.599462,-0.188492,1.029478,0.117420,-0.762896,-33.347736,4.500839,16.027403,0.178007,1.474105,0.094161,0.000000,0.000000,0.000000,0.000000,0.000000,0.000000
13328763.000000,-0.260840,0.543066,0.333093,-1.458704,-0.188922,1.975160,0.104832,0.014133,0.457509,-0.069897,-0.608386,-0.196875,1.026662,0.119073,-1.183428,-34.153095,4.449265,16.225767,0.159696,1.578475,0.021835,0.000000,0.000000,0.000000,0.000000,0.000000,0.000000
13328764.000000,-0.260824,0.543540,0.333027,-1.459318,-0.189131,1.976163,0.104951,0.015438,0.461869,-0.068980,-0.606758,-0.196449,1.023319,0.120467,-1.480975,-34.938618,4.350082,16.499510,0.195402,1.643478,0.067611,0.000000,0.000000,0.000000,0.000000,0.000000,0.000000
13328765.000000,-0.260817,0.544031,0.332957,-1.459940,-0.189336,1.977179,0.105080,0.012461,0.469222,-0.070198,-0.608357,-0.198756,1.018662,0.123773,-1.603961,-35.696369,4.326279,16.670103,0.273221,1.630660,0.054794,0.000000,0.000000,0.000000,0.000000,0.000000,0.000000
13328766.000000,-0.260810,0.544515,0.332895,-1.460559,-0.189537,1.978206,0.105203,0.010097,0.478407,-0.068921,-0.615638,-0.197844,1.018709,0.125019,-1.703143,-36.477924,4.203293,16.920042,0.315336,1.611434,0.074935,0.000000,0.000000,0.000000,0.000000,0.000000,0.000000
13328767.000000,-0.260810,0.545021,0.332836,-1.461188,-0.189736,1.979212,0.105329,0.005776,0.483281,-0.064911,-0.619933,-0.196265,1.014167,0.121098,-1.679339,-37.334858,4.080307,17.114439,0.339139,1.617843,0.094161,0.000000,0.000000,0.000000,0.000000,0.000000,0.000000
13328768.000000,-0.260798,0.545540,0.332780,-1.461821,-0.189930,1.980222,0.105461,0.005872,0.497371,-0.063921,-0.619465,-0.198049,1.015691,0.129738,-1.778521,-38.338581,3.909714,17.312803,0.320829,1.611434,0.041976,0.000000,0.000000,0.000000,0.000000,0.000000,0.000000
13328769.000000,-0.260794,0.546076,0.332729,-1.462439,-0.190128,1.981256,0.105579,0.005604,0.507478,-0.062910,-0.620257,-0.197193,1.016526,0.127999,-1.726946,-39.318501,3.715317,17.411985,0.243009,1.487838,0.100570,0.000000,0.000000,0.000000,0.000000,0.000000,0.000000
13328771.000000,-0.260779,0.547133,0.332623,-1.463696,-0.190518,1.983280,0.105834,0.006767,0.520676,-0.055561,-0.629798,-0.192267,1.012694,0.127067,-1.679339,-40.786396,3.417770,17.784910,0.166105,1.474105,0.094161,0.000000,0.000000,0.000000,0.000000,0.000000,0.000000
13328772.000000,-0.260774,0.547671,0.332571,-1.464328,-0.190711,1.984283,0.105962,0.003254,0.525094,-0.052826,-0.625180,-0.195818,1.007577,0.124527,-1.603961,-41.401325,3.322555,18.030882,0.166105,1.519881,0.061202,0.000000,0.000000,0.000000,0.000000,0.000000,0.000000
13328773.000000,-0.260776,0.548201,0.332522,-1.464970,-0.190906,1.985299,0.106087,-0.000329,0.526551,-0.050494,-0.624939,-0.196541,1.008834,0.125134,-1.480975,-42.012287,3.223373,18.276854,0.219205,1.565658,0.094161,0.000000,0.000000,0.000000,0.000000,0.000000,0.000000
13328774.000000,-0.260779,0.548729,0.332466,-1.465605,-0.191101,1.986322,0.106209,-0.003461,0.519742,-0.051700,-0.627523,-0.196037,1.012722,0.125583,-1.330218,-42.428852,3.247177,18.649778,0.255826,1.546432,0.127120,0.000000,0.000000,0.000000,0.000000,0.000000,0.000000
13328775.000000,-0.260787,0.549253,0.332416,-1.466256,-0.191302,1.987325,0.106347,-0.006734,0.521123,-0.053195,-0.632871,-0.199658,1.019631,0.129258,-1.131854,-42.670856,3.171798,19.117918,0.285123,1.532699,0.067611,0.000000,0.000000,0.000000,0.000000,0.000000,0.000000
13328776.000000,-0.260792,0.549773,0.332356,-1.466898,-0.191502,1.988329,0.106472,-0.005163,0.520555,-0.054099,-0.634251,-0.202506,1.005029,0.128404,-0.961260,-42.964436,3.223373,19.538450,0.315336,1.624252,0.107894,0.000000,0.000000,0.000000,0.000000,0.000000,0.000000
13328777.000000,-0.260806,0.550303,0.332298,-1.467552,-0.191697,1.989321,0.106602,-0.005819,0.517135,-0.057674,-0.638434,-0.202830,1.017609,0.130188,-0.711321,-43.285786,3.270981,19.982786,0.303434,1.727706,0.081344,0.000000,0.000000,0.000000,0.000000,0.000000,0.000000
13328778.000000,-0.260812,0.550827,0.332240,-1.468206,-0.191887,1.990314,0.106730,-0.006769,0.531439,-0.060093,-0.642547,-0.202525,1.010879,0.130509,-0.564532,-43.579365,3.322555,20.379515,0.267728,1.923629,0.081344,0.000000,0.000000,0.000000,0.000000,0.000000,0.000000
13328779.000000,-0.260831,0.551360,0.332180,-1.468838,-0.192072,1.991317,0.106856,-0.009951,0.531104,-0.058679,-0.642222,-0.196984,1.003748,0.129660,-0.314593,-43.821369,3.370163,20.601683,0.201810,2.039901,0.114303,0.000000,0.000000,0.000000,0.000000,0.000000,0.000000
13328780.000000,-0.260835,0.551898,0.332114,-1.469471,-0.192254,1.992308,0.106989,-0.006884,0.530361,-0.062508,-0.634377,-0.191883,1.003340,0.127737,-0.290789,-44.067341,3.493149,20.776243,0.112089,2.066451,0.048385,0.000000,0.000000,0.000000,0.000000,0.000000,0.000000
13328781.000000,-0.260849,0.552426,0.332048,-1.470123,-0.192443,1.993309,0.107108,-0.006680,0.533097,-0.068177,-0.638415,-0.189870,0.996861,0.126362,-0.191607,-44.289509,3.616134,21.046019,0.058073,2.079269,0.107894,0.000000,0.000000,0.000000,0.000000,0.000000,0.000000
13328782.000000,-0.260863,0.552962,0.331974,-1.470761,-0.192645,1.994309,0.107232,-0.006044,0.525488,-0.070399,-0.636440,-0.191025,0.985283,0.122854,-0.116229,-44.507710,3.786728,21.268187,0.088285,2.066451,0.114303,0.000000,0.000000,0.000000,0.000000,0.000000,0.000000
13328783.000000,-0.260881,0.553502,0.331893,-1.471403,-0.192848,1.995304,0.107362,-0.009812,0.530472,-0.076222,-0.641036,-0.199338,0.986982,0.127096,0.006757,-44.729877,4.008896,21.391172,0.195402,2.007858,0.061202,0.000000,0.000000,0.000000,0.000000,0.000000,0.000000
13328784.000000,-0.260896,0.554025,0.331804,-1.472036,-0.193054,1.996299,0.107486,-0.011499,0.530519,-0.082129,-0.636577,-0.201618,0.984567,0.126780,0.078168,-44.825092,4.302475,21.514158,0.327238,1.995040,0.100570,0.000000,0.000000,0.000000,0.000000,0.000000,0.000000
13328785.000000,-0.260911,0.554556,0.331713,-1.472668,-0.193262,1.997281,0.107615,-0.009807,0.525548,-0.088824,-0.630903,-0.205616,0.993463,0.129097,0.153547,-44.852863,4.572250,21.514158,0.416959,2.007858,0.067611,0.000000,0.000000,0.000000,0.000000,0.000000,0.000000
13328786.000000,-0.260920,0.555085,0.331618,-1.473300,-0.193452,1.998280,0.107734,-0.010554,0.527295,-0.090865,-0.627707,-0.199663,0.997328,0.127039,0.177350,-44.924274,4.865829,21.418943,0.381254,1.949264,0.120712,0.000000,0.000000,0.000000,0.000000,0.000000,0.000000
13328787.000000,-0.260929,0.555605,0.331529,-1.473912,-0.193650,1.999275,0.107864,-0.007513,0.527088,-0.092794,-0.627798,-0.203108,0.989430,0.125316,0.177350,-44.801289,5.040390,21.268187,0.315336,1.923629,0.074935,0.000000,0.000000,0.000000,0.000000,0.000000,0.000000
13328788.000000,-0.260932,0.556133,0.331433,-1.474519,-0.193858,2.000250,0.107984,-0.007341,0.521233,-0.095494,-0.621496,-0.206026,0.988442,0.120354,0.129743,-44.678303,5.258591,21.022215,0.249418,2.020675,0.120712,0.000000,0.000000,0.000000,0.000000,0.000000,0.000000
13328789.000000,-0.260937,0.556651,0.331326,-1.475114,-0.194058,2.001239,0.108115,-0.004863,0.521573,-0.096242,-0.607514,-0.199936,0.978932,0.126928,0.105939,-44.606892,5.556137,20.724669,0.189908,2.060043,0.028243,0.000000,0.000000,0.000000,0.000000,0.000000,0.000000
13328790.000000,-0.260946,0.557166,0.331225,-1.475708,-0.194266,2.002225,0.108237,-0.004193,0.514893,-0.096179,-0.600366,-0.201291,0.990466,0.125865,0.129743,-44.408527,5.702927,20.403318,0.183500,2.033492,0.074935,0.000000,0.000000,0.000000,0.000000,0.000000,0.000000
13328791.000000,-0.260959,0.557678,0.331117,-1.476306,-0.194474,2.003222,0.108358,-0.004854,0.514470,-0.097820,-0.597279,-0.204397,0.993808,0.127085,0.205121,-44.214130,5.921127,20.181150,0.219205,2.027084,0.081344,0.000000,0.000000,0.000000,0.000000,0.000000,0.000000
13328792.000000,-0.260966,0.558185,0.331012,-1.476883,-0.194685,2.004243,0.108480,-0.004015,0.509276,-0.103282,-0.589316,-0.206952,0.993470,0.128546,0.228925,-43.968159,6.067917,19.982786,0.267728,1.832076,0.074935,0.000000,0.000000,0.000000,0.000000,0.000000,0.000000
13328793.000000,-0.260972,0.558706,0.330904,-1.477455,-0.194908,2.005260,0.108602,-0.002843,0.508551,-0.105052,-0.580852,-0.209152,1.001641,0.128936,0.228925,-43.944355,6.218674,19.713011,0.332731,1.630660,0.081344,0.000000,0.000000,0.000000,0.000000,0.000000,0.000000
13328794.000000,-0.260982,0.559224,0.330792,-1.478015,-0.195128,2.006263,0.108731,-0.006238,0.515658,-0.106924,-0.575212,-0.214304,1.000476,0.130687,0.276533,-43.872944,6.389267,19.415464,0.374845,1.689254,0.067611,0.000000,0.000000,0.000000,0.000000,0.000000,0.000000
13328795.000000,-0.260989,0.559745,0.330691,-1.478573,-0.195346,2.007254,0.108854,-0.008756,0.513469,-0.102377,-0.569750,-0.212463,1.004531,0.124263,0.328107,-43.797565,6.436874,19.217100,0.393156,1.721298,0.120712,0.000000,0.000000,0.000000,0.000000,0.000000,0.000000
13328796.000000,-0.260995,0.560251,0.330588,-1.479124,-0.195560,2.008266,0.108990,-0.006911,0.517362,-0.101631,-0.561055,-0.210201,1.009030,0.123846,0.351911,-43.650776,6.460678,18.994932,0.374845,1.695663,0.061202,0.000000,0.000000,0.000000,0.000000,0.000000,0.000000
13328797.000000,-0.260997,0.560776,0.330485,-1.479667,-0.195764,2.009279,0.109112,-0.005552,0.521590,-0.103942,-0.556216,-0.202311,1.007503,0.129067,0.375715,-43.579365,6.460678,18.796568,0.303434,1.676437,0.100570,0.000000,0.000000,0.000000,0.000000,0.000000,0.000000
13328798.000000,-0.261002,0.561301,0.330387,-1.480208,-0.195971,2.010280,0.109238,-0.004642,0.520958,-0.101107,-0.551068,-0.205093,1.004242,0.128985,0.403486,-43.603168,6.389267,18.673582,0.231107,1.708480,0.114303,0.000000,0.000000,0.000000,0.000000,0.000000,0.000000
13328799.000000,-0.261003,0.561815,0.330290,-1.480741,-0.196180,2.011295,0.109374,-0.003313,0.516435,-0.099673,-0.540876,-0.204850,1.005365,0.131965,0.403486,-43.579365,6.341660,18.550596,0.201810,1.741439,0.054794,0.000000,0.000000,0.000000,0.000000,0.000000,0.000000
13328800.000000,-0.261005,0.562349,0.330196,-1.481278,-0.196389,2.012313,0.109503,-0.002929,0.519414,-0.095605,-0.540598,-0.203586,1.002316,0.131745,0.427289,-43.726154,6.290085,18.625975,0.154203,1.793624,0.054794,0.000000,0.000000,0.000000,0.000000,0.000000,0.000000
13328801.000000,-0.261010,0.562876,0.330101,-1.481817,-0.196599,2.013316,0.109630,-0.004396,0.523218,-0.092723,-0.537564,-0.206216,1.002060,0.131835,0.526471,-43.896748,6.242477,18.796568,0.189908,1.793624,0.048385,0.000000,0.000000,0.000000,0.000000,0.000000,0.000000
13328802.000000,-0.261012,0.563415,0.330000,-1.482356,-0.196814,2.014330,0.109751,-0.004136,0.525657,-0.095505,-0.537226,-0.209650,1.007989,0.129309,0.574079,-44.114948,6.266281,19.141722,0.273221,1.708480,0.114303,0.000000,0.000000,0.000000,0.000000,0.000000,0.000000
13328803.000000,-0.261019,0.563958,0.329909,-1.482912,-0.197025,2.015322,0.109889,-0.005147,0.533124,-0.093111,-0.544628,-0.210396,1.001206,0.131571,0.673261,-44.337116,6.242477,19.590025,0.320829,1.727706,0.067611,0.000000,0.000000,0.000000,0.000000,0.000000,0.000000
13328804.000000,-0.261019,0.564489,0.329829,-1.483470,-0.197233,2.016316,0.110012,-0.004040,0.530114,-0.091393,-0.549490,-0.214115,0.992831,0.128498,0.697065,-44.436298,6.095688,20.034361,0.332731,1.832076,0.133529,0.000000,0.000000,0.000000,0.000000,0.000000,0.000000
13328805.000000,-0.261020,0.565035,0.329745,-1.484014,-0.197449,2.017308,0.110154,-0.003382,0.533198,-0.085981,-0.548848,-0.216934,0.990225,0.127645,0.724836,-44.630695,6.020309,20.304136,0.339139,1.981307,0.054794,0.000000,0.000000,0.000000,0.000000,0.000000,0.000000
13328806.000000,-0.261018,0.565585,0.329669,-1.484569,-0.197662,2.018281,0.110281,-0.001634,0.537523,-0.082287,-0.546759,-0.216754,0.990121,0.122754,0.697065,-44.900471,5.825912,20.554075,0.285123,2.098495,0.081344,0.000000,0.000000,0.000000,0.000000,0.000000,0.000000
13328807.000000,-0.261010,0.566125,0.329588,-1.485117,-0.197864,2.019260,0.110410,0.000559,0.534748,-0.078315,-0.557926,-0.207591,0.983955,0.124725,0.625654,-45.071064,5.702927,20.871458,0.213712,2.169906,0.087753,0.000000,0.000000,0.000000,0.000000,0.000000,0.000000
13328808.000000,-0.261008,0.566672,0.329510,-1.485676,-0.198069,2.020244,0.110545,0.000913,0.537021,-0.079706,-0.559047,-0.205105,0.985154,0.127079,0.601850,-45.194050,5.627548,21.169004,0.154203,2.020675,0.067611,0.000000,0.000000,0.000000,0.000000,0.000000,0.000000
13328809.000000,-0.261002,0.567211,0.329430,-1.486244,-0.198278,2.021231,0.110671,0.001803,0.540407,-0.077981,-0.559887,-0.206421,0.981843,0.122182,0.550275,-45.340839,5.579941,21.490355,0.166105,1.968490,0.107894,0.000000,0.000000,0.000000,0.000000,0.000000,0.000000
13328810.000000,-0.260997,0.567750,0.329351,-1.486796,-0.198499,2.022211,0.110806,0.001750,0.532468,-0.079334,-0.556981,-0.210723,0.975175,0.126408,0.526471,-45.340839,5.528366,21.764097,0.273221,2.020675,0.061202,0.000000,0.000000,0.000000,0.000000,0.000000,0.000000
13328811.000000,-0.260990,0.568308,0.329273,-1.487357,-0.198728,2.023169,0.110928,0.004864,0.540508,-0.080802,-0.555037,-0.217469,0.973985,0.126010,0.502668,-45.487629,5.480759,21.962461,0.374845,2.104903,0.100570,0.000000,0.000000,0.000000,0.000000,0.000000,0.000000
13328812.000000,-0.260984,0.568838,0.329190,-1.487915,-0.198951,2.024144,0.111059,0.002943,0.540978,-0.080877,-0.561089,-0.217834,0.977217,0.132940,0.526471,-45.388447,5.528366,22.133055,0.470060,2.157089,0.081344,0.000000,0.000000,0.000000,0.000000,0.000000,0.000000
13328813.000000,-0.260968,0.569375,0.329113,-1.488477,-0.199174,2.025110,0.111191,0.008120,0.533271,-0.078600,-0.558490,-0.218953,0.993059,0.131619,0.403486,-45.241657,5.480759,22.283812,0.482877,2.131454,0.107894,0.000000,0.000000,0.000000,0.000000,0.000000,0.000000
13328814.000000,-0.260956,0.569901,0.329042,-1.489034,-0.199384,2.026105,0.111324,0.009610,0.543373,-0.075541,-0.553886,-0.217421,0.991811,0.131077,0.375715,-45.047260,5.381577,22.355223,0.416959,1.981307,0.127120,0.000000,0.000000,0.000000,0.000000,0.000000,0.000000
13328815.000000,-0.260934,0.570424,0.328961,-1.489584,-0.199592,2.027090,0.111462,0.014064,0.533462,-0.076503,-0.554519,-0.216382,0.988982,0.133859,0.205121,-44.801289,5.405380,22.406797,0.344633,1.988631,0.061202,0.000000,0.000000,0.000000,0.000000,0.000000,0.000000
13328816.000000,-0.260917,0.570950,0.328891,-1.490139,-0.199814,2.028044,0.111590,0.015516,0.523166,-0.074746,-0.550353,-0.217050,0.979981,0.131078,0.105939,-44.531513,5.333969,22.529783,0.308927,2.072860,0.114303,0.000000,0.000000,0.000000,0.000000,0.000000,0.000000
13328817.000000,-0.260897,0.571470,0.328809,-1.490685,-0.200041,2.028999,0.111724,0.017818,0.523861,-0.078743,-0.544851,-0.219754,0.971094,0.132517,-0.044818,-44.313313,5.357773,22.529783,0.327238,2.267867,0.081344,0.000000,0.000000,0.000000,0.000000,0.000000,0.000000
13328818.000000,-0.260878,0.572001,0.328729,-1.491223,-0.200263,2.029963,0.111854,0.018163,0.526844,-0.081843,-0.543760,-0.221671,0.964192,0.131240,-0.144000,-44.237934,5.381577,22.529783,0.356534,2.423507,0.107894,0.000000,0.000000,0.000000,0.000000,0.000000,0.000000
13328819.000000,-0.260864,0.572534,0.328651,-1.491773,-0.200483,2.030932,0.111985,0.019603,0.521788,-0.079796,-0.539373,-0.223240,0.964751,0.126669,-0.167803,-44.091145,5.357773,22.704344,0.381254,2.417098,0.107894,0.000000,0.000000,0.000000,0.000000,0.000000,0.000000
13328820.000000,-0.260839,0.573050,0.328570,-1.492310,-0.200705,2.031922,0.112115,0.017676,0.519852,-0.081916,-0.538968,-0.224417,0.964158,0.123314,-0.314593,-43.797565,5.357773,22.827330,0.405057,2.261459,0.107894,0.000000,0.000000,0.000000,0.000000,0.000000,0.000000
13328821.000000,-0.260813,0.573568,0.328493,-1.492854,-0.200925,2.032900,0.112247,0.023044,0.519118,-0.079832,-0.543415,-0.222834,0.974868,0.130845,-0.489153,-43.527790,5.333969,22.997923,0.381254,2.092086,0.081344,0.000000,0.000000,0.000000,0.000000,0.000000,0.000000
13328822.000000,-0.260798,0.574095,0.328415,-1.493384,-0.201158,2.033871,0.112384,0.023431,0.517958,-0.077508,-0.533401,-0.223785,0.975934,0.135155,-0.512957,-43.456379,5.286362,23.025694,0.398649,2.072860,0.074935,0.000000,0.000000,0.000000,0.000000,0.000000,0.000000
13328823.000000,-0.260774,0.574648,0.328342,-1.493897,-0.201393,2.034825,0.112514,0.022475,0.526066,-0.078550,-0.527939,-0.225035,0.955538,0.133804,-0.612139,-43.674580,5.210983,22.997923,0.434354,2.261459,0.087753,0.000000,0.000000,0.000000,0.000000,0.000000,0.000000
13328824.000000,-0.260754,0.575193,0.328268,-1.494421,-0.201632,2.035768,0.112653,0.023670,0.531730,-0.076903,-0.526828,-0.226623,0.951659,0.134116,-0.663714,-43.749958,5.163376,23.120909,0.488370,2.423507,0.061202,0.000000,0.000000,0.000000,0.000000,0.000000,0.000000
13328825.000000,-0.260729,0.575735,0.328189,-1.494934,-0.201860,2.036737,0.112780,0.025884,0.533703,-0.080005,-0.532879,-0.228955,0.953134,0.131815,-0.762896,-43.872944,5.163376,23.220091,0.458158,2.423507,0.107894,0.000000,0.000000,0.000000,0.000000,0.000000,0.000000
13328826.000000,-0.260705,0.576275,0.328114,-1.495457,-0.202091,2.037708,0.112920,0.026863,0.534269,-0.080474,-0.530181,-0.226269,0.962695,0.132979,-0.834307,-43.872944,5.087997,23.442259,0.434354,2.255050,0.074935,0.000000,0.000000,0.000000,0.000000,0.000000,0.000000
13328827.000000,-0.260688,0.576805,0.328040,-1.495966,-0.202323,2.038680,0.113054,0.025404,0.532154,-0.077603,-0.520956,-0.229235,0.961419,0.132285,-0.810504,-43.849140,5.012619,23.493834,0.410551,2.150680,0.087753,0.000000,0.000000,0.000000,0.000000,0.000000,0.000000
13328828.000000,-0.260672,0.577342,0.327969,-1.496478,-0.202560,2.039642,0.113189,0.020803,0.526857,-0.077854,-0.518426,-0.233225,0.956894,0.137161,-0.762896,-43.702351,4.917404,23.593016,0.434354,2.235824,0.081344,0.000000,0.000000,0.000000,0.000000,0.000000,0.000000
13328829.000000,-0.260658,0.577879,0.327895,-1.496979,-0.202802,2.040591,0.113325,0.016896,0.530247,-0.075917,-0.513853,-0.237676,0.955555,0.135998,-0.687518,-43.555561,4.842026,23.470030,0.500272,2.307235,0.067611,0.000000,0.000000,0.000000,0.000000,0.000000,0.000000
13328830.000000,-0.260646,0.578410,0.327819,-1.497477,-0.203035,2.041549,0.113454,0.016151,0.534101,-0.075054,-0.508332,-0.234678,0.952476,0.133195,-0.564532,-43.456379,4.794418,23.347044,0.512174,2.397872,0.114303,0.000000,0.000000,0.000000,0.000000,0.000000,0.000000
13328831.000000,-0.260629,0.578949,0.327751,-1.497969,-0.203264,2.042494,0.113597,0.017416,0.529175,-0.072138,-0.500751,-0.230983,0.954221,0.134976,-0.512957,-43.333393,4.647629,23.196287,0.494779,2.456466,0.061202,0.000000,0.000000,0.000000,0.000000,0.000000,0.000000
13328832.000000,-0.260608,0.579488,0.327672,-1.498464,-0.203485,2.043477,0.113737,0.020296,0.532360,-0.073364,-0.496889,-0.231634,0.955049,0.133649,-0.540728,-43.186604,4.647629,23.148680,0.440763,2.248641,0.074935,0.000000,0.000000,0.000000,0.000000,0.000000,0.000000
13328833.000000,-0.260596,0.580011,0.327596,-1.498943,-0.203711,2.044473,0.113875,0.019249,0.527286,-0.073039,-0.492245,-0.231105,0.958920,0.133506,-0.441546,-43.016010,4.596054,22.997923,0.356534,2.033492,0.067611,0.000000,0.000000,0.000000,0.000000,0.000000,0.000000
13328834.000000,-0.260587,0.580556,0.327529,-1.499421,-0.203940,2.045436,0.114010,0.014327,0.529846,-0.071100,-0.487173,-0.229523,0.960063,0.130785,-0.290789,-42.964436,4.473068,22.775755,0.356534,2.007858,0.120712,0.000000,0.000000,0.000000,0.000000,0.000000,0.000000
13328835.000000,-0.260578,0.581096,0.327453,-1.499885,-0.204169,2.046401,0.114154,0.010975,0.532381,-0.072503,-0.474575,-0.230288,0.955700,0.137530,-0.144000,-42.916828,4.473068,22.430601,0.405057,2.092086,0.054794,0.000000,0.000000,0.000000,0.000000,0.000000,0.000000
13328836.000000,-0.260571,0.581623,0.327378,-1.500346,-0.204398,2.047359,0.114290,0.011021,0.527197,-0.073029,-0.468461,-0.230144,0.956581,0.130483,0.030561,-42.623249,4.449265,22.208433,0.446256,2.242233,0.074935,0.000000,0.000000,0.000000,0.000000,0.000000,0.000000
13328837.000000,-0.260561,0.582150,0.327303,-1.500799,-0.204624,2.048315,0.114427,0.012729,0.519751,-0.076557,-0.460516,-0.233083,0.952282,0.130104,0.129743,-42.230488,4.425461,21.887083,0.458158,2.274276,0.094161,0.000000,0.000000,0.000000,0.000000,0.000000,0.000000
13328838.000000,-0.260550,0.582666,0.327221,-1.501250,-0.204847,2.049304,0.114564,0.014770,0.517078,-0.080802,-0.459944,-0.233032,0.957015,0.130991,0.205121,-41.865498,4.473068,21.613340,0.405057,2.157089,0.081344,0.000000,0.000000,0.000000,0.000000,0.000000,0.000000
13328839.000000,-0.260539,0.583176,0.327147,-1.501701,-0.205069,2.050289,0.114698,0.016300,0.508908,-0.078407,-0.455780,-0.223037,0.964383,0.130798,0.276533,-41.373554,4.425461,21.442747,0.315336,1.995040,0.087753,0.000000,0.000000,0.000000,0.000000,0.000000,0.000000
13328840.000000,-0.260529,0.583682,0.327071,-1.502141,-0.205286,2.051274,0.114839,0.014736,0.505383,-0.077066,-0.450240,-0.221914,0.974161,0.136057,0.328107,-40.933186,4.401657,21.169004,0.267728,1.962081,0.061202,0.000000,0.000000,0.000000,0.000000,0.000000,0.000000
13328841.000000,-0.260513,0.584197,0.326989,-1.502566,-0.205502,2.052250,0.114974,0.017216,0.504360,-0.077898,-0.444492,-0.218158,0.972910,0.133939,0.351911,-40.591999,4.449265,20.823851,0.255826,2.047225,0.087753,0.000000,0.000000,0.000000,0.000000,0.000000,0.000000
13328842.000000,-0.260506,0.584718,0.326904,-1.502987,-0.205727,2.053205,0.115111,0.017272,0.508969,-0.078537,-0.431294,-0.218488,0.962425,0.132532,0.451093,-40.322224,4.500839,20.526304,0.332731,2.125045,0.107894,0.000000,0.000000,0.000000,0.000000,0.000000,0.000000
13328843.000000,-0.260492,0.585229,0.326818,-1.503401,-0.205949,2.054182,0.115254,0.015999,0.506612,-0.082516,-0.437403,-0.224216,0.961083,0.139670,0.474897,-39.929462,4.572250,20.327940,0.332731,2.125045,0.041976,0.000000,0.000000,0.000000,0.000000,0.000000,0.000000
13328844.000000,-0.260476,0.585732,0.326735,-1.503812,-0.206177,2.055152,0.115385,0.015467,0.504069,-0.084882,-0.429037,-0.223000,0.966428,0.135335,0.474897,-39.417683,4.619858,20.133543,0.308927,2.020675,0.100570,0.000000,0.000000,0.000000,0.000000,0.000000,0.000000
13328845.000000,-0.260460,0.586229,0.326648,-1.504221,-0.206401,2.056132,0.115529,0.014965,0.513794,-0.083870,-0.418311,-0.223443,0.973911,0.136348,0.474897,-38.925739,4.695236,19.911375,0.308927,1.909896,0.054794,0.000000,0.000000,0.000000,0.000000,0.000000,0.000000
13328846.000000,-0.260444,0.586738,0.326563,-1.504608,-0.206621,2.057100,0.115662,0.014501,0.510173,-0.085230,-0.408716,-0.222171,0.964177,0.137663,0.474897,-38.437763,4.719040,19.613829,0.267728,1.949264,0.114303,0.000000,0.000000,0.000000,0.000000,0.000000,0.000000
13328847.000000,-0.260428,0.587251,0.326473,-1.504993,-0.206843,2.058043,0.115800,0.016634,0.506750,-0.087520,-0.399766,-0.217446,0.949998,0.132373,0.502668,-38.120380,4.794418,19.240904,0.237516,2.066451,0.087753,0.000000,0.000000,0.000000,0.000000,0.000000,0.000000
13328848.000000,-0.260402,0.587765,0.326383,-1.505377,-0.207065,2.059016,0.115939,0.021193,0.508972,-0.087815,-0.392404,-0.219358,0.953490,0.137234,0.403486,-38.021198,4.818222,18.947325,0.237516,2.014266,0.081344,0.000000,0.000000,0.000000,0.000000,0.000000,0.000000
13328849.000000,-0.260378,0.588284,0.326295,-1.505762,-0.207295,2.059987,0.116083,0.020586,0.509696,-0.088228,-0.392926,-0.220136,0.980200,0.137224,0.328107,-37.802998,4.842026,18.796568,0.231107,1.851302,0.061202,0.000000,0.000000,0.000000,0.000000,0.000000,0.000000
13328850.000000,-0.260359,0.588794,0.326204,-1.506148,-0.207523,2.060960,0.116231,0.021509,0.510321,-0.088437,-0.387893,-0.228727,0.978476,0.136270,0.328107,-37.680012,4.865829,18.721189,0.237516,1.786300,0.048385,0.000000,0.000000,0.000000,0.000000,0.000000,0.000000
13328851.000000,-0.260332,0.589319,0.326113,-1.506517,-0.207753,2.061937,0.116370,0.023872,0.508047,-0.088184,-0.383743,-0.229337,0.970795,0.133235,0.252729,-37.628437,4.865829,18.598204,0.279630,1.702071,0.100570,0.000000,0.000000,0.000000,0.000000,0.000000,0.000000
13328852.000000,-0.260311,0.589849,0.326016,-1.506889,-0.207983,2.062900,0.116520,0.024552,0.514035,-0.090305,-0.379017,-0.229028,0.963301,0.134668,0.228925,-37.509418,4.965012,18.550596,0.315336,1.721298,0.048385,0.000000,0.000000,0.000000,0.000000,0.000000,0.000000
13328853.000000,-0.260291,0.590370,0.325926,-1.507260,-0.208213,2.063857,0.116656,0.023966,0.520406,-0.085600,-0.378098,-0.229176,0.958976,0.139882,0.252729,-37.434040,4.941208,18.499022,0.356534,1.812850,0.114303,0.000000,0.000000,0.000000,0.000000,0.000000,0.000000
13328854.000000,-0.260262,0.590894,0.325837,-1.507622,-0.208447,2.064834,0.116803,0.026424,0.515548,-0.085534,-0.370789,-0.231856,0.966010,0.138962,0.153547,-37.287251,4.917404,18.427610,0.351041,1.786300,0.087753,0.000000,0.000000,0.000000,0.000000,0.000000,0.000000
13328855.000000,-0.260236,0.591425,0.325745,-1.507987,-0.208680,2.065784,0.116951,0.026221,0.520320,-0.086116,-0.369898,-0.231500,0.961471,0.139303,0.129743,-37.164265,4.917404,18.451414,0.279630,1.767074,0.048385,0.000000,0.000000,0.000000,0.000000,0.000000,0.000000
13328856.000000,-0.260209,0.591956,0.325659,-1.508343,-0.208916,2.066744,0.117087,0.023822,0.526543,-0.086906,-0.365329,-0.229550,0.954804,0.140294,0.078168,-37.211872,4.794418,18.427610,0.267728,1.779891,0.094161,0.000000,0.000000,0.000000,0.000000,0.000000,0.000000
13328857.000000,-0.260177,0.592504,0.325572,-1.508698,-0.209147,2.067697,0.117235,0.028718,0.527752,-0.086227,-0.360674,-0.230667,0.960180,0.139990,0.006757,-37.386433,4.742844,18.352232,0.225614,1.812850,0.041976,0.000000,0.000000,0.000000,0.000000,0.000000,0.000000
13328858.000000,-0.260151,0.593053,0.325486,-1.509053,-0.209376,2.068647,0.117380,0.027521,0.539242,-0.084530,-0.357798,-0.229507,0.957205,0.141959,0.006757,-37.604633,4.647629,18.177671,0.231107,1.916305,0.061202,0.000000,0.000000,0.000000,0.000000,0.000000,0.000000
13328859.000000,-0.260125,0.593600,0.325401,-1.509399,-0.209610,2.069601,0.117521,0.029832,0.539285,-0.086552,-0.353582,-0.231661,0.957510,0.139139,0.006757,-37.656208,4.572250,18.030882,0.207303,1.988631,0.067611,0.000000,0.000000,0.000000,0.000000,0.000000,0.000000
13328860.000000,-0.260095,0.594158,0.325313,-1.509752,-0.209850,2.070556,0.117666,0.028549,0.538134,-0.086253,-0.350729,-0.233353,0.953288,0.138113,0.006757,-37.751423,4.524643,17.931700,0.189908,1.890670,0.041976,0.000000,0.000000,0.000000,0.000000,0.000000,0.000000
13328861.000000,-0.260065,0.594712,0.325222,-1.510095,-0.210087,2.071538,0.117805,0.028840,0.545481,-0.086355,-0.353250,-0.236893,0.956835,0.140750,-0.044818,-37.775227,4.500839,17.808714,0.225614,1.702071,0.054794,0.000000,0.000000,0.000000,0.000000,0.000000,0.000000
13328862.000000,-0.260044,0.595265,0.325136,-1.510447,-0.210329,2.072495,0.117942,0.025400,0.542473,-0.083248,-0.354560,-0.238643,0.957559,0.141094,0.054365,-37.751423,4.473068,17.709532,0.255826,1.605026,0.107894,0.000000,0.000000,0.000000,0.000000,0.000000,0.000000
13328863.000000,-0.260020,0.595830,0.325054,-1.510794,-0.210564,2.073444,0.118086,0.023702,0.544535,-0.079718,-0.350137,-0.231450,0.956737,0.139328,0.129743,-37.973591,4.401657,17.534971,0.279630,1.649886,0.100570,0.000000,0.000000,0.000000,0.000000,0.000000,0.000000
13328864.000000,-0.259992,0.596411,0.324970,-1.511138,-0.210801,2.074398,0.118229,0.024248,0.554170,-0.080379,-0.346878,-0.234708,0.955742,0.139424,0.129743,-38.243366,4.326279,17.463560,0.303434,1.689254,0.048385,0.000000,0.000000,0.000000,0.000000,0.000000,0.000000
13328865.000000,-0.259965,0.596991,0.324887,-1.511476,-0.211039,2.075340,0.118362,0.024033,0.558946,-0.081586,-0.340864,-0.234133,0.949262,0.139890,0.153547,-38.485371,4.278671,17.265196,0.249418,1.662704,0.100570,0.000000,0.000000,0.000000,0.000000,0.000000,0.000000
13328866.000000,-0.259936,0.597555,0.324805,-1.511811,-0.211269,2.076301,0.118507,0.024371,0.559195,-0.081118,-0.337516,-0.229051,0.953385,0.138883,0.153547,-38.608356,4.179489,17.090635,0.178007,1.611434,0.074935,0.000000,0.000000,0.000000,0.000000,0.000000,0.000000
13328867.000000,-0.259907,0.598147,0.324718,-1.512152,-0.211505,2.077248,0.118653,0.024034,0.568016,-0.083299,-0.340490,-0.230787,0.953912,0.142139,0.177350,-38.878132,4.179489,17.019224,0.147794,1.532699,0.081344,0.000000,0.000000,0.000000,0.000000,0.000000,0.000000
13328868.000000,-0.259879,0.598727,0.324629,-1.512494,-0.211729,2.078189,0.118803,0.027582,0.568336,-0.087797,-0.339191,-0.227572,0.950024,0.146011,0.177350,-38.953510,4.179489,16.967649,0.100187,1.546432,0.034652,0.000000,0.000000,0.000000,0.000000,0.000000,0.000000
13328869.000000,-0.259858,0.599296,0.324533,-1.512822,-0.211967,2.079128,0.118941,0.023954,0.569041,-0.090332,-0.337370,-0.232637,0.935204,0.145376,0.304304,-38.953510,4.278671,16.844664,0.135892,1.617843,0.081344,0.000000,0.000000,0.000000,0.000000,0.000000,0.000000
13328870.000000,-0.259830,0.599886,0.324440,-1.513152,-0.212214,2.080068,0.119086,0.023434,0.572384,-0.090854,-0.334524,-0.241028,0.934527,0.144490,0.351911,-39.048725,4.326279,16.670103,0.195402,1.578475,0.133529,0.000000,0.000000,0.000000,0.000000,0.000000,0.000000
13328871.000000,-0.259801,0.600482,0.324345,-1.513487,-0.212449,2.081010,0.119241,0.022944,0.580844,-0.091026,-0.331743,-0.237179,0.934638,0.152943,0.403486,-39.366108,4.377853,16.598692,0.207303,1.624252,0.054794,0.000000,0.000000,0.000000,0.000000,0.000000,0.000000
13328872.000000,-0.259777,0.601079,0.324253,-1.513824,-0.212685,2.081965,0.119381,0.024567,0.585315,-0.090666,-0.333836,-0.233208,0.942109,0.150740,0.502668,-39.564472,4.401657,16.570921,0.189908,1.597701,0.094161,0.000000,0.000000,0.000000,0.000000,0.000000,0.000000
13328873.000000,-0.259745,0.601691,0.324156,-1.514167,-0.212914,2.082910,0.119534,0.028706,0.589745,-0.091575,-0.333894,-0.229887,0.937532,0.152542,0.474897,-39.858051,4.473068,16.646299,0.159696,1.474105,0.041976,0.000000,0.000000,0.000000,0.000000,0.000000,0.000000
13328874.000000,-0.259721,0.602288,0.324061,-1.514491,-0.213145,2.083876,0.119676,0.028867,0.594699,-0.093065,-0.334683,-0.228595,0.939700,0.151086,0.574079,-40.004841,4.449265,16.598692,0.159696,1.299239,0.067611,0.000000,0.000000,0.000000,0.000000,0.000000,0.000000
13328875.000000,-0.259691,0.602882,0.323952,-1.514823,-0.213386,2.084805,0.119821,0.028233,0.594447,-0.100049,-0.333185,-0.229896,0.937296,0.144078,0.574079,-39.981037,4.671432,16.598692,0.112089,1.383468,0.120712,0.000000,0.000000,0.000000,0.000000,0.000000,0.000000
13328876.000000,-0.259658,0.603469,0.323851,-1.515154,-0.213634,2.085736,0.119983,0.031416,0.591463,-0.100595,-0.330850,-0.239295,0.935088,0.149416,0.550275,-39.929462,4.719040,16.570921,0.166105,1.487838,0.028243,0.000000,0.000000,0.000000,0.000000,0.000000,0.000000
13328877.000000,-0.259628,0.604071,0.323747,-1.515486,-0.213880,2.086664,0.120127,0.032499,0.587134,-0.104437,-0.327609,-0.240706,0.930818,0.143954,0.574079,-39.957233,4.794418,16.598692,0.189908,1.656295,0.054794,0.000000,0.000000,0.000000,0.000000,0.000000,0.000000
13328878.000000,-0.259600,0.604682,0.323632,-1.515814,-0.214124,2.087583,0.120274,0.032712,0.595604,-0.110271,-0.323034,-0.240457,0.926843,0.149490,0.625654,-40.052448,4.965012,16.570921,0.183500,1.747848,0.067611,0.000000,0.000000,0.000000,0.000000,0.000000,0.000000
13328879.000000,-0.259575,0.605279,0.323526,-1.516135,-0.214362,2.088538,0.120418,0.029339,0.599382,-0.111477,-0.324312,-0.239875,0.934337,0.148443,0.697065,-40.127827,5.012619,16.570921,0.159696,1.637069,0.107894,0.000000,0.000000,0.000000,0.000000,0.000000,0.000000
13328880.000000,-0.259540,0.605877,0.323413,-1.516479,-0.214608,2.089481,0.120572,0.029641,0.594779,-0.111822,-0.327842,-0.241869,0.960689,0.147283,0.649457,-40.076252,5.163376,16.820860,0.100187,1.494247,0.028243,0.000000,0.000000,0.000000,0.000000,0.000000,0.000000
13328881.000000,-0.259512,0.606475,0.323305,-1.516804,-0.214861,2.090419,0.120710,0.030630,0.605080,-0.109367,-0.324139,-0.242650,0.956082,0.146039,0.697065,-40.028645,5.210983,16.844664,0.117582,1.500655,0.081344,0.000000,0.000000,0.000000,0.000000,0.000000,0.000000
13328882.000000,-0.259482,0.607086,0.323192,-1.517131,-0.215114,2.091349,0.120855,0.031891,0.606841,-0.112834,-0.328481,-0.244733,0.933735,0.146502,0.724836,-40.052448,5.333969,16.868467,0.178007,1.617843,0.100570,0.000000,0.000000,0.000000,0.000000,0.000000,0.000000
13328883.000000,-0.259455,0.607685,0.323081,-1.517453,-0.215362,2.092262,0.121011,0.028718,0.604336,-0.110394,-0.324015,-0.240560,0.922394,0.154421,0.796247,-39.858051,5.381577,16.844664,0.207303,1.754256,0.034652,0.000000,0.000000,0.000000,0.000000,0.000000,0.000000
13328884.000000,-0.259418,0.608275,0.322962,-1.517783,-0.215608,2.093188,0.121153,0.032073,0.596325,-0.113316,-0.327574,-0.246329,0.922056,0.155784,0.748639,-39.659687,5.504562,16.967649,0.243009,1.754256,0.094161,0.000000,0.000000,0.000000,0.000000,0.000000,0.000000
13328885.000000,-0.259383,0.608880,0.322843,-1.518111,-0.215860,2.094119,0.121309,0.033934,0.593608,-0.118216,-0.326807,-0.247650,0.923916,0.156192,0.724836,-39.512897,5.603745,17.090635,0.201810,1.727706,0.048385,0.000000,0.000000,0.000000,0.000000,0.000000,0.000000
13328886.000000,-0.259353,0.609479,0.322729,-1.518445,-0.216108,2.095031,0.121457,0.034333,0.594355,-0.115811,-0.324168,-0.245036,0.916609,0.155983,0.748639,-39.270893,5.579941,17.289000,0.171598,1.689254,0.041976,0.000000,0.000000,0.000000,0.000000,0.000000,0.000000
13328887.000000,-0.259315,0.610072,0.322609,-1.518768,-0.216361,2.095953,0.121601,0.035779,0.593709,-0.120242,-0.321756,-0.245198,0.911209,0.153467,0.724836,-39.147907,5.679123,17.312803,0.201810,1.721298,0.074935,0.000000,0.000000,0.000000,0.000000,0.000000,0.000000
13328888.000000,-0.259284,0.610678,0.322497,-1.519094,-0.216611,2.096854,0.121752,0.034581,0.592387,-0.118129,-0.318252,-0.244844,0.908079,0.148908,0.796247,-39.124104,5.679123,17.388182,0.231107,1.793624,0.048385,0.000000,0.000000,0.000000,0.000000,0.000000,0.000000
13328889.000000,-0.259251,0.611273,0.322381,-1.519422,-0.216859,2.097762,0.121889,0.031721,0.595461,-0.117007,-0.320224,-0.244677,0.905954,0.146911,0.824018,-38.953510,5.702927,17.534971,0.255826,1.844894,0.094161,0.000000,0.000000,0.000000,0.000000,0.000000,0.000000
13328890.000000,-0.259219,0.611866,0.322270,-1.519752,-0.217113,2.098683,0.122041,0.032207,0.589545,-0.117750,-0.326632,-0.252225,0.903393,0.145176,0.871625,-38.659931,5.651352,17.757139,0.255826,1.786300,0.041976,0.000000,0.000000,0.000000,0.000000,0.000000,0.000000
13328891.000000,-0.259182,0.612457,0.322155,-1.520081,-0.217371,2.099589,0.122189,0.031064,0.589949,-0.116592,-0.322545,-0.250808,0.905592,0.146324,0.847822,-38.338581,5.651352,17.907896,0.291532,1.754256,0.041976,0.000000,0.000000,0.000000,0.000000,0.000000,0.000000
13328892.000000,-0.259151,0.613052,0.322038,-1.520408,-0.217619,2.100495,0.122334,0.031689,0.584641,-0.118792,-0.333063,-0.251547,0.901703,0.142437,0.895429,-38.191792,5.651352,18.030882,0.261320,1.806442,0.048385,0.000000,0.000000,0.000000,0.000000,0.000000,0.000000
13328893.000000,-0.259118,0.613658,0.321924,-1.520729,-0.217866,2.101391,0.122478,0.033327,0.585075,-0.116853,-0.328251,-0.247837,0.900828,0.142979,0.895429,-38.120380,5.627548,18.054686,0.243009,1.851302,0.081344,0.000000,0.000000,0.000000,0.000000,0.000000,0.000000
13328894.000000,-0.259085,0.614264,0.321815,-1.521052,-0.218107,2.102295,0.122624,0.033360,0.596133,-0.113425,-0.325823,-0.249785,0.890752,0.144400,0.947004,-38.215595,5.528366,18.130064,0.219205,1.916305,0.100570,0.000000,0.000000,0.000000,0.000000,0.000000,0.000000
13328895.000000,-0.259042,0.614877,0.321706,-1.521365,-0.218358,2.103213,0.122775,0.033193,0.597749,-0.112507,-0.318867,-0.251311,0.901669,0.148303,0.871625,-38.267170,5.504562,18.106260,0.201810,1.877853,0.041976,0.000000,0.000000,0.000000,0.000000,0.000000,0.000000
13328896.000000,-0.259013,0.615494,0.321602,-1.521686,-0.218612,2.104131,0.122922,0.031998,0.594897,-0.110578,-0.318471,-0.248894,0.911663,0.147102,0.970807,-38.338581,5.405380,18.177671,0.201810,1.767074,0.081344,0.000000,0.000000,0.000000,0.000000,0.000000,0.000000
13328897.000000,-0.258977,0.616112,0.321495,-1.522014,-0.218867,2.105046,0.123070,0.029929,0.602776,-0.109866,-0.322190,-0.252719,0.910622,0.149824,0.994611,-38.437763,5.333969,18.253050,0.237516,1.714889,0.034652,0.000000,0.000000,0.000000,0.000000,0.000000,0.000000
13328898.000000,-0.258937,0.616722,0.321388,-1.522332,-0.219125,2.105946,0.123210,0.032538,0.602432,-0.106836,-0.317325,-0.255464,0.926783,0.148865,0.970807,-38.362385,5.286362,18.276854,0.285123,1.747848,0.061202,0.000000,0.000000,0.000000,0.000000,0.000000,0.000000
13328899.000000,-0.258901,0.617328,0.321286,-1.522650,-0.219382,2.106853,0.123353,0.033886,0.615296,-0.103144,-0.313493,-0.262634,0.918324,0.143191,0.970807,-38.338581,5.187180,18.304625,0.339139,1.819259,0.100570,0.000000,0.000000,0.000000,0.000000,0.000000,0.000000
13328900.000000,-0.258858,0.617939,0.321175,-1.522963,-0.219641,2.107755,0.123509,0.036024,0.604479,-0.106083,-0.312335,-0.260283,0.914687,0.147914,0.923200,-38.215595,5.187180,18.253050,0.308927,1.936446,0.028243,0.000000,0.000000,0.000000,0.000000,0.000000,0.000000
13328901.000000,-0.258812,0.618562,0.321072,-1.523283,-0.219896,2.108654,0.123653,0.038725,0.606409,-0.103918,-0.314305,-0.253574,0.910928,0.145466,0.824018,-38.191792,5.135605,18.304625,0.261320,1.995040,0.100570,0.000000,0.000000,0.000000,0.000000,0.000000,0.000000
13328902.000000,-0.258770,0.619175,0.320969,-1.523601,-0.220143,2.109579,0.123800,0.039362,0.609092,-0.102118,-0.316661,-0.253341,0.911924,0.142696,0.772443,-38.191792,5.087997,18.276854,0.213712,1.916305,0.087753,0.000000,0.000000,0.000000,0.000000,0.000000,0.000000
13328903.000000,-0.258728,0.619800,0.320865,-1.523919,-0.220389,2.110509,0.123957,0.039107,0.610614,-0.104613,-0.317309,-0.253094,0.909611,0.146707,0.748639,-38.243366,5.064194,18.328428,0.171598,1.812850,0.034652,0.000000,0.000000,0.000000,0.000000,0.000000,0.000000
13328904.000000,-0.258688,0.620427,0.320766,-1.524226,-0.220640,2.111414,0.124105,0.041138,0.610005,-0.104068,-0.312209,-0.254829,0.913742,0.147048,0.772443,-38.267170,4.941208,18.304625,0.178007,1.800033,0.074935,0.000000,0.000000,0.000000,0.000000,0.000000,0.000000
13328905.000000,-0.258639,0.621058,0.320658,-1.524530,-0.220907,2.112311,0.124251,0.041834,0.615550,-0.104192,-0.311461,-0.257734,0.899069,0.142825,0.697065,-38.338581,4.965012,18.253050,0.225614,1.844894,0.087753,0.000000,0.000000,0.000000,0.000000,0.000000,0.000000
13328906.000000,-0.258591,0.621693,0.320555,-1.524836,-0.221173,2.113204,0.124399,0.041725,0.622082,-0.103509,-0.307498,-0.263835,0.898935,0.144559,0.649457,-38.413960,4.965012,18.177671,0.279630,1.897079,0.087753,0.000000,0.000000,0.000000,0.000000,0.000000,0.000000
13328907.000000,-0.258544,0.622318,0.320450,-1.525133,-0.221430,2.114113,0.124548,0.041636,0.624888,-0.102758,-0.304093,-0.262601,0.898235,0.151217,0.601850,-38.461567,4.965012,18.078489,0.285123,1.871444,0.054794,0.000000,0.000000,0.000000,0.000000,0.000000,0.000000
13328908.000000,-0.258494,0.622956,0.320345,-1.525435,-0.221684,2.115027,0.124695,0.045222,0.625146,-0.105438,-0.300028,-0.264814,0.904023,0.150071,0.526471,-38.560749,4.965012,18.054686,0.255826,1.779891,0.081344,0.000000,0.000000,0.000000,0.000000,0.000000,0.000000
13328909.000000,-0.258438,0.623593,0.320235,-1.525729,-0.221952,2.115928,0.124854,0.052116,0.623336,-0.108021,-0.295498,-0.262883,0.902481,0.147375,0.403486,-38.560749,4.988815,17.983274,0.249418,1.695663,0.028243,0.000000,0.000000,0.000000,0.000000,0.000000,0.000000
13328910.000000,-0.258385,0.624244,0.320131,-1.526019,-0.222216,2.116835,0.124998,0.053005,0.633019,-0.106131,-0.301273,-0.265900,0.897272,0.146426,0.328107,-38.806721,4.988815,17.955503,0.243009,1.676437,0.074935,0.000000,0.000000,0.000000,0.000000,0.000000,0.000000
13328911.000000,-0.258334,0.624888,0.320030,-1.526314,-0.222482,2.117714,0.125152,0.049937,0.635051,-0.103690,-0.298666,-0.264511,0.896144,0.147612,0.276533,-38.878132,4.941208,17.955503,0.261320,1.767074,0.067611,0.000000,0.000000,0.000000,0.000000,0.000000,0.000000
13328912.000000,-0.258283,0.625514,0.319926,-1.526605,-0.222739,2.118619,0.125307,0.050768,0.633666,-0.102253,-0.293118,-0.264131,0.897569,0.149272,0.228925,-38.778950,4.917404,17.931700,0.285123,1.786300,0.041976,0.000000,0.000000,0.000000,0.000000,0.000000,0.000000
13328913.000000,-0.258232,0.626164,0.319823,-1.526903,-0.223002,2.119528,0.125457,0.050297,0.628173,-0.104514,-0.294859,-0.267804,0.892594,0.149574,0.228925,-38.830524,4.917404,18.030882,0.308927,1.735030,0.041976,0.000000,0.000000,0.000000,0.000000,0.000000,0.000000
13328914.000000,-0.258178,0.626813,0.319713,-1.527203,-0.223268,2.120420,0.125609,0.050659,0.631294,-0.104788,-0.292756,-0.268551,0.894879,0.149090,0.205121,-38.830524,4.965012,18.153868,0.279630,1.767074,0.048385,0.000000,0.000000,0.000000,0.000000,0.000000,0.000000
13328915.000000,-0.258124,0.627463,0.319606,-1.527498,-0.223534,2.121330,0.125754,0.051027,0.639442,-0.103127,-0.292242,-0.266011,0.897173,0.147862,0.177350,-38.953510,4.941208,18.304625,0.279630,1.754256,0.094161,0.000000,0.000000,0.000000,0.000000,0.000000,0.000000
13328916.000000,-0.258071,0.628115,0.319494,-1.527791,-0.223796,2.122217,0.125917,0.051102,0.643179,-0.103712,-0.290684,-0.263060,0.912599,0.151119,0.153547,-39.048725,4.988815,18.427610,0.261320,1.767074,0.028243,0.000000,0.000000,0.000000,0.000000,0.000000,0.000000
13328917.000000,-0.258015,0.628754,0.319384,-1.528083,-0.224057,2.123120,0.126073,0.055020,0.651681,-0.105927,-0.291025,-0.265960,0.906061,0.149651,0.105939,-39.072529,4.988815,18.499022,0.291532,1.767074,0.061202,0.000000,0.000000,0.000000,0.000000,0.000000,0.000000
13328918.000000,-0.257966,0.629403,0.319279,-1.528363,-0.224327,2.124031,0.126222,0.051990,0.641852,-0.106075,-0.287846,-0.270476,0.900132,0.148780,0.177350,-39.001118,4.917404,18.526793,0.344633,1.767074,0.094161,0.000000,0.000000,0.000000,0.000000,0.000000,0.000000
13328919.000000,-0.257913,0.630052,0.319170,-1.528657,-0.224603,2.124919,0.126386,0.054746,0.640820,-0.104797,-0.290228,-0.273325,0.902452,0.151543,0.177350,-38.830524,4.917404,18.625975,0.393156,1.747848,0.028243,0.000000,0.000000,0.000000,0.000000,0.000000,0.000000
13328920.000000,-0.257864,0.630699,0.319061,-1.528942,-0.224870,2.125812,0.126535,0.052741,0.643001,-0.105447,-0.286274,-0.270702,0.896613,0.154280,0.205121,-38.778950,4.865829,18.625975,0.428861,1.800033,0.074935,0.000000,0.000000,0.000000,0.000000,0.000000,0.000000
13328921.000000,-0.257814,0.631349,0.318954,-1.529212,-0.225128,2.126704,0.126690,0.053981,0.642947,-0.106446,-0.280640,-0.265681,0.885753,0.148929,0.252729,-38.731342,4.818222,18.625975,0.381254,1.909896,0.067611,0.000000,0.000000,0.000000,0.000000,0.000000,0.000000
13328922.000000,-0.257760,0.632001,0.318845,-1.529490,-0.225375,2.127588,0.126848,0.055974,0.641656,-0.107887,-0.275818,-0.260472,0.891215,0.151982,0.252729,-38.659931,4.794418,18.625975,0.291532,1.930038,0.021835,0.000000,0.000000,0.000000,0.000000,0.000000,0.000000
13328923.000000,-0.257707,0.632648,0.318733,-1.529755,-0.225627,2.128495,0.126996,0.053259,0.639688,-0.106315,-0.271709,-0.258004,0.896071,0.150745,0.304304,-38.608356,4.794418,18.574400,0.231107,1.884261,0.041976,0.000000,0.000000,0.000000,0.000000,0.000000,0.000000
13328924.000000,-0.257657,0.633304,0.318623,-1.530022,-0.225887,2.129378,0.127143,0.051089,0.640709,-0.105099,-0.266774,-0.253024,0.888256,0.148694,0.375715,-38.513142,4.794418,18.574400,0.213712,1.909896,0.087753,0.000000,0.000000,0.000000,0.000000,0.000000,0.000000
13328925.000000,-0.257606,0.633941,0.318514,-1.530289,-0.226148,2.130278,0.127303,0.049959,0.641021,-0.103766,-0.267851,-0.252128,0.892840,0.146903,0.427289,-38.243366,4.794418,18.499022,0.261320,1.903487,0.028243,0.000000,0.000000,0.000000,0.000000,0.000000,0.000000
13328926.000000,-0.257563,0.634587,0.318407,-1.530550,-0.226414,2.131179,0.127453,0.047346,0.636950,-0.102517,-0.264121,-0.257392,0.895797,0.147858,0.550275,-38.021198,4.770615,18.499022,0.356534,1.903487,0.028243,0.000000,0.000000,0.000000,0.000000,0.000000,0.000000
13328927.000000,-0.257518,0.635233,0.318304,-1.530800,-0.226674,2.132061,0.127599,0.045408,0.637783,-0.103567,-0.258803,-0.258384,0.890959,0.146138,0.673261,-37.802998,4.695236,18.427610,0.374845,1.844894,0.087753,0.000000,0.000000,0.000000,0.000000,0.000000,0.000000
13328928.000000,-0.257462,0.635863,0.318191,-1.531055,-0.226936,2.132951,0.127751,0.051440,0.628738,-0.103620,-0.262729,-0.257343,0.883677,0.149220,0.625654,-37.481647,4.719040,18.451414,0.351041,1.838485,0.041976,0.000000,0.000000,0.000000,0.000000,0.000000,0.000000
13328929.000000,-0.257409,0.636511,0.318080,-1.531296,-0.227200,2.133823,0.127897,0.051385,0.630943,-0.106762,-0.255512,-0.260704,0.878370,0.147968,0.625654,-37.287251,4.742844,18.253050,0.320829,1.890670,0.081344,0.000000,0.000000,0.000000,0.000000,0.000000,0.000000
13328930.000000,-0.257355,0.637146,0.317969,-1.531544,-0.227451,2.134694,0.128051,0.051907,0.647396,-0.110804,-0.253759,-0.256733,0.877462,0.150274,0.601850,-37.065083,4.719040,18.205442,0.225614,1.981307,0.041976,0.000000,0.000000,0.000000,0.000000,0.000000,0.000000
13328931.000000,-0.257301,0.637790,0.317860,-1.531775,-0.227704,2.135573,0.128195,0.054130,0.646512,-0.112863,-0.249766,-0.256454,0.868538,0.149683,0.625654,-36.846882,4.671432,18.030882,0.195402,2.027084,0.061202,0.000000,0.000000,0.000000,0.000000,0.000000,0.000000
13328932.000000,-0.257249,0.638430,0.317746,-1.532008,-0.227966,2.136456,0.128347,0.053316,0.640387,-0.116815,-0.243423,-0.257600,0.870764,0.149112,0.625654,-36.477924,4.695236,17.856321,0.201810,1.974899,0.074935,0.000000,0.000000,0.000000,0.000000,0.000000,0.000000
13328933.000000,-0.257200,0.639061,0.317633,-1.532241,-0.228228,2.137345,0.128506,0.050971,0.631911,-0.113198,-0.238242,-0.257920,0.877507,0.156108,0.697065,-36.184345,4.719040,17.784910,0.195402,1.865035,0.028243,0.000000,0.000000,0.000000,0.000000,0.000000,0.000000
13328934.000000,-0.257148,0.639724,0.317522,-1.532460,-0.228505,2.138223,0.128657,0.053394,0.633803,-0.115277,-0.233711,-0.260062,0.882273,0.153579,0.724836,-36.212116,4.671432,17.685728,0.255826,1.800033,0.054794,0.000000,0.000000,0.000000,0.000000,0.000000,0.000000
13328935.000000,-0.257093,0.640381,0.317406,-1.532678,-0.228776,2.139098,0.128808,0.052843,0.645604,-0.112671,-0.229288,-0.267161,0.878029,0.152067,0.724836,-36.307331,4.719040,17.562742,0.339139,1.825668,0.074935,0.000000,0.000000,0.000000,0.000000,0.000000,0.000000
13328936.000000,-0.257046,0.641047,0.317290,-1.532882,-0.229037,2.139989,0.128954,0.050021,0.649223,-0.113333,-0.221091,-0.261484,0.879549,0.145875,0.824018,-36.454121,4.742844,17.340574,0.369352,1.825668,0.107894,0.000000,0.000000,0.000000,0.000000,0.000000,0.000000
13328937.000000,-0.256985,0.641721,0.317178,-1.533092,-0.229300,2.140870,0.129118,0.055835,0.656509,-0.110115,-0.217995,-0.263071,0.886852,0.149738,0.724836,-36.624714,4.742844,17.241392,0.327238,1.800033,0.034652,0.000000,0.000000,0.000000,0.000000,0.000000,0.000000
13328938.000000,-0.256925,0.642386,0.317051,-1.533299,-0.229557,2.141767,0.129267,0.055629,0.655780,-0.113449,-0.216071,-0.259551,0.881773,0.149419,0.673261,-36.771503,4.865829,17.166014,0.261320,1.656295,0.048385,0.000000,0.000000,0.000000,0.000000,0.000000,0.000000
13328939.000000,-0.256866,0.643058,0.316939,-1.533501,-0.229817,2.142672,0.129416,0.054606,0.653709,-0.109972,-0.211505,-0.262417,0.879931,0.148108,0.649457,-36.823078,4.865829,17.090635,0.219205,1.591293,0.087753,0.000000,0.000000,0.000000,0.000000,0.000000,0.000000
13328940.000000,-0.256809,0.643730,0.316826,-1.533704,-0.230082,2.143546,0.129575,0.056746,0.656789,-0.110025,-0.206260,-0.262017,0.875377,0.150668,0.625654,-36.823078,4.842026,17.090635,0.231107,1.617843,0.061202,0.000000,0.000000,0.000000,0.000000,0.000000,0.000000
13328941.000000,-0.256755,0.644399,0.316710,-1.533893,-0.230341,2.144420,0.129726,0.053714,0.660805,-0.114483,-0.203241,-0.262918,0.872304,0.149690,0.673261,-36.946064,4.865829,16.991453,0.273221,1.708480,0.087753,0.000000,0.000000,0.000000,0.000000,0.000000,0.000000
13328942.000000,-0.256695,0.645082,0.316591,-1.534077,-0.230609,2.145281,0.129884,0.057130,0.666004,-0.115380,-0.197120,-0.267200,0.866493,0.151207,0.625654,-37.188068,4.917404,16.868467,0.315336,1.844894,0.048385,0.000000,0.000000,0.000000,0.000000,0.000000,0.000000
13328943.000000,-0.256636,0.645764,0.316478,-1.534269,-0.230868,2.146167,0.130034,0.059065,0.667937,-0.113826,-0.196856,-0.264535,0.872303,0.154698,0.601850,-37.434040,4.893600,16.793089,0.303434,1.851302,0.054794,0.000000,0.000000,0.000000,0.000000,0.000000,0.000000
13328944.000000,-0.256575,0.646449,0.316361,-1.534462,-0.231119,2.147058,0.130182,0.061074,0.665310,-0.114147,-0.196080,-0.263274,0.878879,0.153403,0.550275,-37.509418,4.917404,16.820860,0.195402,1.779891,0.061202,0.000000,0.000000,0.000000,0.000000,0.000000,0.000000
13328945.000000,-0.256506,0.647147,0.316244,-1.534648,-0.231372,2.147939,0.130335,0.063368,0.670513,-0.113962,-0.192362,-0.260143,0.873775,0.152600,0.451093,-37.604633,4.917404,16.745481,0.129484,1.714889,0.054794,0.000000,0.000000,0.000000,0.000000,0.000000,0.000000
13328946.000000,-0.256443,0.647839,0.316121,-1.534820,-0.231629,2.148828,0.130477,0.063542,0.679683,-0.114855,-0.194861,-0.261537,0.871842,0.150576,0.427289,-37.802998,4.965012,16.523314,0.166105,1.676437,0.100570,0.000000,0.000000,0.000000,0.000000,0.000000,0.000000
13328947.000000,-0.256384,0.648543,0.316002,-1.535000,-0.231892,2.149695,0.130630,0.062516,0.686365,-0.118102,-0.190710,-0.260690,0.873683,0.152420,0.451093,-38.068806,4.988815,16.376524,0.166105,1.735030,0.048385,0.000000,0.000000,0.000000,0.000000,0.000000,0.000000
13328948.000000,-0.256325,0.649247,0.315884,-1.535173,-0.232155,2.150576,0.130779,0.058823,0.705060,-0.119077,-0.182277,-0.262440,0.875198,0.150933,0.474897,-38.362385,4.965012,16.150389,0.219205,1.779891,0.074935,0.000000,0.000000,0.000000,0.000000,0.000000,0.000000
13328949.000000,-0.256262,0.649974,0.315763,-1.535352,-0.232413,2.151461,0.130931,0.059854,0.706923,-0.123181,-0.181092,-0.262648,0.871799,0.151669,0.474897,-38.901936,4.965012,16.126585,0.249418,1.702071,0.054794,0.000000,0.000000,0.000000,0.000000,0.000000,0.000000
13328950.000000,-0.256197,0.650703,0.315642,-1.535526,-0.232663,2.152346,0.131085,0.061772,0.706830,-0.117554,-0.178638,-0.255407,0.875758,0.151855,0.427289,-39.294697,4.965012,16.055174,0.207303,1.572067,0.034652,0.000000,0.000000,0.000000,0.000000,0.000000,0.000000
13328951.000000,-0.256132,0.651421,0.315522,-1.535705,-0.232914,2.153239,0.131231,0.065706,0.710782,-0.115792,-0.178719,-0.257228,0.877792,0.146598,0.403486,-39.588276,4.941208,16.055174,0.117582,1.416427,0.041976,0.000000,0.000000,0.000000,0.000000,0.000000,0.000000
13328952.000000,-0.256063,0.652147,0.315392,-1.535880,-0.233185,2.154099,0.131380,0.065912,0.711099,-0.117519,-0.178426,-0.261473,0.874854,0.146832,0.351911,-39.758869,5.040390,16.055174,0.105680,1.416427,0.061202,0.000000,0.000000,0.000000,0.000000,0.000000,0.000000
13328953.000000,-0.255998,0.652885,0.315272,-1.536059,-0.233455,2.154964,0.131529,0.065044,0.719058,-0.115610,-0.179049,-0.267700,0.872268,0.146764,0.351911,-40.104023,5.012619,16.102781,0.171598,1.565658,0.087753,0.000000,0.000000,0.000000,0.000000,0.000000,0.000000
13328954.000000,-0.255938,0.653613,0.315150,-1.536233,-0.233722,2.155829,0.131684,0.063186,0.726192,-0.118117,-0.179445,-0.266376,0.865618,0.149329,0.403486,-40.445210,5.012619,16.150389,0.201810,1.689254,0.048385,0.000000,0.000000,0.000000,0.000000,0.000000,0.000000
13328955.000000,-0.255881,0.654359,0.315028,-1.536416,-0.233989,2.156686,0.131829,0.060837,0.730367,-0.120043,-0.182204,-0.268149,0.867609,0.148122,0.502668,-40.837971,5.012619,16.301146,0.201810,1.670028,0.081344,0.000000,0.000000,0.000000,0.000000,0.000000,0.000000
13328956.000000,-0.255808,0.655073,0.314899,-1.536606,-0.234262,2.157560,0.131983,0.064224,0.725614,-0.122440,-0.185616,-0.274129,0.864538,0.153130,0.375715,-40.861774,5.064194,16.523314,0.195402,1.637069,0.067611,0.000000,0.000000,0.000000,0.000000,0.000000,0.000000
13328957.000000,-0.255739,0.655789,0.314778,-1.536797,-0.234541,2.158437,0.132138,0.064385,0.717090,-0.119473,-0.188523,-0.273740,0.863858,0.152271,0.328107,-40.762592,5.040390,16.769285,0.178007,1.584884,0.074935,0.000000,0.000000,0.000000,0.000000,0.000000,0.000000
13328958.000000,-0.255677,0.656524,0.314648,-1.536977,-0.234814,2.159283,0.132293,0.065500,0.711992,-0.124742,-0.183361,-0.269523,0.862278,0.152040,0.375715,-40.837971,5.064194,16.868467,0.159696,1.649886,0.094161,0.000000,0.000000,0.000000,0.000000,0.000000,0.000000
13328959.000000,-0.255613,0.657258,0.314517,-1.537152,-0.235079,2.160131,0.132454,0.063770,0.713486,-0.122993,-0.179481,-0.271452,0.847250,0.153761,0.403486,-41.032368,5.111801,16.943846,0.166105,1.812850,0.041976,0.000000,0.000000,0.000000,0.000000,0.000000,0.000000
13328960.000000,-0.255544,0.658003,0.314391,-1.537329,-0.235358,2.160976,0.132604,0.063580,0.719186,-0.120424,-0.177345,-0.273919,0.845858,0.150453,0.403486,-41.226765,5.111801,17.043028,0.219205,1.897079,0.100570,0.000000,0.000000,0.000000,0.000000,0.000000,0.000000
13328961.000000,-0.255479,0.658734,0.314261,-1.537511,-0.235631,2.161853,0.132763,0.063467,0.729320,-0.121523,-0.176155,-0.277498,0.862911,0.152351,0.403486,-41.325947,5.111801,17.166014,0.183500,1.747848,0.061202,0.000000,0.000000,0.000000,0.000000,0.000000,0.000000
13328962.000000,-0.255414,0.659480,0.314128,-1.537691,-0.235910,2.162735,0.132920,0.062692,0.731589,-0.126581,-0.175105,-0.282077,0.861837,0.148186,0.427289,-41.472736,5.187180,17.289000,0.195402,1.565658,0.034652,0.000000,0.000000,0.000000,0.000000,0.000000,0.000000
13328963.000000,-0.255350,0.660216,0.313994,-1.537863,-0.236192,2.163580,0.133066,0.061599,0.729281,-0.127393,-0.171250,-0.282894,0.858279,0.150374,0.474897,-41.425129,5.234787,17.289000,0.261320,1.578475,0.107894,0.000000,0.000000,0.000000,0.000000,0.000000,0.000000
13328964.000000,-0.255286,0.660942,0.313862,-1.538035,-0.236467,2.164429,0.133227,0.060303,0.727550,-0.129979,-0.169663,-0.279061,0.856150,0.152203,0.550275,-41.373554,5.234787,17.312803,0.327238,1.649886,0.067611,0.000000,0.000000,0.000000,0.000000,0.000000,0.000000
13328965.000000,-0.255211,0.661679,0.313722,-1.538201,-0.236750,2.165262,0.133384,0.062831,0.724446,-0.130572,-0.167267,-0.281522,0.868151,0.156437,0.474897,-41.325947,5.310165,17.289000,0.320829,1.793624,0.067611,0.000000,0.000000,0.000000,0.000000,0.000000,0.000000
13328966.000000,-0.255143,0.662408,0.313591,-1.538374,-0.237022,2.166115,0.133546,0.065464,0.732048,-0.126338,-0.169037,-0.279471,0.859255,0.156135,0.502668,-41.131550,5.333969,17.289000,0.308927,1.806442,0.034652,0.000000,0.000000,0.000000,0.000000,0.000000,0.000000
13328967.000000,-0.255073,0.663117,0.313455,-1.538550,-0.237288,2.166984,0.133693,0.065555,0.719573,-0.130351,-0.171063,-0.274893,0.859159,0.156784,0.474897,-40.837971,5.381577,17.435789,0.213712,1.754256,0.107894,0.000000,0.000000,0.000000,0.000000,0.000000,0.000000
13328968.000000,-0.255005,0.663832,0.313327,-1.538722,-0.237553,2.167838,0.133857,0.068074,0.713863,-0.127949,-0.170571,-0.264392,0.864499,0.162158,0.474897,-40.492817,5.333969,17.511168,0.154203,1.689254,0.041976,0.000000,0.000000,0.000000,0.000000,0.000000,0.000000
13328969.000000,-0.254934,0.664533,0.313193,-1.538892,-0.237823,2.168683,0.134008,0.070508,0.709171,-0.127190,-0.169803,-0.268238,0.851068,0.157973,0.451093,-40.076252,5.333969,17.562742,0.166105,1.773483,0.074935,0.000000,0.000000,0.000000,0.000000,0.000000,0.000000
13328970.000000,-0.254868,0.665245,0.313058,-1.539052,-0.238108,2.169530,0.134159,0.070993,0.707772,-0.127440,-0.167987,-0.276524,0.844918,0.159989,0.474897,-39.711262,5.357773,17.562742,0.219205,1.949264,0.100570,0.000000,0.000000,0.000000,0.000000,0.000000,0.000000
13328971.000000,-0.254798,0.665972,0.312923,-1.539210,-0.238389,2.170363,0.134320,0.072110,0.715908,-0.128991,-0.164566,-0.283850,0.840078,0.160183,0.474897,-39.564472,5.310165,17.487364,0.303434,2.001449,0.034652,0.000000,0.000000,0.000000,0.000000,0.000000,0.000000
13328972.000000,-0.254730,0.666688,0.312782,-1.539373,-0.238651,2.171210,0.134465,0.069132,0.718359,-0.132364,-0.164767,-0.279081,0.833585,0.155964,0.502668,-39.512897,5.357773,17.511168,0.237516,1.955673,0.081344,0.000000,0.000000,0.000000,0.000000,0.000000,0.000000
13328973.000000,-0.254656,0.667417,0.312648,-1.539533,-0.238918,2.172059,0.134624,0.068769,0.721899,-0.133850,-0.161492,-0.277295,0.837549,0.160136,0.451093,-39.540668,5.357773,17.511168,0.219205,1.844894,0.054794,0.000000,0.000000,0.000000,0.000000,0.000000,0.000000
13328974.000000,-0.254587,0.668149,0.312512,-1.539702,-0.239191,2.172914,0.134778,0.068371,0.725773,-0.134064,-0.164887,-0.280744,0.843800,0.161711,0.403486,-39.735065,5.333969,17.634153,0.201810,1.754256,0.054794,0.000000,0.000000,0.000000,0.000000,0.000000,0.000000
13328975.000000,-0.254523,0.668891,0.312373,-1.539853,-0.239472,2.173762,0.134928,0.067509,0.725175,-0.136317,-0.162776,-0.281173,0.841598,0.157932,0.502668,-39.929462,5.381577,17.562742,0.237516,1.721298,0.081344,0.000000,0.000000,0.000000,0.000000,0.000000,0.000000
13328976.000000,-0.254452,0.669634,0.312234,-1.540007,-0.239752,2.174588,0.135089,0.068591,0.725363,-0.139894,-0.161467,-0.281618,0.838222,0.158385,0.526471,-40.028645,5.381577,17.511168,0.285123,1.851302,0.041976,0.000000,0.000000,0.000000,0.000000,0.000000,0.000000
13328977.000000,-0.254383,0.670364,0.312096,-1.540168,-0.240017,2.175418,0.135231,0.069407,0.720272,-0.139532,-0.162928,-0.276203,0.831261,0.153069,0.550275,-40.076252,5.381577,17.586546,0.297025,1.962081,0.133529,0.000000,0.000000,0.000000,0.000000,0.000000,0.000000
13328978.000000,-0.254312,0.671102,0.311968,-1.540326,-0.240284,2.176247,0.135392,0.070468,0.714196,-0.137665,-0.159032,-0.277682,0.832539,0.155477,0.574079,-40.104023,5.310165,17.685728,0.243009,1.942855,0.054794,0.000000,0.000000,0.000000,0.000000,0.000000,0.000000
13328979.000000,-0.254243,0.671842,0.311831,-1.540488,-0.240555,2.177104,0.135547,0.068635,0.723530,-0.138861,-0.157036,-0.278948,0.840866,0.154729,0.574079,-40.223042,5.357773,17.832518,0.166105,1.832076,0.041976,0.000000,0.000000,0.000000,0.000000,0.000000,0.000000
13328980.000000,-0.254175,0.672581,0.311700,-1.540637,-0.240835,2.177950,0.135697,0.069714,0.726330,-0.137517,-0.150540,-0.274439,0.840249,0.152719,0.601850,-40.175434,5.333969,17.907896,0.178007,1.786300,0.067611,0.000000,0.000000,0.000000,0.000000,0.000000,0.000000
13328981.000000,-0.254106,0.673325,0.311565,-1.540790,-0.241111,2.178768,0.135856,0.067631,0.732947,-0.135188,-0.151702,-0.269744,0.839241,0.157342,0.625654,-40.151630,5.357773,17.983274,0.154203,1.871444,0.048385,0.000000,0.000000,0.000000,0.000000,0.000000,0.000000
13328982.000000,-0.254041,0.674060,0.311434,-1.540936,-0.241391,2.179603,0.136011,0.068606,0.736008,-0.131650,-0.147210,-0.274500,0.832382,0.155010,0.673261,-40.199238,5.310165,17.955503,0.231107,1.955673,0.067611,0.000000,0.000000,0.000000,0.000000,0.000000,0.000000
13328983.000000,-0.253973,0.674808,0.311297,-1.541077,-0.241680,2.180427,0.136171,0.065704,0.736221,-0.134569,-0.144246,-0.280845,0.845265,0.154702,0.724836,-40.274616,5.357773,17.931700,0.291532,1.988631,0.048385,0.000000,0.000000,0.000000,0.000000,0.000000,0.000000
13328984.000000,-0.253903,0.675552,0.311157,-1.541217,-0.241960,2.181269,0.136322,0.065935,0.755068,-0.133167,-0.142002,-0.286261,0.849712,0.155919,0.697065,-40.397602,5.405380,17.907896,0.291532,1.923629,0.114303,0.000000,0.000000,0.000000,0.000000,0.000000,0.000000
13328985.000000,-0.253840,0.676317,0.311027,-1.541354,-0.242235,2.182125,0.136487,0.062931,0.756069,-0.131300,-0.142237,-0.283353,0.844613,0.157011,0.796247,-40.663410,5.405380,17.955503,0.291532,1.793624,0.054794,0.000000,0.000000,0.000000,0.000000,0.000000,0.000000
13328986.000000,-0.253766,0.677095,0.310893,-1.541485,-0.242505,2.182962,0.136643,0.067426,0.759157,-0.132324,-0.136908,-0.278728,0.842784,0.154285,0.748639,-41.008564,5.381577,17.907896,0.225614,1.760665,0.074935,0.000000,0.000000,0.000000,0.000000,0.000000,0.000000
13328987.000000,-0.253694,0.677857,0.310751,-1.541614,-0.242782,2.183797,0.136797,0.066405,0.757508,-0.135369,-0.136296,-0.281253,0.845986,0.153201,0.748639,-41.278339,5.456955,17.856321,0.189908,1.806442,0.081344,0.000000,0.000000,0.000000,0.000000,0.000000,0.000000
13328988.000000,-0.253617,0.678638,0.310617,-1.541741,-0.243066,2.184634,0.136962,0.069767,0.756407,-0.136502,-0.133142,-0.276294,0.834997,0.158766,0.697065,-41.595722,5.480759,17.832518,0.207303,1.851302,0.041976,0.000000,0.000000,0.000000,0.000000,0.000000,0.000000
13328989.000000,-0.253551,0.679414,0.310473,-1.541873,-0.243342,2.185461,0.137121,0.069431,0.756483,-0.137885,-0.132989,-0.276566,0.832704,0.159212,0.772443,-41.790119,5.528366,17.907896,0.207303,1.884261,0.100570,0.000000,0.000000,0.000000,0.000000,0.000000,0.000000
13328990.000000,-0.253473,0.680197,0.310333,-1.542006,-0.243616,2.186299,0.137282,0.072180,0.761211,-0.135862,-0.135173,-0.276347,0.835078,0.153746,0.724836,-42.159077,5.579941,18.078489,0.207303,1.897079,0.067611,0.000000,0.000000,0.000000,0.000000,0.000000,0.000000
13328991.000000,-0.253399,0.680970,0.310195,-1.542139,-0.243902,2.187127,0.137441,0.070489,0.762061,-0.134202,-0.133920,-0.282423,0.829524,0.152173,0.697065,-42.258259,5.627548,18.276854,0.261320,1.909896,0.081344,0.000000,0.000000,0.000000,0.000000,0.000000,0.000000
13328992.000000,-0.253325,0.681717,0.310053,-1.542277,-0.244180,2.187977,0.137607,0.072734,0.761414,-0.136446,-0.134583,-0.284676,0.836240,0.156634,0.649457,-42.107502,5.702927,18.550596,0.255826,1.865035,0.054794,0.000000,0.000000,0.000000,0.000000,0.000000,0.000000
13328993.000000,-0.253247,0.682479,0.309916,-1.542401,-0.244461,2.188819,0.137757,0.074275,0.759324,-0.136621,-0.131155,-0.283281,0.838734,0.157787,0.601850,-41.988483,5.702927,18.673582,0.279630,1.890670,0.107894,0.000000,0.000000,0.000000,0.000000,0.000000,0.000000
13328994.000000,-0.253175,0.683248,0.309766,-1.542535,-0.244745,2.189634,0.137913,0.073869,0.761751,-0.139690,-0.132605,-0.283082,0.829041,0.156188,0.625654,-41.913105,5.825912,18.848143,0.327238,1.974899,0.120712,0.000000,0.000000,0.000000,0.000000,0.000000,0.000000
13328995.000000,-0.253092,0.684006,0.309623,-1.542664,-0.245014,2.190454,0.138078,0.076307,0.761996,-0.139099,-0.134701,-0.280448,0.820473,0.161908,0.526471,-41.865498,5.825912,18.947325,0.308927,2.072860,0.061202,0.000000,0.000000,0.000000,0.000000,0.000000,0.000000
13328996.000000,-0.253013,0.684770,0.309490,-1.542788,-0.245292,2.191265,0.138236,0.074434,0.762624,-0.135806,-0.130173,-0.281489,0.835246,0.162670,0.451093,-41.813923,5.702927,19.018736,0.267728,2.131454,0.087753,0.000000,0.000000,0.000000,0.000000,0.000000,0.000000
13328997.000000,-0.252930,0.685529,0.309344,-1.542914,-0.245568,2.192096,0.138399,0.077142,0.763559,-0.137448,-0.130770,-0.278908,0.829733,0.164727,0.328107,-41.766315,5.750534,19.117918,0.237516,2.014266,0.081344,0.000000,0.000000,0.000000,0.000000,0.000000,0.000000
13328998.000000,-0.252851,0.686298,0.309200,-1.543026,-0.245845,2.192923,0.138557,0.079910,0.759746,-0.140549,-0.125258,-0.277821,0.827751,0.160484,0.304304,-41.718708,5.774338,19.094114,0.225614,1.949264,0.100570,0.000000,0.000000,0.000000,0.000000,0.000000,0.000000
13328999.000000,-0.252769,0.687070,0.309056,-1.543139,-0.246122,2.193731,0.138721,0.081588,0.762349,-0.140542,-0.121124,-0.273807,0.826518,0.164344,0.304304,-41.619526,5.798141,19.070311,0.243009,2.001449,0.048385,0.000000,0.000000,0.000000,0.000000,0.000000,0.000000
13329000.000000,-0.252691,0.687826,0.308915,-1.543249,-0.246403,2.194539,0.138876,0.079258,0.758337,-0.141420,-0.117877,-0.275451,0.814870,0.163371,0.328107,-41.496540,5.726730,19.018736,0.273221,2.053634,0.107894,0.000000,0.000000,0.000000,0.000000,0.000000,0.000000
13329001.000000,-0.252607,0.688587,0.308771,-1.543356,-0.246694,2.195363,0.139039,0.082248,0.749978,-0.141391,-0.118217,-0.281733,0.810912,0.161437,0.276533,-41.325947,5.750534,18.947325,0.339139,2.027084,0.074935,0.000000,0.000000,0.000000,0.000000,0.000000,0.000000
13329002.000000,-0.252531,0.689338,0.308628,-1.543458,-0.246973,2.196172,0.139197,0.082929,0.743992,-0.140999,-0.115112,-0.280703,0.816862,0.158394,0.304304,-41.008564,5.774338,18.871946,0.362943,2.014266,0.081344,0.000000,0.000000,0.000000,0.000000,0.000000,0.000000
13329003.000000,-0.252448,0.690082,0.308494,-1.543562,-0.247249,2.196989,0.139351,0.081676,0.738146,-0.140521,-0.112282,-0.274277,0.811910,0.159709,0.276533,-40.691181,5.651352,18.895750,0.344633,1.974899,0.120712,0.000000,0.000000,0.000000,0.000000,0.000000,0.000000
13329004.000000,-0.252364,0.690825,0.308358,-1.543660,-0.247518,2.197803,0.139521,0.081249,0.728739,-0.138503,-0.108945,-0.272301,0.819303,0.164910,0.228925,-40.250813,5.579941,18.871946,0.291532,1.916305,0.041976,0.000000,0.000000,0.000000,0.000000,0.000000,0.000000
13329005.000000,-0.252278,0.691560,0.308218,-1.543752,-0.247806,2.198614,0.139672,0.084086,0.727798,-0.137902,-0.105892,-0.278232,0.818240,0.162081,0.177350,-39.834248,5.556137,18.820372,0.303434,1.988631,0.120712,0.000000,0.000000,0.000000,0.000000,0.000000,0.000000
13329006.000000,-0.252201,0.692310,0.308083,-1.543840,-0.248090,2.199421,0.139835,0.080426,0.723474,-0.139692,-0.097358,-0.280934,0.808180,0.159832,0.228925,-39.564472,5.480759,18.772764,0.279630,2.098495,0.107894,0.000000,0.000000,0.000000,0.000000,0.000000,0.000000
13329007.000000,-0.252120,0.693083,0.307947,-1.543918,-0.248370,2.200226,0.140004,0.079761,0.738079,-0.137332,-0.091023,-0.282650,0.808266,0.164520,0.205121,-39.612080,5.381577,18.598204,0.237516,2.112228,0.048385,0.000000,0.000000,0.000000,0.000000,0.000000,0.000000
13329008.000000,-0.252041,0.693831,0.307811,-1.543997,-0.248647,2.201056,0.140154,0.080727,0.742341,-0.136866,-0.087089,-0.281323,0.815777,0.163445,0.252729,-39.512897,5.333969,18.574400,0.237516,2.014266,0.107894,0.000000,0.000000,0.000000,0.000000,0.000000,0.000000
13329009.000000,-0.251956,0.694612,0.307675,-1.544080,-0.248931,2.201875,0.140315,0.079505,0.755764,-0.137143,-0.084729,-0.285262,0.810672,0.162197,0.252729,-39.735065,5.310165,18.574400,0.267728,1.877853,0.048385,0.000000,0.000000,0.000000,0.000000,0.000000,0.000000
13329010.000000,-0.251876,0.695371,0.307539,-1.544148,-0.249213,2.202701,0.140469,0.080578,0.759266,-0.136221,-0.078526,-0.284044,0.813702,0.167741,0.304304,-39.758869,5.258591,18.399839,0.297025,1.800033,0.074935,0.000000,0.000000,0.000000,0.000000,0.000000,0.000000
13329011.000000,-0.251796,0.696141,0.307406,-1.544219,-0.249508,2.203532,0.140631,0.078198,0.758790,-0.139168,-0.076677,-0.286088,0.819820,0.168499,0.351911,-39.810444,5.210983,18.328428,0.410551,1.747848,0.067611,0.000000,0.000000,0.000000,0.000000,0.000000,0.000000
13329012.000000,-0.251722,0.696920,0.307270,-1.544279,-0.249788,2.204326,0.140793,0.074914,0.763445,-0.137580,-0.069425,-0.283490,0.812421,0.169420,0.451093,-39.929462,5.135605,18.153868,0.422452,1.884261,0.067611,0.000000,0.000000,0.000000,0.000000,0.000000,0.000000
13329013.000000,-0.251641,0.697684,0.307135,-1.544342,-0.250057,2.205142,0.140953,0.078258,0.767113,-0.136952,-0.066989,-0.283321,0.812401,0.169441,0.451093,-40.052448,5.087997,18.106260,0.362943,1.968490,0.067611,0.000000,0.000000,0.000000,0.000000,0.000000,0.000000
13329014.000000,-0.251556,0.698472,0.307007,-1.544401,-0.250337,2.205962,0.141110,0.081944,0.770893,-0.135950,-0.065406,-0.277772,0.818858,0.164182,0.403486,-40.250813,5.012619,18.054686,0.279630,1.923629,0.074935,0.000000,0.000000,0.000000,0.000000,0.000000,0.000000
13329015.000000,-0.251475,0.699229,0.306874,-1.544462,-0.250605,2.206790,0.141269,0.083531,0.786153,-0.132968,-0.062561,-0.273942,0.814901,0.164645,0.403486,-40.104023,4.988815,18.078489,0.183500,1.865035,0.100570,0.000000,0.000000,0.000000,0.000000,0.000000,0.000000
13329016.000000,-0.251398,0.699998,0.306742,-1.544515,-0.250882,2.207620,0.141430,0.082982,0.777695,-0.133865,-0.058653,-0.274383,0.817193,0.162961,0.474897,-39.957233,4.988815,18.030882,0.171598,1.890670,0.054794,0.000000,0.000000,0.000000,0.000000,0.000000,0.000000
13329017.000000,-0.251323,0.700776,0.306613,-1.544557,-0.251163,2.208430,0.141579,0.079583,0.770792,-0.132988,-0.053330,-0.277314,0.822356,0.157439,0.550275,-39.929462,4.893600,17.884092,0.225614,1.962081,0.107894,0.000000,0.000000,0.000000,0.000000,0.000000,0.000000
13329018.000000,-0.251244,0.701556,0.306476,-1.544600,-0.251485,2.209496,0.141776,0.080733,0.772909,-0.130701,-0.047559,-0.292996,0.895614,0.170307,0.601850,-40.052448,4.865829,17.784910,0.661405,-0.255326,-0.281205,0.000000,0.000000,0.000000,0.000000,0.000000,0.000000
13329019.000000,-0.251159,0.702347,0.306328,-1.544640,-0.252013,2.210669,0.141994,0.082727,0.768502,-0.137026,-0.047411,-0.373729,1.010145,0.187272,0.601850,-40.250813,5.040390,17.733335,2.777189,-3.097123,-0.775590,0.000000,0.000000,0.000000,0.000000,0.000000,0.000000
13329020.000000,-0.251085,0.703153,0.306205,-1.544627,-0.252237,2.211798,0.142007,0.083452,0.774806,-0.129224,-0.026963,-0.325544,1.063826,0.124762,0.772443,-40.544392,4.842026,16.943846,1.982511,-5.100297,0.602279,0.000000,0.000000,0.000000,0.000000,0.000000,0.000000
13329021.000000,-0.250981,0.703983,0.306110,-1.544517,-0.252642,2.212806,0.142292,0.089441,0.785053,-0.115449,0.020214,-0.353943,1.054465,0.175265,0.451093,-41.302143,4.278671,14.864988,2.687467,-5.327348,-0.511918,0.000000,0.000000,0.000000,0.000000,0.000000,0.000000
13329022.000000,-0.250813,0.704797,0.305851,-1.544361,-0.253007,2.213816,0.142437,0.116594,0.784710,-0.163875,0.068818,-0.358102,1.042487,0.160507,-0.735125,-41.619526,6.044113,12.345762,2.741483,-5.262345,-0.334306,0.000000,0.000000,0.000000,0.000000,0.000000,0.000000
13329023.000000,-0.250789,0.705518,0.305760,-1.544207,-0.253327,2.214866,0.142563,0.085606,0.756913,-0.141165,0.099171,-0.341039,1.039996,0.148709,0.177350,-40.714985,5.333969,10.219297,2.329496,-5.152482,0.009017,0.000000,0.000000,0.000000,0.000000,0.000000,0.000000
13329024.000000,-0.250752,0.706256,0.305736,-1.544064,-0.253617,2.215891,0.142676,0.065616,0.740012,-0.103176,0.115475,-0.322885,1.020964,0.133153,0.923200,-39.929462,3.616134,8.588743,1.713346,-4.637956,0.464034,0.000000,0.000000,0.000000,0.000000,0.000000,0.000000
13329025.000000,-0.250594,0.706940,0.305552,-1.543807,-0.254014,2.216962,0.142860,0.096617,0.711755,-0.131185,0.163221,-0.349089,1.029984,0.148591,-0.116229,-38.338581,4.302475,5.696593,2.114347,-4.670915,0.213180,0.000000,0.000000,0.000000,0.000000,0.000000,0.000000
13329026.000000,-0.250572,0.707520,0.305520,-1.543585,-0.254431,2.217889,0.143066,0.068993,0.666752,-0.097361,0.182980,-0.370927,0.988505,0.166731,0.796247,-35.549580,2.878219,3.669310,2.741483,-3.461503,-0.248246,0.000000,0.000000,0.000000,0.000000,0.000000,0.000000
13329027.000000,-0.250612,0.708038,0.305590,-1.543370,-0.254694,2.218808,0.143179,0.030581,0.610658,-0.040410,0.190940,-0.335267,0.962725,0.150419,2.553754,-31.951252,0.128891,2.209349,2.024625,-2.564286,0.173812,0.000000,0.000000,0.000000,0.000000,0.000000,0.000000
13329028.000000,-0.250454,0.708492,0.305471,-1.543120,-0.254944,2.219773,0.143369,0.073735,0.558714,-0.064308,0.207709,-0.308980,0.954986,0.165115,1.367536,-27.936359,0.327255,0.606566,1.348966,-2.355546,-0.103593,0.000000,0.000000,0.000000,0.000000,0.000000,0.000000
13329029.000000,-0.250301,0.708862,0.305373,-1.542890,-0.255316,2.220529,0.143531,0.102300,0.489063,-0.076049,0.212023,-0.328507,0.875080,0.169191,0.304304,-22.993122,0.374863,-0.357485,1.791166,-0.664567,-0.196061,0.000000,0.000000,0.000000,0.000000,0.000000,0.000000
13329030.000000,-0.250275,0.709168,0.305344,-1.542669,-0.255600,2.221173,0.143655,0.078088,0.427057,-0.062009,0.209952,-0.311796,0.795879,0.152713,1.093793,-17.581745,-0.482071,-0.904970,1.570524,1.396285,0.120712,0.000000,0.000000,0.000000,0.000000,0.000000,0.000000
13329031.000000,-0.250213,0.709450,0.305263,-1.542412,-0.255849,2.221961,0.143842,0.071393,0.375114,-0.066711,0.226976,-0.286029,0.784810,0.162256,1.367536,-12.444111,-0.581253,-1.793642,1.211637,1.584884,-0.136552,0.000000,0.000000,0.000000,0.000000,0.000000,0.000000
13329032.000000,-0.250148,0.709718,0.305214,-1.542151,-0.256214,2.222664,0.144012,0.071832,0.331454,-0.064446,0.236562,-0.310554,0.753769,0.162828,1.542096,-7.548481,-1.021622,-2.483949,2.024625,1.825668,-0.241837,0.000000,0.000000,0.000000,0.000000,0.000000,0.000000
13329033.000000,-0.250098,0.709924,0.305174,-1.541925,-0.256509,2.223245,0.144125,0.064465,0.303430,-0.056382,0.230727,-0.310805,0.694741,0.148454,1.934858,-2.406880,-1.588944,-2.460146,2.185758,2.846481,0.173812,0.000000,0.000000,0.000000,0.000000,0.000000,0.000000
13329034.000000,-0.250072,0.710134,0.305148,-1.541669,-0.256706,2.223897,0.144327,0.052328,0.266645,-0.047365,0.237056,-0.272833,0.676170,0.168332,2.629133,2.270550,-2.299088,-2.928285,1.432279,2.794296,-0.196061,0.000000,0.000000,0.000000,0.000000,0.000000,0.000000
13329035.000000,-0.250059,0.710355,0.305168,-1.541398,-0.256964,2.224565,0.144498,0.034162,0.251133,-0.025256,0.245108,-0.264447,0.679136,0.170673,3.470197,6.356853,-3.552750,-3.547182,1.265653,2.235824,-0.274796,0.000000,0.000000,0.000000,0.000000,0.000000,0.000000
13329036.000000,-0.250021,0.710497,0.305131,-1.541143,-0.257173,2.225131,0.144624,0.035744,0.220569,-0.031275,0.247255,-0.243916,0.641037,0.153012,3.843122,10.935101,-3.893936,-3.844728,0.828947,2.521468,0.054794,0.000000,0.000000,0.000000,0.000000,0.000000,0.000000
13329037.000000,-0.249954,0.710596,0.305058,-1.540898,-0.257315,2.225620,0.144829,0.046989,0.177745,-0.046120,0.241305,-0.209458,0.596094,0.170763,3.767744,15.878338,-3.624161,-4.066896,-0.138766,3.425094,-0.294938,0.000000,0.000000,0.000000,0.000000,0.000000,0.000000
13329038.000000,-0.249902,0.710692,0.305010,-1.540660,-0.257508,2.226155,0.144995,0.053603,0.153511,-0.046225,0.238209,-0.204212,0.577630,0.169266,3.866926,20.357403,-3.747147,-4.213686,-0.503146,3.828841,-0.281205,0.000000,0.000000,0.000000,0.000000,0.000000,0.000000
13329039.000000,-0.249878,0.710749,0.304962,-1.540435,-0.257713,2.226699,0.145139,0.041987,0.124837,-0.045968,0.233290,-0.203610,0.566942,0.158370,4.386640,24.959454,-3.870133,-4.213686,-0.646884,4.120894,-0.122819,0.000000,0.000000,0.000000,0.000000,0.000000,0.000000
13329040.000000,-0.249860,0.710743,0.304914,-1.540236,-0.257891,2.227293,0.145313,0.032632,0.083853,-0.044944,0.220149,-0.193931,0.576196,0.164024,4.957929,29.978069,-4.016922,-3.769350,-0.892245,3.841659,-0.202470,0.000000,0.000000,0.000000,0.000000,0.000000,0.000000
13329041.000000,-0.249823,0.710746,0.304869,-1.540044,-0.258083,2.227979,0.145471,0.033111,0.059049,-0.045903,0.206561,-0.193259,0.617498,0.167040,5.227705,34.556316,-4.215286,-3.376589,-0.844637,2.840072,-0.149369,0.000000,0.000000,0.000000,0.000000,0.000000,0.000000
13329042.000000,-0.249769,0.710759,0.304810,-1.539843,-0.258293,2.228699,0.145646,0.040023,0.038131,-0.050792,0.205440,-0.202181,0.654591,0.170668,5.203901,38.618816,-4.239090,-3.348818,-0.629489,1.825668,-0.229020,0.000000,0.000000,0.000000,0.000000,0.000000,0.000000
13329043.000000,-0.249729,0.710801,0.304771,-1.539626,-0.258467,2.229397,0.145787,0.039621,0.040149,-0.049874,0.208477,-0.195378,0.679324,0.161346,5.378461,41.923565,-4.580276,-3.646364,-0.748507,1.220504,0.009017,0.000000,0.000000,0.000000,0.000000,0.000000,0.000000
13329044.000000,-0.249680,0.710877,0.304713,-1.539381,-0.258674,2.230115,0.145958,0.039822,0.054986,-0.048869,0.220744,-0.202707,0.691019,0.162503,5.402265,44.418987,-4.679459,-4.388246,-0.653292,0.869857,-0.077042,0.000000,0.000000,0.000000,0.000000,0.000000,0.000000
13329045.000000,-0.249585,0.711000,0.304615,-1.539095,-0.258898,2.230853,0.146118,0.057758,0.077717,-0.063697,0.238040,-0.213976,0.712667,0.158451,4.783369,46.132854,-4.239090,-5.796632,-0.491244,0.616256,-0.050492,0.000000,0.000000,0.000000,0.000000,0.000000,0.000000
13329046.000000,-0.249495,0.711135,0.304528,-1.538789,-0.259112,2.231633,0.146253,0.066903,0.106010,-0.070991,0.262499,-0.217670,0.734426,0.148821,4.287458,47.453960,-4.040726,-7.403383,-0.450045,0.356246,0.166488,0.000000,0.000000,0.000000,0.000000,0.000000,0.000000
13329047.000000,-0.249415,0.711297,0.304454,-1.538483,-0.259332,2.232461,0.146422,0.071431,0.128306,-0.074269,0.280011,-0.218814,0.763663,0.155735,3.989912,48.481487,-4.040726,-8.910952,-0.450045,0.017501,0.015426,0.000000,0.000000,0.000000,0.000000,0.000000,0.000000
13329048.000000,-0.249351,0.711498,0.304378,-1.538135,-0.259570,2.233323,0.146576,0.067013,0.152948,-0.076224,0.304241,-0.225772,0.801973,0.155362,4.017683,49.096416,-4.092300,-10.692263,-0.407931,-0.515336,0.009017,0.000000,0.000000,0.000000,0.000000,0.000000,0.000000
13329049.000000,-0.249294,0.711713,0.304337,-1.537784,-0.259812,2.234217,0.146716,0.062080,0.177717,-0.064690,0.320190,-0.233167,0.826889,0.152004,4.140668,49.461407,-4.703262,-12.398195,-0.419833,-1.003312,0.067611,0.000000,0.000000,0.000000,0.000000,0.000000,0.000000
13329050.000000,-0.249226,0.711946,0.304276,-1.537411,-0.260055,2.235111,0.146873,0.064890,0.196887,-0.064118,0.338090,-0.236380,0.863221,0.152883,4.140668,49.778790,-5.024612,-14.127932,-0.604769,-1.315507,0.041976,0.000000,0.000000,0.000000,0.000000,0.000000,0.000000
13329051.000000,-0.249155,0.712197,0.304201,-1.537026,-0.260296,2.236028,0.147024,0.068467,0.223702,-0.068440,0.352621,-0.234816,0.880946,0.152524,4.089094,50.024761,-5.147598,-15.683107,-0.814425,-1.588334,0.041976,0.000000,0.000000,0.000000,0.000000,0.000000,0.000000
13329052.000000,-0.249083,0.712473,0.304129,-1.536641,-0.260545,2.236948,0.147173,0.069974,0.238493,-0.071091,0.360050,-0.240162,0.891299,0.148387,4.089094,50.072369,-5.294388,-17.067690,-0.970065,-1.686295,0.015426,0.000000,0.000000,0.000000,0.000000,0.000000,0.000000
13329054.000000,-0.248916,0.713127,0.303941,-1.535789,-0.261071,2.238748,0.147446,0.079193,0.290857,-0.085616,0.398161,-0.251933,0.883855,0.145214,3.791547,49.512981,-5.048416,-20.059023,-1.065279,-1.458329,0.160079,0.000000,0.000000,0.000000,0.000000,0.000000,0.000000
13329055.000000,-0.248830,0.713524,0.303852,-1.535358,-0.261362,2.239678,0.147602,0.080494,0.325610,-0.086247,0.405745,-0.260593,0.886035,0.147300,3.644758,48.604473,-5.048416,-21.368227,-0.892245,-1.516923,0.021835,0.000000,0.000000,0.000000,0.000000,0.000000,0.000000
13329056.000000,-0.248754,0.713956,0.303781,-1.534920,-0.261625,2.240603,0.147735,0.081716,0.360615,-0.079204,0.416089,-0.262368,0.898891,0.144727,3.644758,47.576946,-5.365799,-22.506838,-0.945345,-1.744889,0.107894,0.000000,0.000000,0.000000,0.000000,0.000000,0.000000
13329057.000000,-0.248667,0.714422,0.303707,-1.534488,-0.261890,2.241556,0.147887,0.082526,0.395511,-0.078304,0.421291,-0.260261,0.902132,0.143303,3.521772,46.232037,-5.663345,-23.470888,-0.981967,-2.219132,0.061202,0.000000,0.000000,0.000000,0.000000,0.000000,0.000000
13329058.000000,-0.248570,0.714939,0.303617,-1.534044,-0.262165,2.242485,0.148040,0.088531,0.434684,-0.081824,0.430302,-0.263965,0.908775,0.146815,3.299604,44.641155,-5.663345,-24.359560,-0.981967,-2.531327,0.009017,0.000000,0.000000,0.000000,0.000000,0.000000,0.000000
13329059.000000,-0.248476,0.715479,0.303525,-1.533603,-0.262422,2.243365,0.148184,0.091169,0.463581,-0.086471,0.431551,-0.259547,0.894945,0.150024,3.148847,42.903484,-5.687149,-25.101442,-1.190707,-2.355546,0.048385,0.000000,0.000000,0.000000,0.000000,0.000000,0.000000
