chaoyuefei/paper-gmrm-data/batch01/robot_logs/s2_dq_mrm_max_0.30_log_20260314_170148.csv
# time_ms,q_0,q_1,q_2,q_3,q_4,q_5,q_6,dq_0,dq_1,dq_2,dq_3,dq_4,dq_5,dq_6,tau_J_0,tau_J_1,tau_J_2,tau_J_3,tau_J_4,tau_J_5,tau_J_6,O_dP_EE_c_0,O_dP_EE_c_1,O_dP_EE_c_2,O_dP_EE_c_3,O_dP_EE_c_4,O_dP_EE_c_5
10370070.000000,2.271073,-1.155288,-1.701993,-1.435883,-1.140654,1.634672,0.524290,0.000517,0.000419,-0.000466,0.000101,-0.000169,0.000048,0.001379,0.205121,36.194805,22.635300,8.513365,0.954374,1.344100,-0.169511,0.000000,0.000000,0.000000,0.000000,0.000000,0.000000
10370071.000000,2.271073,-1.155290,-1.701990,-1.435886,-1.140658,1.634671,0.524287,0.000345,-0.000277,0.000803,-0.001139,-0.000350,-0.000205,-0.000064,0.205121,36.218609,22.587692,8.564939,0.960782,1.350509,-0.142960,0.000000,0.000000,0.000000,0.000000,0.000000,0.000000
10370072.000000,2.271071,-1.155290,-1.701990,-1.435886,-1.140655,1.634672,0.524289,-0.000327,-0.000185,-0.000021,-0.000759,0.000208,0.000101,0.000432,0.228925,36.218609,22.611496,8.564939,0.948881,1.344100,-0.155778,0.000000,0.000000,0.000000,0.000000,0.000000,0.000000
10370073.000000,2.271066,-1.155285,-1.701991,-1.435884,-1.140654,1.634673,0.524286,-0.001332,0.001547,-0.000014,0.000143,0.000138,0.000542,-0.000661,0.276533,36.147198,22.611496,8.537169,0.948881,1.331283,-0.130143,0.000000,0.000000,0.000000,0.000000,0.000000,0.000000
10370074.000000,2.271058,-1.155297,-1.701995,-1.435882,-1.140657,1.634671,0.524287,-0.011447,-0.010243,-0.008035,0.002884,-0.002473,0.000599,0.007046,-0.167803,35.829815,22.147324,8.564939,0.888456,1.324874,-0.083451,0.000000,0.000000,0.000000,0.000000,0.000000,0.000000
10370075.000000,2.271044,-1.155273,-1.702009,-1.435883,-1.140642,1.634671,0.524305,-0.025122,-0.009710,-0.021824,0.005896,0.002090,0.002094,0.015836,-1.826129,33.869976,20.500900,8.810911,0.524076,1.279098,-0.110001,0.000000,0.000000,0.000000,0.000000,0.000000,0.000000
10370076.000000,2.271035,-1.155237,-1.702075,-1.435876,-1.140628,1.634655,0.524334,-0.023197,0.004387,-0.045798,0.006175,0.009061,-0.001520,0.024231,-4.869036,30.640606,18.219711,9.033079,0.034269,1.357833,-0.064225,0.000000,0.000000,0.000000,0.000000,0.000000,0.000000
10370077.000000,2.271011,-1.155233,-1.702175,-1.435854,-1.140648,1.634644,0.524381,-0.011519,0.011525,-0.055788,0.002223,-0.002303,-0.003658,0.033806,-7.816729,27.236675,15.494186,8.763304,-0.162570,1.429244,-0.097184,0.000000,0.000000,0.000000,0.000000,0.000000,0.000000
10370078.000000,2.270976,-1.155289,-1.702294,-1.435857,-1.140700,1.634650,0.524431,0.001313,-0.003458,-0.065734,-0.005495,-0.016456,0.004800,0.037801,-9.847980,24.519085,12.990829,8.243589,-0.079257,1.487838,-0.050492,0.000000,0.000000,0.000000,0.000000,0.000000,0.000000
10370079.000000,2.270947,-1.155377,-1.702437,-1.435898,-1.140784,1.634702,0.524500,0.005084,-0.020191,-0.079136,-0.023598,-0.038855,0.026979,0.046851,-10.764422,22.388653,11.078598,7.672301,0.225614,1.253463,-0.037675,0.000000,0.000000,0.000000,0.000000,0.000000,0.000000
10370080.000000,2.270920,-1.155492,-1.702571,-1.435941,-1.140884,1.634810,0.524581,0.003108,-0.043046,-0.085765,-0.032428,-0.061072,0.055288,0.055440,-10.764422,20.996136,9.578964,6.561461,0.578092,0.674850,-0.070634,0.000000,0.000000,0.000000,0.000000,0.000000,0.000000
10370081.000000,2.270891,-1.155616,-1.702705,-1.436013,-1.140978,1.634952,0.524658,-0.007690,-0.068643,-0.098025,-0.047954,-0.077123,0.085958,0.057296,-9.994769,20.040020,8.547470,5.252257,0.698026,0.050460,0.015426,0.000000,0.000000,0.000000,0.000000,0.000000,0.000000
10370082.000000,2.270873,-1.155758,-1.702824,-1.436111,-1.141068,1.635091,0.524761,-0.015449,-0.087314,-0.100258,-0.058929,-0.084212,0.103939,0.073895,-8.955340,19.429058,7.690536,3.891478,0.571683,-0.209550,-0.050492,0.000000,0.000000,0.000000,0.000000,0.000000,0.000000
10370083.000000,2.270871,-1.155899,-1.702933,-1.436211,-1.141173,1.635221,0.524869,-0.013816,-0.103679,-0.101869,-0.067311,-0.093135,0.111506,0.085397,-7.991290,18.988689,6.881210,2.308531,0.369352,-0.041093,-0.097184,0.000000,0.000000,0.000000,0.000000,0.000000,0.000000
10370084.000000,2.270869,-1.156024,-1.703050,-1.436315,-1.141283,1.635352,0.524971,-0.015469,-0.110245,-0.109395,-0.069413,-0.095014,0.117681,0.091343,-6.951861,18.373760,6.389267,0.729552,0.027860,0.401107,-0.077042,0.000000,0.000000,0.000000,0.000000,0.000000,0.000000
10370085.000000,2.270856,-1.156134,-1.703168,-1.436459,-1.141398,1.635523,0.525082,-0.019340,-0.107679,-0.113188,-0.089112,-0.098094,0.134376,0.096456,-5.860857,17.616009,6.020309,-0.432863,-0.300814,0.700484,-0.070634,0.000000,0.000000,0.000000,0.000000,0.000000,0.000000
10370086.000000,2.270820,-1.156219,-1.703280,-1.436639,-1.141542,1.635775,0.525194,-0.030472,-0.101975,-0.117808,-0.112700,-0.111380,0.172463,0.104497,-4.500079,16.564678,5.627548,-1.099367,-0.461947,0.570480,-0.056901,0.000000,0.000000,0.000000,0.000000,0.000000,0.000000
10370087.000000,2.270762,-1.156289,-1.703407,-1.436837,-1.141712,1.636056,0.525320,-0.044306,-0.089455,-0.118324,-0.134638,-0.131516,0.210323,0.108199,-2.988543,15.291180,5.405380,-1.349306,-0.461947,0.336105,-0.097184,0.000000,0.000000,0.000000,0.000000,0.000000,0.000000
10370089.000000,2.270588,-1.156434,-1.703668,-1.437304,-1.142158,1.636677,0.525557,-0.071002,-0.080913,-0.125204,-0.190096,-0.186519,0.265758,0.111123,0.375715,13.089336,4.941208,-1.150941,0.040677,0.206100,-0.017533,0.000000,0.000000,0.000000,0.000000,0.000000,0.000000
10370090.000000,2.270501,-1.156515,-1.703800,-1.437573,-1.142412,1.637009,0.525688,-0.077291,-0.078365,-0.125912,-0.213069,-0.208213,0.288188,0.117866,1.764264,12.232403,4.619858,-0.754213,0.255826,0.356246,-0.070634,0.000000,0.000000,0.000000,0.000000,0.000000,0.000000
10370091.000000,2.270405,-1.156597,-1.703928,-1.437843,-1.142673,1.637365,0.525812,-0.085988,-0.079402,-0.130360,-0.229028,-0.226819,0.305709,0.119960,3.073469,11.522259,4.227097,-0.409059,0.297025,0.499068,-0.031266,0.000000,0.000000,0.000000,0.000000,0.000000,0.000000
10370092.000000,2.270311,-1.156700,-1.704064,-1.438111,-1.142926,1.637753,0.525943,-0.087573,-0.088417,-0.131705,-0.244287,-0.236362,0.332326,0.122601,4.164472,11.058086,3.838302,-0.309877,0.081876,0.538436,-0.017533,0.000000,0.000000,0.000000,0.000000,0.000000,0.000000
10370093.000000,2.270234,-1.156824,-1.704207,-1.438388,-1.143172,1.638163,0.526077,-0.083271,-0.100062,-0.138729,-0.251428,-0.235284,0.359741,0.126045,4.858747,10.835918,3.445541,-0.309877,-0.258700,0.551253,-0.050492,0.000000,0.000000,0.000000,0.000000,0.000000,0.000000
10370094.000000,2.270173,-1.156965,-1.704361,-1.438663,-1.143449,1.638595,0.526208,-0.073914,-0.117052,-0.146624,-0.256581,-0.241981,0.379230,0.125830,5.255476,10.883526,3.147995,-0.532045,-0.401522,0.518295,-0.011124,0.000000,0.000000,0.000000,0.000000,0.000000,0.000000
10370095.000000,2.270107,-1.157121,-1.704538,-1.438935,-1.143733,1.639028,0.526346,-0.069198,-0.133940,-0.156662,-0.263992,-0.252441,0.396751,0.128359,5.699811,11.030315,3.052780,-0.976381,-0.419833,0.440475,-0.031266,0.000000,0.000000,0.000000,0.000000,0.000000,0.000000
10370096.000000,2.270045,-1.157283,-1.704722,-1.439226,-1.144033,1.639486,0.526473,-0.065922,-0.142763,-0.164920,-0.268823,-0.266270,0.407969,0.126889,5.997358,11.177105,2.854416,-1.273927,-0.276095,0.264693,0.034652,0.000000,0.000000,0.000000,0.000000,0.000000,0.000000
10370097.000000,2.269990,-1.157451,-1.704917,-1.439524,-1.144341,1.639958,0.526609,-0.064948,-0.150775,-0.176585,-0.276659,-0.278547,0.419836,0.133569,5.945783,11.276287,2.632248,-1.250124,-0.055453,-0.020951,0.015426,0.000000,0.000000,0.000000,0.000000,0.000000,0.000000
10370098.000000,2.269930,-1.157625,-1.705114,-1.439815,-1.144638,1.640425,0.526751,-0.063243,-0.161416,-0.183330,-0.275452,-0.289392,0.436929,0.135941,5.549055,11.323895,2.215683,-1.051759,0.100187,-0.287370,-0.056901,0.000000,0.000000,0.000000,0.000000,0.000000,0.000000
10370099.000000,2.269863,-1.157795,-1.705317,-1.440090,-1.144947,1.640880,0.526882,-0.063137,-0.164446,-0.186174,-0.271823,-0.297638,0.440335,0.133514,4.906354,11.300091,1.799118,-0.607423,0.171598,-0.339555,-0.023942,0.000000,0.000000,0.000000,0.000000,0.000000,0.000000
10370100.000000,2.269807,-1.157965,-1.705523,-1.440350,-1.145245,1.641311,0.527013,-0.058279,-0.164787,-0.192423,-0.259910,-0.304255,0.436614,0.132228,3.866926,11.204876,1.283371,0.110655,0.141385,-0.190324,0.001693,0.000000,0.000000,0.000000,0.000000,0.000000,0.000000
10370101.000000,2.269755,-1.158130,-1.705739,-1.440614,-1.145542,1.641750,0.527148,-0.052322,-0.162009,-0.194498,-0.261038,-0.299132,0.442863,0.132495,2.652936,11.228680,1.037399,1.098509,0.034269,0.011092,-0.004716,0.000000,0.000000,0.000000,0.000000,0.000000,0.000000
10370102.000000,2.269699,-1.158292,-1.705951,-1.440863,-1.145834,1.642202,0.527291,-0.049314,-0.160645,-0.196383,-0.258486,-0.294618,0.445005,0.133929,1.688886,11.423077,1.088974,2.014952,-0.097567,0.154830,-0.056901,0.000000,0.000000,0.000000,0.000000,0.000000,0.000000
10370103.000000,2.269639,-1.158454,-1.706160,-1.441117,-1.146119,1.642668,0.527421,-0.047719,-0.158024,-0.199498,-0.260683,-0.286742,0.449111,0.133834,0.970807,11.839642,1.529343,3.026610,-0.240389,0.147506,0.021835,0.000000,0.000000,0.000000,0.000000,0.000000,0.000000
10370104.000000,2.269594,-1.158612,-1.706370,-1.441373,-1.146407,1.643160,0.527552,-0.046897,-0.158884,-0.203183,-0.262071,-0.279963,0.457593,0.133182,0.276533,12.402996,2.338669,4.014464,-0.276095,0.056869,0.034652,0.000000,0.000000,0.000000,0.000000,0.000000,0.000000
10370105.000000,2.269539,-1.158776,-1.706572,-1.441639,-1.146703,1.643631,0.527690,-0.047632,-0.162102,-0.203588,-0.261709,-0.282868,0.470650,0.134300,-0.116229,13.113140,3.247177,5.030089,-0.187289,0.109054,0.001693,0.000000,0.000000,0.000000,0.000000,0.000000,0.000000
10370106.000000,2.269493,-1.158943,-1.706785,-1.441905,-1.146990,1.644089,0.527817,-0.048106,-0.167983,-0.210954,-0.266256,-0.287291,0.467325,0.132161,-0.489153,13.894695,4.377853,5.771971,-0.072848,0.349838,0.028243,0.000000,0.000000,0.000000,0.000000,0.000000,0.000000
10370107.000000,2.269446,-1.159123,-1.706987,-1.442167,-1.147285,1.644545,0.527956,-0.047177,-0.169943,-0.210027,-0.265404,-0.288426,0.458575,0.129003,-0.762896,14.704021,5.286362,6.339293,0.010465,0.629073,-0.017533,0.000000,0.000000,0.000000,0.000000,0.000000,0.000000
10370108.000000,2.269409,-1.159307,-1.707198,-1.442434,-1.147579,1.644993,0.528084,-0.047299,-0.178391,-0.212271,-0.264836,-0.286011,0.453804,0.132801,-1.108050,15.437969,6.218674,6.783629,0.129484,0.765487,0.001693,0.000000,0.000000,0.000000,0.000000,0.000000,0.000000
10370109.000000,2.269375,-1.159490,-1.707421,-1.442704,-1.147860,1.645446,0.528213,-0.044638,-0.182134,-0.223051,-0.269357,-0.284048,0.452861,0.127605,-1.429400,15.925945,7.174789,6.981993,0.117582,0.863448,0.009017,0.000000,0.000000,0.000000,0.000000,0.000000,0.000000
10370110.000000,2.269334,-1.159697,-1.707656,-1.442971,-1.148136,1.645903,0.528350,-0.045139,-0.191862,-0.230038,-0.271324,-0.281158,0.448514,0.129350,-1.627764,16.441692,8.059494,7.057372,0.058073,0.882674,-0.023942,0.000000,0.000000,0.000000,0.000000,0.000000,0.000000
10370111.000000,2.269296,-1.159916,-1.707893,-1.443237,-1.148415,1.646339,0.528474,-0.042480,-0.201668,-0.234308,-0.266309,-0.284054,0.448918,0.128073,-1.826129,16.905865,8.769638,7.029601,-0.001437,0.863448,0.028243,0.000000,0.000000,0.000000,0.000000,0.000000,0.000000
10370112.000000,2.269260,-1.160152,-1.708139,-1.443506,-1.148700,1.646771,0.528608,-0.040425,-0.211702,-0.239588,-0.269272,-0.281357,0.438189,0.124554,-2.024493,17.469219,9.408371,6.934386,-0.049044,0.922042,0.021835,0.000000,0.000000,0.000000,0.000000,0.000000,0.000000
10370113.000000,2.269219,-1.160403,-1.708395,-1.443765,-1.148984,1.647196,0.528738,-0.041406,-0.224428,-0.242239,-0.268118,-0.281448,0.437248,0.130039,-2.099871,18.008770,9.995529,6.708251,-0.060946,0.941268,0.054794,0.000000,0.000000,0.000000,0.000000,0.000000,0.000000
10370114.000000,2.269170,-1.160667,-1.708658,-1.444028,-1.149269,1.647618,0.528869,-0.045020,-0.234992,-0.245844,-0.263799,-0.277633,0.430450,0.130628,-2.048296,18.449139,10.487473,6.513854,-0.049044,0.987045,0.054794,0.000000,0.000000,0.000000,0.000000,0.000000,0.000000
10370115.000000,2.269129,-1.160950,-1.708924,-1.444299,-1.149569,1.648037,0.529005,-0.042674,-0.246019,-0.252569,-0.262890,-0.283225,0.425396,0.132888,-2.072100,19.012493,11.003220,6.486083,0.069974,1.058456,0.001693,0.000000,0.000000,0.000000,0.000000,0.000000,0.000000
10370116.000000,2.269086,-1.161248,-1.709197,-1.444562,-1.149877,1.648444,0.529135,-0.042561,-0.256806,-0.253993,-0.259397,-0.288572,0.416400,0.132815,-2.000689,19.940838,11.641953,6.315489,0.225614,1.123458,-0.004716,0.000000,0.000000,0.000000,0.000000,0.000000,0.000000
10370117.000000,2.269042,-1.161561,-1.709465,-1.444810,-1.150182,1.648865,0.529261,-0.044687,-0.275130,-0.257377,-0.252988,-0.290369,0.420659,0.126589,-1.826129,21.214336,12.498886,6.065550,0.351041,1.129867,0.028243,0.000000,0.000000,0.000000,0.000000,0.000000,0.000000
10370118.000000,2.268997,-1.161886,-1.709731,-1.445055,-1.150478,1.649281,0.529390,-0.044616,-0.289853,-0.258691,-0.249585,-0.297456,0.425860,0.124222,-1.603961,22.733807,13.458969,5.894957,0.410551,1.155502,0.001693,0.000000,0.000000,0.000000,0.000000,0.000000,0.000000
10370119.000000,2.268943,-1.162215,-1.710002,-1.445304,-1.150765,1.649714,0.529517,-0.049629,-0.301460,-0.261323,-0.247604,-0.296116,0.430843,0.126819,-1.254840,24.447674,14.514267,5.819579,0.369352,1.104232,-0.011124,0.000000,0.000000,0.000000,0.000000,0.000000,0.000000
10370120.000000,2.268890,-1.162532,-1.710264,-1.445552,-1.151057,1.650148,0.529640,-0.052601,-0.309259,-0.260962,-0.242416,-0.297086,0.437506,0.125177,-0.909686,26.038555,15.494186,5.843382,0.255826,1.071273,0.061202,0.000000,0.000000,0.000000,0.000000,0.000000,0.000000
10370121.000000,2.268825,-1.162860,-1.710525,-1.445807,-1.151341,1.650574,0.529771,-0.058246,-0.317624,-0.264054,-0.245579,-0.294301,0.430736,0.128529,-0.413775,27.506451,16.378891,5.994139,0.141385,1.110641,0.021835,0.000000,0.000000,0.000000,0.000000,0.000000,0.000000
10370122.000000,2.268762,-1.163177,-1.710783,-1.446071,-1.151628,1.650991,0.529905,-0.060920,-0.318765,-0.266475,-0.249409,-0.293037,0.426265,0.125248,0.030561,28.752178,17.112839,6.192503,0.052579,1.240646,0.001693,0.000000,0.000000,0.000000,0.000000,0.000000,0.000000
10370123.000000,2.268693,-1.163501,-1.711055,-1.446341,-1.151924,1.651403,0.530031,-0.063612,-0.320216,-0.269332,-0.251940,-0.297654,0.427182,0.125387,0.502668,29.902691,17.874557,6.585265,0.105680,1.442062,0.041976,0.000000,0.000000,0.000000,0.000000,0.000000,0.000000
10370124.000000,2.268617,-1.163830,-1.711328,-1.446611,-1.152233,1.651805,0.530160,-0.066674,-0.332336,-0.268833,-0.255542,-0.302803,0.418124,0.129188,1.046186,30.882610,18.513290,6.934386,0.225614,1.630660,-0.011124,0.000000,0.000000,0.000000,0.000000,0.000000,0.000000
10370125.000000,2.268540,-1.164148,-1.711602,-1.446896,-1.152536,1.652218,0.530279,-0.067826,-0.330472,-0.271904,-0.267750,-0.303724,0.415493,0.121719,1.542096,31.568951,19.152023,7.378722,0.285123,1.689254,0.061202,0.000000,0.000000,0.000000,0.000000,0.000000,0.000000
10370126.000000,2.268468,-1.164473,-1.711890,-1.447175,-1.152840,1.652639,0.530407,-0.068140,-0.326655,-0.272811,-0.270552,-0.301544,0.419707,0.124505,1.911054,32.255291,19.739182,7.624693,0.381254,1.597701,0.041976,0.000000,0.000000,0.000000,0.000000,0.000000,0.000000
10370127.000000,2.268403,-1.164800,-1.712179,-1.447450,-1.153141,1.653062,0.530534,-0.068728,-0.326919,-0.276010,-0.271628,-0.302842,0.423993,0.122149,2.160993,32.890057,20.254929,7.771483,0.422452,1.500655,0.028243,0.000000,0.000000,0.000000,0.000000,0.000000,0.000000
10370128.000000,2.268352,-1.165137,-1.712481,-1.447721,-1.153433,1.653471,0.530656,-0.064873,-0.327474,-0.281521,-0.273479,-0.297365,0.417127,0.123769,2.208601,33.405804,20.770676,7.799254,0.297025,1.500655,0.048385,0.000000,0.000000,0.000000,0.000000,0.000000,0.000000
10370129.000000,2.268301,-1.165481,-1.712776,-1.447994,-1.153734,1.653866,0.530778,-0.058081,-0.330771,-0.283032,-0.271622,-0.297449,0.414394,0.121418,2.184797,33.992962,21.040451,7.747679,0.273221,1.617843,0.041976,0.000000,0.000000,0.000000,0.000000,0.000000,0.000000
10370130.000000,2.268256,-1.165834,-1.713081,-1.448261,-1.154037,1.654262,0.530902,-0.054022,-0.335867,-0.287365,-0.268334,-0.297921,0.404882,0.122938,2.061811,34.556316,21.409409,7.648497,0.279630,1.747848,0.067611,0.000000,0.000000,0.000000,0.000000,0.000000,0.000000
10370131.000000,2.268211,-1.166192,-1.713388,-1.448528,-1.154319,1.654656,0.531038,-0.052179,-0.340416,-0.290094,-0.265618,-0.293475,0.396382,0.123078,1.962629,35.044292,21.754562,7.577086,0.183500,1.825668,0.001693,0.000000,0.000000,0.000000,0.000000,0.000000,0.000000
10370132.000000,2.268173,-1.166545,-1.713691,-1.448794,-1.154630,1.655065,0.531163,-0.047049,-0.343125,-0.292606,-0.262693,-0.302218,0.400998,0.124994,1.811872,35.460857,21.972763,7.501708,0.231107,1.851302,0.009017,0.000000,0.000000,0.000000,0.000000,0.000000,0.000000
10370133.000000,2.268140,-1.166900,-1.714009,-1.449058,-1.154942,1.655476,0.531289,-0.041688,-0.344727,-0.298624,-0.255836,-0.303481,0.401912,0.125519,1.589704,35.706829,22.341721,7.477904,0.279630,1.838485,0.034652,0.000000,0.000000,0.000000,0.000000,0.000000,0.000000
10370134.000000,2.268115,-1.167255,-1.714327,-1.449324,-1.155247,1.655881,0.531414,-0.036265,-0.342959,-0.300758,-0.259689,-0.300853,0.398674,0.128187,1.292158,35.948833,22.635300,7.426329,0.351041,1.773483,0.009017,0.000000,0.000000,0.000000,0.000000,0.000000,0.000000
10370135.000000,2.268082,-1.167606,-1.714647,-1.449587,-1.155556,1.656291,0.531536,-0.033277,-0.344999,-0.309869,-0.260585,-0.299301,0.403233,0.127275,1.145368,36.024212,22.956650,7.378722,0.458158,1.754256,0.061202,0.000000,0.000000,0.000000,0.000000,0.000000,0.000000
10370136.000000,2.268058,-1.167948,-1.714968,-1.449852,-1.155861,1.656697,0.531665,-0.029055,-0.339135,-0.311970,-0.257542,-0.307506,0.409197,0.125120,0.923200,35.948833,23.202621,7.477904,0.476469,1.741439,0.028243,0.000000,0.000000,0.000000,0.000000,0.000000,0.000000
10370137.000000,2.268046,-1.168281,-1.715282,-1.450119,-1.156173,1.657109,0.531787,-0.023065,-0.337773,-0.308037,-0.260174,-0.310608,0.408097,0.125917,0.574079,35.802044,23.349411,7.549315,0.476469,1.721298,0.054794,0.000000,0.000000,0.000000,0.000000,0.000000,0.000000
10370138.000000,2.268031,-1.168610,-1.715594,-1.450388,-1.156483,1.657513,0.531904,-0.017504,-0.329372,-0.307857,-0.257800,-0.307069,0.406983,0.125883,0.276533,35.583843,23.472397,7.700072,0.458158,1.786300,0.094161,0.000000,0.000000,0.000000,0.000000,0.000000,0.000000
10370139.000000,2.268022,-1.168944,-1.715908,-1.450657,-1.156780,1.657908,0.532033,-0.013138,-0.329551,-0.309003,-0.259251,-0.302626,0.406878,0.124893,-0.044818,35.484661,23.520004,7.846861,0.381254,1.909896,0.041976,0.000000,0.000000,0.000000,0.000000,0.000000,0.000000
10370140.000000,2.268010,-1.169271,-1.716217,-1.450925,-1.157096,1.658299,0.532166,-0.011478,-0.328760,-0.314408,-0.263154,-0.306402,0.396007,0.128410,-0.290789,35.337872,23.543808,7.922240,0.356534,2.001449,-0.004716,0.000000,0.000000,0.000000,0.000000,0.000000,0.000000
10370141.000000,2.268009,-1.169607,-1.716536,-1.451192,-1.157420,1.658696,0.532293,-0.006841,-0.324924,-0.315813,-0.266076,-0.312105,0.399659,0.127889,-0.663714,35.337872,23.619186,7.993651,0.416959,2.047225,0.009017,0.000000,0.000000,0.000000,0.000000,0.000000,0.000000
10370142.000000,2.268011,-1.169934,-1.716860,-1.451461,-1.157734,1.659089,0.532409,-0.004057,-0.334590,-0.314922,-0.266654,-0.310689,0.399387,0.121643,-1.032672,35.266460,23.765976,8.092833,0.452665,2.047225,0.074935,0.000000,0.000000,0.000000,0.000000,0.000000,0.000000
10370143.000000,2.268004,-1.170262,-1.717167,-1.451728,-1.158044,1.659494,0.532539,-0.006289,-0.329430,-0.313606,-0.269547,-0.307839,0.406751,0.121491,-1.231036,35.119671,23.742172,8.215818,0.470060,1.942855,0.021835,0.000000,0.000000,0.000000,0.000000,0.000000,0.000000
10370144.000000,2.268010,-1.170595,-1.717484,-1.452000,-1.158367,1.659891,0.532659,-0.001424,-0.327347,-0.313793,-0.266124,-0.312601,0.407831,0.117373,-1.552386,35.068096,23.789780,8.291197,0.524076,1.844894,0.061202,0.000000,0.000000,0.000000,0.000000,0.000000,0.000000
10370145.000000,2.268012,-1.170935,-1.717793,-1.452275,-1.158691,1.660288,0.532788,0.000840,-0.331369,-0.315410,-0.269411,-0.315224,0.401780,0.121877,-1.826129,35.091900,23.690598,8.414183,0.535978,1.819259,0.041976,0.000000,0.000000,0.000000,0.000000,0.000000,0.000000
10370146.000000,2.268007,-1.171276,-1.718093,-1.452540,-1.159003,1.660681,0.532912,-0.005096,-0.329028,-0.310984,-0.261299,-0.314962,0.397560,0.124874,-1.925311,35.167278,23.520004,8.441954,0.506681,1.884261,0.028243,0.000000,0.000000,0.000000,0.000000,0.000000,0.000000
10370147.000000,2.267998,-1.171630,-1.718390,-1.452813,-1.159308,1.661054,0.533028,-0.006593,-0.334080,-0.305752,-0.260435,-0.311140,0.393277,0.124981,-1.972918,35.266460,23.397018,8.537169,0.488370,2.001449,0.074935,0.000000,0.000000,0.000000,0.000000,0.000000,0.000000
10370148.000000,2.267994,-1.171979,-1.718679,-1.453090,-1.159627,1.661453,0.533157,-0.005752,-0.338447,-0.301387,-0.262654,-0.312675,0.393247,0.123894,-2.099871,35.413250,23.226425,8.664122,0.482877,2.014266,0.021835,0.000000,0.000000,0.000000,0.000000,0.000000,0.000000
10370149.000000,2.267984,-1.172337,-1.718977,-1.453350,-1.159935,1.661852,0.533281,-0.007995,-0.347189,-0.296155,-0.264736,-0.315600,0.397116,0.124646,-2.099871,35.560040,23.103439,8.664122,0.434354,1.949264,0.054794,0.000000,0.000000,0.000000,0.000000,0.000000,0.000000
10370150.000000,2.267972,-1.172692,-1.719274,-1.453617,-1.160242,1.662250,0.533404,-0.006593,-0.346628,-0.296514,-0.263686,-0.310467,0.397482,0.125765,-2.099871,35.655254,23.028061,8.711729,0.381254,1.930038,0.074935,0.000000,0.000000,0.000000,0.000000,0.000000,0.000000
10370151.000000,2.267961,-1.173053,-1.719566,-1.453874,-1.160549,1.662661,0.533538,-0.008137,-0.349526,-0.297477,-0.256846,-0.307776,0.398251,0.128825,-2.099871,35.877422,22.980453,8.735533,0.369352,1.897079,0.028243,0.000000,0.000000,0.000000,0.000000,0.000000,0.000000
10370152.000000,2.267946,-1.173424,-1.719851,-1.454123,-1.160861,1.663070,0.533655,-0.013139,-0.355526,-0.289587,-0.253069,-0.306494,0.401322,0.123130,-2.048296,36.147198,22.857468,8.636351,0.374845,1.793624,0.074935,0.000000,0.000000,0.000000,0.000000,0.000000,0.000000
10370153.000000,2.267932,-1.173795,-1.720135,-1.454384,-1.161175,1.663476,0.533783,-0.016802,-0.362271,-0.286585,-0.256314,-0.304915,0.406230,0.126640,-2.000689,36.512188,22.833664,8.612547,0.374845,1.747848,0.041976,0.000000,0.000000,0.000000,0.000000,0.000000,0.000000
10370154.000000,2.267908,-1.174173,-1.720423,-1.454641,-1.161483,1.663877,0.533908,-0.019354,-0.365195,-0.289867,-0.258166,-0.312202,0.408774,0.127280,-1.826129,36.833538,22.786057,8.664122,0.386747,1.786300,0.061202,0.000000,0.000000,0.000000,0.000000,0.000000,0.000000
10370155.000000,2.267888,-1.174548,-1.720715,-1.454892,-1.161783,1.664289,0.534030,-0.019471,-0.365336,-0.290778,-0.252560,-0.308974,0.406708,0.123645,-1.726946,37.174725,22.809860,8.664122,0.362943,1.767074,0.067611,0.000000,0.000000,0.000000,0.000000,0.000000,0.000000
10370156.000000,2.267867,-1.174923,-1.720996,-1.455145,-1.162106,1.664703,0.534160,-0.020049,-0.369561,-0.289470,-0.257306,-0.314037,0.409170,0.122832,-1.603961,37.444500,22.758286,8.687925,0.434354,1.747848,0.015426,0.000000,0.000000,0.000000,0.000000,0.000000,0.000000
10370157.000000,2.267836,-1.175298,-1.721292,-1.455390,-1.162413,1.665108,0.534277,-0.025282,-0.367752,-0.294426,-0.253399,-0.315346,0.411274,0.118479,-1.381793,37.638897,22.857468,8.588743,0.434354,1.779891,0.048385,0.000000,0.000000,0.000000,0.000000,0.000000,0.000000
10370158.000000,2.267805,-1.175665,-1.721582,-1.455635,-1.162719,1.665515,0.534400,-0.029205,-0.368933,-0.300547,-0.249228,-0.310880,0.406960,0.117644,-1.159625,37.785686,22.980453,8.513365,0.405057,1.786300,0.028243,0.000000,0.000000,0.000000,0.000000,0.000000,0.000000
10370159.000000,2.267771,-1.176039,-1.721870,-1.455882,-1.163025,1.665922,0.534524,-0.029017,-0.367602,-0.296665,-0.252877,-0.312544,0.405052,0.116652,-0.933489,37.861065,23.079636,8.441954,0.386747,1.760665,0.021835,0.000000,0.000000,0.000000,0.000000,0.000000,0.000000
10370160.000000,2.267730,-1.176400,-1.722164,-1.456134,-1.163335,1.666331,0.534642,-0.033776,-0.362120,-0.295293,-0.251659,-0.317054,0.404873,0.119775,-0.612139,37.833294,23.127243,8.414183,0.327238,1.708480,0.041976,0.000000,0.000000,0.000000,0.000000,0.000000,0.000000
10370161.000000,2.267693,-1.176767,-1.722453,-1.456375,-1.163646,1.666735,0.534761,-0.034796,-0.360567,-0.292559,-0.246240,-0.310816,0.401066,0.120603,-0.389971,37.908672,23.226425,8.267393,0.273221,1.727706,0.081344,0.000000,0.000000,0.000000,0.000000,0.000000,0.000000
10370162.000000,2.267652,-1.177139,-1.722742,-1.456619,-1.163953,1.667124,0.534881,-0.036754,-0.359888,-0.291385,-0.247297,-0.307580,0.401846,0.118552,-0.116229,38.031658,23.250229,8.243589,0.249418,1.806442,0.094161,0.000000,0.000000,0.000000,0.000000,0.000000,0.000000
10370163.000000,2.267610,-1.177515,-1.723037,-1.456866,-1.164269,1.667522,0.535008,-0.037698,-0.364509,-0.288841,-0.245437,-0.312954,0.398389,0.119552,0.129743,38.202251,23.325607,8.192015,0.291532,1.890670,0.034652,0.000000,0.000000,0.000000,0.000000,0.000000,0.000000
10370164.000000,2.267566,-1.177894,-1.723328,-1.457095,-1.164600,1.667932,0.535126,-0.041161,-0.364088,-0.288396,-0.235644,-0.315685,0.398957,0.116154,0.375715,38.349041,23.448593,7.993651,0.320829,1.871444,0.074935,0.000000,0.000000,0.000000,0.000000,0.000000,0.000000
10370165.000000,2.267532,-1.178276,-1.723625,-1.457324,-1.164926,1.668330,0.535253,-0.040222,-0.368011,-0.289208,-0.233073,-0.315455,0.402116,0.116921,0.451093,38.543438,23.642990,7.823058,0.405057,1.806442,0.028243,0.000000,0.000000,0.000000,0.000000,0.000000,0.000000
10370166.000000,2.267497,-1.178646,-1.723926,-1.457552,-1.165242,1.668737,0.535371,-0.040135,-0.368464,-0.291322,-0.234116,-0.315079,0.401194,0.115085,0.550275,38.642620,23.888962,7.600890,0.398649,1.767074,0.048385,0.000000,0.000000,0.000000,0.000000,0.000000,0.000000
10370167.000000,2.267463,-1.179017,-1.724233,-1.457772,-1.165563,1.669141,0.535488,-0.039287,-0.367678,-0.295161,-0.227142,-0.328899,0.400718,0.113622,0.625654,38.717999,24.111130,7.350951,0.416959,1.695663,0.074935,0.000000,0.000000,0.000000,0.000000,0.000000,0.000000
10370168.000000,2.267434,-1.179395,-1.724545,-1.457984,-1.165896,1.669539,0.535609,-0.036720,-0.369152,-0.302600,-0.222516,-0.327678,0.398757,0.119991,0.601850,38.837017,24.380905,7.057372,0.440763,1.714889,0.034652,0.000000,0.000000,0.000000,0.000000,0.000000,0.000000
10370169.000000,2.267404,-1.179770,-1.724850,-1.458196,-1.166229,1.669940,0.535723,-0.032855,-0.369086,-0.299652,-0.215847,-0.325904,0.396352,0.115524,0.601850,38.912395,24.575302,6.859007,0.458158,1.779891,0.100570,0.000000,0.000000,0.000000,0.000000,0.000000,0.000000
10370170.000000,2.267375,-1.180145,-1.725157,-1.458410,-1.166545,1.670334,0.535849,-0.030109,-0.370141,-0.303148,-0.212836,-0.322340,0.398788,0.121562,0.601850,38.912395,24.773666,6.708251,0.410551,1.844894,0.054794,0.000000,0.000000,0.000000,0.000000,0.000000,0.000000
10370171.000000,2.267340,-1.180516,-1.725457,-1.458627,-1.166872,1.670729,0.535975,-0.030350,-0.369495,-0.304760,-0.216572,-0.326260,0.393037,0.125145,0.697065,38.960003,24.896652,6.636839,0.405057,1.858627,0.028243,0.000000,0.000000,0.000000,0.000000,0.000000,0.000000
10370172.000000,2.267310,-1.180884,-1.725770,-1.458831,-1.167214,1.671123,0.536097,-0.027672,-0.366634,-0.308325,-0.209716,-0.327000,0.401350,0.121456,0.673261,38.813213,25.114853,6.486083,0.464567,1.858627,0.048385,0.000000,0.000000,0.000000,0.000000,0.000000,0.000000
10370173.000000,2.267279,-1.181260,-1.726087,-1.459052,-1.167548,1.671520,0.536224,-0.026933,-0.375387,-0.305274,-0.214158,-0.322975,0.397398,0.120095,0.697065,38.912395,25.360825,6.486083,0.530485,1.819259,0.028243,0.000000,0.000000,0.000000,0.000000,0.000000,0.000000
10370174.000000,2.267249,-1.181631,-1.726390,-1.459263,-1.167873,1.671914,0.536344,-0.027053,-0.375490,-0.305031,-0.214362,-0.322160,0.391958,0.121354,0.748639,38.912395,25.436203,6.414671,0.554288,1.819259,0.067611,0.000000,0.000000,0.000000,0.000000,0.000000,0.000000
10370175.000000,2.267224,-1.181998,-1.726706,-1.459484,-1.168208,1.672302,0.536468,-0.027453,-0.371358,-0.306559,-0.215722,-0.327306,0.394091,0.124145,0.697065,38.864788,25.729782,6.462279,0.584501,1.832076,0.048385,0.000000,0.000000,0.000000,0.000000,0.000000,0.000000
10370176.000000,2.267200,-1.182365,-1.727001,-1.459693,-1.168539,1.672695,0.536591,-0.027597,-0.371674,-0.306737,-0.213010,-0.330452,0.390132,0.121435,0.625654,38.936199,25.777390,6.438475,0.589994,1.825668,0.048385,0.000000,0.000000,0.000000,0.000000,0.000000,0.000000
10370177.000000,2.267179,-1.182737,-1.727312,-1.459907,-1.168870,1.673082,0.536712,-0.024560,-0.368378,-0.307589,-0.209880,-0.327459,0.387126,0.118977,0.550275,39.035381,25.900375,6.462279,0.589994,1.844894,0.054794,0.000000,0.000000,0.000000,0.000000,0.000000,0.000000
10370178.000000,2.267162,-1.183108,-1.727624,-1.460132,-1.169185,1.673459,0.536826,-0.024337,-0.370652,-0.304895,-0.213557,-0.326850,0.386750,0.121334,0.427289,39.182171,26.023361,6.585265,0.500272,1.923629,0.081344,0.000000,0.000000,0.000000,0.000000,0.000000,0.000000
10370179.000000,2.267142,-1.183476,-1.727922,-1.460351,-1.169517,1.673840,0.536954,-0.019862,-0.368373,-0.304021,-0.211848,-0.327313,0.381672,0.121196,0.351911,39.305157,26.047165,6.613036,0.446256,2.007858,0.028243,0.000000,0.000000,0.000000,0.000000,0.000000,0.000000
10370180.000000,2.267127,-1.183837,-1.728227,-1.460578,-1.169845,1.674220,0.537078,-0.018426,-0.362359,-0.301192,-0.219268,-0.326188,0.380311,0.123811,0.228925,39.281353,26.122543,6.783629,0.458158,2.033492,0.028243,0.000000,0.000000,0.000000,0.000000,0.000000,0.000000
10370181.000000,2.267115,-1.184200,-1.728534,-1.460800,-1.170173,1.674610,0.537199,-0.016562,-0.361856,-0.303393,-0.219053,-0.325995,0.385900,0.124816,0.078168,39.253582,26.221725,6.807433,0.476469,2.027084,0.054794,0.000000,0.000000,0.000000,0.000000,0.000000,0.000000
10370182.000000,2.267094,-1.184560,-1.728830,-1.461029,-1.170507,1.675006,0.537325,-0.019253,-0.357400,-0.301910,-0.217495,-0.330564,0.385333,0.122259,0.078168,39.182171,26.193954,6.981993,0.512174,1.995040,0.041976,0.000000,0.000000,0.000000,0.000000,0.000000,0.000000
10370183.000000,2.267083,-1.184922,-1.729135,-1.461253,-1.170845,1.675389,0.537441,-0.017774,-0.356157,-0.303149,-0.218397,-0.334153,0.384897,0.123937,-0.044818,39.059185,26.269333,7.081175,0.554288,1.968490,0.061202,0.000000,0.000000,0.000000,0.000000,0.000000,0.000000
10370184.000000,2.267071,-1.185287,-1.729430,-1.461490,-1.171186,1.675773,0.537566,-0.015205,-0.358627,-0.301457,-0.223232,-0.332031,0.381867,0.126614,-0.116229,39.059185,26.221725,7.303343,0.608304,1.981307,0.041976,0.000000,0.000000,0.000000,0.000000,0.000000,0.000000
10370185.000000,2.267056,-1.185656,-1.729737,-1.461728,-1.171511,1.676157,0.537687,-0.016484,-0.361684,-0.302833,-0.230732,-0.331199,0.382875,0.127199,-0.167803,39.035381,26.269333,7.549315,0.601896,1.981307,0.061202,0.000000,0.000000,0.000000,0.000000,0.000000,0.000000
10370186.000000,2.267038,-1.186021,-1.730032,-1.461963,-1.171847,1.676549,0.537805,-0.016478,-0.361278,-0.300209,-0.232503,-0.338389,0.386037,0.122556,-0.144000,38.983807,26.170151,7.747679,0.608304,1.988631,0.094161,0.000000,0.000000,0.000000,0.000000,0.000000,0.000000
10370187.000000,2.267031,-1.186389,-1.730317,-1.462202,-1.172185,1.676930,0.537932,-0.012846,-0.366301,-0.297881,-0.228994,-0.338068,0.381900,0.122263,-0.243182,39.011578,26.047165,8.021421,0.601896,2.047225,0.034652,0.000000,0.000000,0.000000,0.000000,0.000000,0.000000
10370188.000000,2.267017,-1.186761,-1.730615,-1.462443,-1.172507,1.677315,0.538048,-0.015224,-0.366617,-0.297584,-0.234071,-0.330660,0.384820,0.118648,-0.266986,39.059185,25.999557,8.192015,0.530485,2.072860,0.067611,0.000000,0.000000,0.000000,0.000000,0.000000,0.000000
10370189.000000,2.267001,-1.187128,-1.730904,-1.462686,-1.172829,1.677707,0.538175,-0.017454,-0.367836,-0.296893,-0.235583,-0.327542,0.384072,0.119822,-0.266986,39.130596,25.900375,8.342772,0.506681,2.033492,0.001693,0.000000,0.000000,0.000000,0.000000,0.000000,0.000000
10370190.000000,2.266991,-1.187498,-1.731196,-1.462924,-1.173159,1.678079,0.538293,-0.015049,-0.365551,-0.296885,-0.229362,-0.331673,0.385118,0.120763,-0.314593,39.106792,25.828964,8.513365,0.524076,2.033492,0.054794,0.000000,0.000000,0.000000,0.000000,0.000000,0.000000
10370191.000000,2.266972,-1.187860,-1.731485,-1.463171,-1.173483,1.678468,0.538414,-0.015436,-0.369911,-0.290330,-0.232386,-0.328115,0.383941,0.122702,-0.266986,39.130596,25.753586,8.735533,0.500272,2.014266,0.081344,0.000000,0.000000,0.000000,0.000000,0.000000,0.000000
10370192.000000,2.266952,-1.188226,-1.731768,-1.463417,-1.173810,1.678856,0.538546,-0.019749,-0.370270,-0.288763,-0.236235,-0.325826,0.387649,0.122727,-0.167803,39.082989,25.682175,8.957701,0.506681,1.981307,0.015426,0.000000,0.000000,0.000000,0.000000,0.000000,0.000000
10370193.000000,2.266937,-1.188586,-1.732048,-1.463666,-1.174127,1.679234,0.538657,-0.018495,-0.364783,-0.285399,-0.239842,-0.324921,0.385403,0.121166,-0.144000,38.936199,25.531418,9.132261,0.512174,1.974899,0.100570,0.000000,0.000000,0.000000,0.000000,0.000000,0.000000
10370194.000000,2.266917,-1.188933,-1.732321,-1.463919,-1.174455,1.679612,0.538782,-0.020986,-0.361735,-0.286236,-0.245597,-0.324144,0.380989,0.120187,-0.068621,38.666424,25.436203,9.378233,0.500272,2.033492,0.061202,0.000000,0.000000,0.000000,0.000000,0.000000,0.000000
10370195.000000,2.266893,-1.189286,-1.732591,-1.464169,-1.174781,1.679985,0.538907,-0.021933,-0.356862,-0.280384,-0.245580,-0.318779,0.378027,0.119129,0.078168,38.424419,25.261642,9.528990,0.512174,2.131454,0.041976,0.000000,0.000000,0.000000,0.000000,0.000000,0.000000
10370196.000000,2.266874,-1.189638,-1.732870,-1.464424,-1.175095,1.680355,0.539028,-0.020204,-0.354397,-0.279008,-0.250303,-0.313850,0.376851,0.118637,0.129743,38.202251,25.214035,9.727354,0.500272,2.163497,0.015426,0.000000,0.000000,0.000000,0.000000,0.000000,0.000000
10370197.000000,2.266848,-1.189988,-1.733136,-1.464675,-1.175416,1.680733,0.539141,-0.021190,-0.353904,-0.276896,-0.250444,-0.313858,0.379489,0.114233,0.276533,38.031658,25.114853,9.850340,0.482877,2.131454,0.074935,0.000000,0.000000,0.000000,0.000000,0.000000,0.000000
10370198.000000,2.266820,-1.190341,-1.733407,-1.464913,-1.175741,1.681111,0.539256,-0.025217,-0.355213,-0.274628,-0.246327,-0.312778,0.380697,0.113989,0.451093,37.956280,25.138657,9.850340,0.458158,2.092086,0.081344,0.000000,0.000000,0.000000,0.000000,0.000000,0.000000
10370199.000000,2.266800,-1.190686,-1.733681,-1.465164,-1.176067,1.681490,0.539380,-0.022450,-0.353660,-0.275195,-0.244328,-0.314135,0.375215,0.115486,0.502668,37.761883,25.114853,9.949522,0.428861,2.104903,0.034652,0.000000,0.000000,0.000000,0.000000,0.000000,0.000000
10370200.000000,2.266763,-1.191038,-1.733939,-1.465408,-1.176388,1.681865,0.539495,-0.025143,-0.350129,-0.269565,-0.239696,-0.314442,0.375833,0.112947,0.772443,37.738079,24.968063,9.997129,0.398649,2.112228,0.081344,0.000000,0.000000,0.000000,0.000000,0.000000,0.000000
10370201.000000,2.266737,-1.191401,-1.734200,-1.465645,-1.176724,1.682242,0.539618,-0.023115,-0.353277,-0.264294,-0.237654,-0.321380,0.376481,0.115192,0.871625,37.833294,24.797470,9.949522,0.410551,2.125045,0.021835,0.000000,0.000000,0.000000,0.000000,0.000000,0.000000
10370202.000000,2.266704,-1.191756,-1.734463,-1.465892,-1.177065,1.682619,0.539731,-0.026157,-0.351984,-0.266408,-0.240095,-0.326552,0.374933,0.117667,1.046186,37.908672,24.722092,9.997129,0.434354,2.163497,0.067611,0.000000,0.000000,0.000000,0.000000,0.000000,0.000000
10370203.000000,2.266679,-1.192110,-1.734725,-1.466127,-1.177401,1.682993,0.539848,-0.026629,-0.351613,-0.265496,-0.241300,-0.332859,0.384029,0.116677,1.121564,37.932476,24.674484,9.997129,0.452665,2.131454,0.067611,0.000000,0.000000,0.000000,0.000000,0.000000,0.000000
10370204.000000,2.266645,-1.192466,-1.734984,-1.466358,-1.177725,1.683380,0.539969,-0.026519,-0.357162,-0.259754,-0.235872,-0.329611,0.388831,0.122652,1.292158,37.984051,24.551498,9.949522,0.446256,2.085677,0.015426,0.000000,0.000000,0.000000,0.000000,0.000000,0.000000
10370205.000000,2.266617,-1.192812,-1.735249,-1.466582,-1.178070,1.683772,0.540079,-0.027972,-0.357274,-0.260926,-0.231013,-0.332322,0.389185,0.117322,1.415143,37.908672,24.527695,9.874144,0.470060,2.007858,0.087753,0.000000,0.000000,0.000000,0.000000,0.000000,0.000000
10370206.000000,2.266595,-1.193164,-1.735515,-1.466810,-1.178406,1.684151,0.540195,-0.028541,-0.352746,-0.257232,-0.229306,-0.334444,0.383976,0.117465,1.415143,37.785686,24.476120,9.850340,0.482877,1.930038,0.061202,0.000000,0.000000,0.000000,0.000000,0.000000,0.000000
10370207.000000,2.266573,-1.193511,-1.735771,-1.467031,-1.178741,1.684529,0.540310,-0.026638,-0.351208,-0.256811,-0.227553,-0.331289,0.385242,0.116327,1.415143,37.714275,24.353134,9.751158,0.488370,1.968490,0.061202,0.000000,0.000000,0.000000,0.000000,0.000000,0.000000
10370208.000000,2.266546,-1.193867,-1.736031,-1.467241,-1.179075,1.684902,0.540425,-0.027736,-0.351042,-0.257540,-0.217720,-0.331604,0.381049,0.111127,1.514325,37.591290,24.281723,9.628172,0.440763,2.033492,0.054794,0.000000,0.000000,0.000000,0.000000,0.000000,0.000000
10370209.000000,2.266519,-1.194217,-1.736290,-1.467456,-1.179409,1.685275,0.540541,-0.028478,-0.352367,-0.253778,-0.217737,-0.332644,0.375927,0.112091,1.589704,37.444500,24.158737,9.528990,0.416959,2.053634,0.041976,0.000000,0.000000,0.000000,0.000000,0.000000,0.000000
10370210.000000,2.266493,-1.194555,-1.736544,-1.467667,-1.179746,1.685654,0.540651,-0.027921,-0.351793,-0.252803,-0.216870,-0.333298,0.376303,0.105524,1.641279,37.273907,24.111130,9.453611,0.405057,2.047225,0.094161,0.000000,0.000000,0.000000,0.000000,0.000000,0.000000
10370211.000000,2.266468,-1.194898,-1.736799,-1.467874,-1.180071,1.686029,0.540772,-0.025289,-0.348703,-0.250166,-0.213724,-0.329379,0.377066,0.109152,1.712690,37.127117,24.011948,9.330626,0.381254,2.072860,0.034652,0.000000,0.000000,0.000000,0.000000,0.000000,0.000000
10370212.000000,2.266444,-1.195234,-1.737052,-1.468075,-1.180409,1.686413,0.540887,-0.024958,-0.347956,-0.249500,-0.209416,-0.333289,0.377731,0.104233,1.740461,37.027935,23.936569,9.207640,0.398649,2.060043,0.067611,0.000000,0.000000,0.000000,0.000000,0.000000,0.000000
10370213.000000,2.266426,-1.195580,-1.737314,-1.468271,-1.180753,1.686799,0.541011,-0.022698,-0.344344,-0.255013,-0.203051,-0.331785,0.385162,0.107156,1.688886,36.952557,23.988144,9.033079,0.446256,2.001449,0.028243,0.000000,0.000000,0.000000,0.000000,0.000000,0.000000
10370214.000000,2.266402,-1.195921,-1.737575,-1.468465,-1.181083,1.687188,0.541126,-0.020645,-0.339875,-0.254074,-0.195320,-0.333271,0.390386,0.112790,1.712690,36.928753,23.988144,8.834715,0.440763,1.936446,0.041976,0.000000,0.000000,0.000000,0.000000,0.000000,0.000000
10370215.000000,2.266382,-1.196260,-1.737829,-1.468657,-1.181413,1.687577,0.541240,-0.018140,-0.342298,-0.252602,-0.195488,-0.334246,0.388065,0.116917,1.712690,36.881145,23.936569,8.687925,0.440763,1.890670,0.054794,0.000000,0.000000,0.000000,0.000000,0.000000,0.000000
10370216.000000,2.266368,-1.196594,-1.738085,-1.468840,-1.181753,1.687952,0.541355,-0.015254,-0.337500,-0.249671,-0.196355,-0.336442,0.385663,0.114528,1.665082,36.710552,23.960373,8.489561,0.464567,1.877853,0.081344,0.000000,0.000000,0.000000,0.000000,0.000000,0.000000
10370217.000000,2.266356,-1.196928,-1.738339,-1.469033,-1.182091,1.688336,0.541477,-0.011596,-0.337466,-0.252257,-0.195068,-0.337414,0.386780,0.115110,1.542096,36.535992,23.912766,8.366575,0.452665,1.930038,0.061202,0.000000,0.000000,0.000000,0.000000,0.000000,0.000000
10370218.000000,2.266341,-1.197271,-1.738590,-1.469216,-1.182426,1.688721,0.541595,-0.010069,-0.335903,-0.250470,-0.185872,-0.337172,0.383283,0.115206,1.466718,36.416973,23.841354,8.192015,0.440763,1.962081,0.041976,0.000000,0.000000,0.000000,0.000000,0.000000,0.000000
10370219.000000,2.266331,-1.197596,-1.738848,-1.469395,-1.182755,1.689096,0.541706,-0.008848,-0.333113,-0.253582,-0.183030,-0.341110,0.381117,0.112988,1.367536,36.095623,23.841354,7.993651,0.405057,1.995040,0.087753,0.000000,0.000000,0.000000,0.000000,0.000000,0.000000
10370220.000000,2.266324,-1.197928,-1.739095,-1.469574,-1.183098,1.689488,0.541827,-0.007707,-0.333783,-0.248305,-0.180686,-0.340528,0.384715,0.114675,1.268354,35.877422,23.765976,7.870665,0.393156,1.995040,0.034652,0.000000,0.000000,0.000000,0.000000,0.000000,0.000000
10370221.000000,2.266317,-1.198262,-1.739350,-1.469747,-1.183446,1.689877,0.541946,-0.007217,-0.327070,-0.251129,-0.174857,-0.348095,0.393165,0.113464,1.169172,35.631451,23.690598,7.672301,0.416959,1.909896,0.054794,0.000000,0.000000,0.000000,0.000000,0.000000,0.000000
10370222.000000,2.266313,-1.198592,-1.739606,-1.469924,-1.183782,1.690265,0.542060,-0.006172,-0.332548,-0.251212,-0.172763,-0.341481,0.387394,0.112270,1.046186,35.361675,23.666794,7.549315,0.422452,1.832076,0.087753,0.000000,0.000000,0.000000,0.000000,0.000000,0.000000
10370223.000000,2.266306,-1.198927,-1.739851,-1.470089,-1.184141,1.690648,0.542182,-0.007010,-0.331009,-0.250010,-0.170826,-0.347717,0.384427,0.108970,0.994611,35.167278,23.595383,7.350951,0.494779,1.819259,0.054794,0.000000,0.000000,0.000000,0.000000,0.000000,0.000000
10370224.000000,2.266303,-1.199259,-1.740096,-1.470268,-1.184490,1.691030,0.542291,-0.006702,-0.329929,-0.246954,-0.172866,-0.345661,0.383194,0.108534,0.895429,34.972881,23.448593,7.350951,0.506681,1.800033,0.094161,0.000000,0.000000,0.000000,0.000000,0.000000,0.000000
10370225.000000,2.266303,-1.199593,-1.740339,-1.470441,-1.184839,1.691410,0.542416,-0.003892,-0.331820,-0.242719,-0.171186,-0.344609,0.376383,0.112363,0.697065,34.897503,23.325607,7.303343,0.506681,1.819259,0.028243,0.000000,0.000000,0.000000,0.000000,0.000000,0.000000
10370226.000000,2.266301,-1.199929,-1.740579,-1.470607,-1.185194,1.691793,0.542531,-0.003587,-0.329801,-0.241538,-0.167659,-0.347178,0.376856,0.111146,0.574079,34.849895,23.151047,7.128783,0.494779,1.819259,0.061202,0.000000,0.000000,0.000000,0.000000,0.000000,0.000000
10370227.000000,2.266300,-1.200266,-1.740823,-1.470778,-1.185540,1.692165,0.542644,-0.004151,-0.331967,-0.242289,-0.165892,-0.343253,0.375992,0.111535,0.474897,34.798321,23.055832,7.081175,0.446256,1.865035,0.067611,0.000000,0.000000,0.000000,0.000000,0.000000,0.000000
10370228.000000,2.266305,-1.200605,-1.741060,-1.470947,-1.185891,1.692548,0.542765,0.000200,-0.331009,-0.241887,-0.166879,-0.345271,0.373155,0.112998,0.304304,34.798321,22.905075,7.081175,0.422452,1.819259,0.034652,0.000000,0.000000,0.000000,0.000000,0.000000,0.000000
10370229.000000,2.266307,-1.200941,-1.741298,-1.471115,-1.186236,1.692921,0.542870,-0.000157,-0.331118,-0.238810,-0.165777,-0.343736,0.372882,0.106566,0.153547,34.726910,22.786057,7.057372,0.422452,1.754256,0.081344,0.000000,0.000000,0.000000,0.000000,0.000000,0.000000
10370230.000000,2.266306,-1.201277,-1.741533,-1.471275,-1.186596,1.693304,0.542985,-0.001067,-0.332783,-0.237516,-0.167582,-0.348934,0.374647,0.108214,0.030561,34.703106,22.686874,6.958189,0.440763,1.735030,0.061202,0.000000,0.000000,0.000000,0.000000,0.000000,0.000000
10370231.000000,2.266307,-1.201614,-1.741769,-1.471442,-1.186956,1.693686,0.543099,-0.001568,-0.332556,-0.234357,-0.165140,-0.347699,0.379743,0.109089,-0.092425,34.627728,22.512314,6.934386,0.476469,1.741439,0.067611,0.000000,0.000000,0.000000,0.000000,0.000000,0.000000
10370232.000000,2.266313,-1.201960,-1.742003,-1.471616,-1.187304,1.694064,0.543215,-0.000922,-0.332868,-0.234562,-0.166748,-0.345298,0.380425,0.110723,-0.266986,34.556316,22.317917,7.005797,0.470060,1.702071,0.054794,0.000000,0.000000,0.000000,0.000000,0.000000,0.000000
10370233.000000,2.266310,-1.202305,-1.742229,-1.471786,-1.187651,1.694455,0.543335,-0.000983,-0.334004,-0.231471,-0.166794,-0.352025,0.385206,0.111299,-0.290789,34.651531,22.095749,7.005797,0.452665,1.662704,0.041976,0.000000,0.000000,0.000000,0.000000,0.000000,0.000000
10370234.000000,2.266317,-1.202651,-1.742461,-1.471948,-1.187996,1.694832,0.543444,0.001527,-0.334132,-0.229281,-0.167281,-0.349850,0.387713,0.109635,-0.413775,34.627728,21.877548,7.005797,0.405057,1.670028,0.100570,0.000000,0.000000,0.000000,0.000000,0.000000,0.000000
10370235.000000,2.266326,-1.203003,-1.742695,-1.472118,-1.188349,1.695209,0.543561,0.003467,-0.335282,-0.226447,-0.168941,-0.348001,0.379906,0.112332,-0.540728,34.750713,21.726791,7.005797,0.405057,1.689254,0.054794,0.000000,0.000000,0.000000,0.000000,0.000000,0.000000
10370236.000000,2.266336,-1.203362,-1.742923,-1.472280,-1.188696,1.695598,0.543674,0.006940,-0.345991,-0.227255,-0.167635,-0.350091,0.384076,0.111850,-0.635943,34.897503,21.580002,6.906615,0.398649,1.682845,0.067611,0.000000,0.000000,0.000000,0.000000,0.000000,0.000000
10370237.000000,2.266341,-1.203719,-1.743160,-1.472441,-1.189038,1.695983,0.543791,0.006502,-0.344375,-0.232827,-0.164004,-0.344218,0.384697,0.111814,-0.588336,34.921307,21.532394,6.783629,0.308927,1.649886,0.048385,0.000000,0.000000,0.000000,0.000000,0.000000,0.000000
10370238.000000,2.266351,-1.204077,-1.743391,-1.472605,-1.189396,1.696380,0.543901,0.008084,-0.348093,-0.232375,-0.164052,-0.345108,0.385582,0.116465,-0.612139,35.143475,21.409409,6.736022,0.344633,1.552840,0.061202,0.000000,0.000000,0.000000,0.000000,0.000000,0.000000
10370239.000000,2.266364,-1.204436,-1.743629,-1.472769,-1.189746,1.696768,0.544013,0.010289,-0.349706,-0.233814,-0.160387,-0.344285,0.392064,0.114962,-0.663714,35.238689,21.361801,6.759825,0.356534,1.494247,0.081344,0.000000,0.000000,0.000000,0.000000,0.000000,0.000000
10370240.000000,2.266376,-1.204784,-1.743871,-1.472929,-1.190082,1.697158,0.544121,0.011050,-0.354222,-0.235831,-0.161926,-0.346669,0.388423,0.114326,-0.687518,35.238689,21.361801,6.660643,0.327238,1.481429,0.087753,0.000000,0.000000,0.000000,0.000000,0.000000,0.000000
10370241.000000,2.266387,-1.205148,-1.744102,-1.473090,-1.190445,1.697545,0.544238,0.011619,-0.357379,-0.233833,-0.161883,-0.351056,0.385268,0.115606,-0.711321,35.290264,21.215012,6.585265,0.386747,1.467696,0.041976,0.000000,0.000000,0.000000,0.000000,0.000000,0.000000
10370242.000000,2.266397,-1.205509,-1.744342,-1.473258,-1.190795,1.697917,0.544353,0.008513,-0.352866,-0.231742,-0.160023,-0.348205,0.381107,0.115546,-0.711321,35.314068,21.187241,6.613036,0.393156,1.526290,0.009017,0.000000,0.000000,0.000000,0.000000,0.000000,0.000000
10370243.000000,2.266403,-1.205856,-1.744577,-1.473421,-1.191147,1.698296,0.544459,0.007697,-0.356257,-0.234906,-0.160966,-0.346279,0.380318,0.112182,-0.663714,35.214886,21.139633,6.561461,0.386747,1.546432,0.081344,0.000000,0.000000,0.000000,0.000000,0.000000,0.000000
10370244.000000,2.266410,-1.206211,-1.744813,-1.473576,-1.191503,1.698677,0.544576,0.005126,-0.354326,-0.237721,-0.158496,-0.343295,0.374695,0.113304,-0.635943,35.068096,21.064255,6.462279,0.351041,1.559249,0.061202,0.000000,0.000000,0.000000,0.000000,0.000000,0.000000
10370245.000000,2.266427,-1.206556,-1.745063,-1.473736,-1.191853,1.699050,0.544690,0.009273,-0.357190,-0.237024,-0.157539,-0.342132,0.378077,0.113178,-0.735125,34.921307,21.139633,6.363097,0.344633,1.513473,0.067611,0.000000,0.000000,0.000000,0.000000,0.000000,0.000000
10370246.000000,2.266435,-1.206915,-1.745304,-1.473903,-1.192206,1.699429,0.544800,0.009243,-0.356843,-0.237724,-0.159957,-0.341164,0.373894,0.112459,-0.711321,34.826092,21.139633,6.339293,0.351041,1.474105,0.081344,0.000000,0.000000,0.000000,0.000000,0.000000,0.000000
10370247.000000,2.266437,-1.207273,-1.745547,-1.474065,-1.192552,1.699795,0.544919,0.004554,-0.352944,-0.237696,-0.157957,-0.344690,0.370111,0.114467,-0.612139,34.849895,21.139633,6.339293,0.332731,1.487838,0.034652,0.000000,0.000000,0.000000,0.000000,0.000000,0.000000
10370248.000000,2.266445,-1.207643,-1.745802,-1.474221,-1.192911,1.700158,0.545026,0.006004,-0.357103,-0.240875,-0.155146,-0.349163,0.361355,0.111389,-0.588336,35.020489,21.262619,6.291686,0.332731,1.513473,0.107894,0.000000,0.000000,0.000000,0.000000,0.000000,0.000000
10370249.000000,2.266457,-1.208007,-1.746044,-1.474373,-1.193276,1.700526,0.545150,0.007698,-0.355279,-0.240919,-0.151421,-0.349388,0.361180,0.114073,-0.588336,35.143475,21.286423,6.216307,0.410551,1.539108,0.028243,0.000000,0.000000,0.000000,0.000000,0.000000,0.000000
10370250.000000,2.266465,-1.208376,-1.746296,-1.474529,-1.193623,1.700890,0.545263,0.008972,-0.358570,-0.239560,-0.154751,-0.346142,0.359688,0.114143,-0.588336,35.214886,21.409409,6.216307,0.398649,1.565658,0.015426,0.000000,0.000000,0.000000,0.000000,0.000000,0.000000
10370251.000000,2.266467,-1.208739,-1.746547,-1.474687,-1.193984,1.701259,0.545368,0.007801,-0.356965,-0.244067,-0.156779,-0.348531,0.359827,0.111729,-0.512957,35.361675,21.484787,6.164732,0.386747,1.559249,0.067611,0.000000,0.000000,0.000000,0.000000,0.000000,0.000000
10370252.000000,2.266476,-1.209097,-1.746805,-1.474844,-1.194343,1.701625,0.545484,0.009371,-0.358728,-0.249128,-0.156675,-0.359708,0.372768,0.112717,-0.512957,35.413250,21.631577,6.216307,0.428861,1.526290,0.048385,0.000000,0.000000,0.000000,0.000000,0.000000,0.000000
10370253.000000,2.266485,-1.209449,-1.747074,-1.475001,-1.194697,1.701996,0.545597,0.009414,-0.357414,-0.255318,-0.155330,-0.359639,0.369855,0.112385,-0.489153,35.314068,21.877548,6.240111,0.422452,1.513473,0.061202,0.000000,0.000000,0.000000,0.000000,0.000000,0.000000
10370254.000000,2.266491,-1.209808,-1.747334,-1.475154,-1.195056,1.702360,0.545717,0.007958,-0.358563,-0.259816,-0.149425,-0.364165,0.366305,0.113147,-0.389971,35.290264,22.000534,6.240111,0.434354,1.539108,0.041976,0.000000,0.000000,0.000000,0.000000,0.000000,0.000000
10370255.000000,2.266491,-1.210167,-1.747601,-1.475306,-1.195411,1.702706,0.545829,0.006669,-0.356083,-0.256262,-0.153028,-0.362129,0.361425,0.111641,-0.266986,35.119671,22.119553,6.240111,0.422452,1.624252,0.081344,0.000000,0.000000,0.000000,0.000000,0.000000,0.000000
10370256.000000,2.266497,-1.210521,-1.747863,-1.475478,-1.195768,1.703060,0.545946,0.008990,-0.349872,-0.256566,-0.158060,-0.357772,0.357332,0.113345,-0.290789,35.020489,22.218735,6.438475,0.446256,1.714889,0.034652,0.000000,0.000000,0.000000,0.000000,0.000000,0.000000
10370257.000000,2.266497,-1.210885,-1.748126,-1.475632,-1.196119,1.703421,0.546062,0.007394,-0.351088,-0.259167,-0.155193,-0.356208,0.364049,0.113725,-0.167803,34.945110,22.270309,6.462279,0.410551,1.714889,0.021835,0.000000,0.000000,0.000000,0.000000,0.000000,0.000000
10370258.000000,2.266493,-1.211244,-1.748396,-1.475794,-1.196478,1.703778,0.546171,0.002418,-0.359626,-0.259040,-0.159589,-0.360549,0.362788,0.111797,-0.017047,34.849895,22.365524,6.585265,0.386747,1.721298,0.067611,0.000000,0.000000,0.000000,0.000000,0.000000,0.000000
10370259.000000,2.266499,-1.211616,-1.748660,-1.475946,-1.196842,1.704128,0.546284,0.003486,-0.363855,-0.261783,-0.160631,-0.360748,0.359879,0.112414,0.054365,34.826092,22.440903,6.561461,0.422452,1.767074,0.054794,0.000000,0.000000,0.000000,0.000000,0.000000,0.000000
10370260.000000,2.266500,-1.211991,-1.748932,-1.476101,-1.197194,1.704474,0.546396,0.003868,-0.361808,-0.268489,-0.158443,-0.354830,0.354657,0.112332,0.153547,34.873699,22.611496,6.585265,0.410551,1.786300,0.048385,0.000000,0.000000,0.000000,0.000000,0.000000,0.000000
10370261.000000,2.266505,-1.212355,-1.749205,-1.476256,-1.197560,1.704829,0.546511,0.004983,-0.365990,-0.269986,-0.160659,-0.362250,0.354028,0.113035,0.205121,34.873699,22.734482,6.585265,0.434354,1.741439,0.034652,0.000000,0.000000,0.000000,0.000000,0.000000,0.000000
10370262.000000,2.266509,-1.212723,-1.749469,-1.476405,-1.197928,1.705176,0.546621,0.003081,-0.363965,-0.268968,-0.155027,-0.362515,0.353059,0.112565,0.252729,34.826092,22.786057,6.513854,0.470060,1.676437,0.048385,0.000000,0.000000,0.000000,0.000000,0.000000,0.000000
10370263.000000,2.266512,-1.213102,-1.749743,-1.476564,-1.198287,1.705516,0.546732,0.004242,-0.370787,-0.270304,-0.157878,-0.361364,0.352766,0.113014,0.328107,34.972881,22.932846,6.561461,0.476469,1.741439,0.041976,0.000000,0.000000,0.000000,0.000000,0.000000,0.000000
10370264.000000,2.266517,-1.213480,-1.750014,-1.476716,-1.198651,1.705858,0.546842,0.004824,-0.371574,-0.270260,-0.157045,-0.360555,0.346752,0.112657,0.403486,35.091900,23.028061,6.561461,0.494779,1.800033,0.048385,0.000000,0.000000,0.000000,0.000000,0.000000,0.000000
10370265.000000,2.266517,-1.213857,-1.750281,-1.476860,-1.199017,1.706201,0.546955,0.001720,-0.369038,-0.268465,-0.153730,-0.359384,0.344959,0.112655,0.502668,35.238689,23.055832,6.486083,0.482877,1.806442,0.054794,0.000000,0.000000,0.000000,0.000000,0.000000,0.000000
10370266.000000,2.266519,-1.214237,-1.750550,-1.477019,-1.199381,1.706551,0.547070,0.000094,-0.373321,-0.265029,-0.157808,-0.364784,0.349580,0.113733,0.574079,35.361675,23.103439,6.561461,0.476469,1.779891,0.021835,0.000000,0.000000,0.000000,0.000000,0.000000,0.000000
10370267.000000,2.266520,-1.214612,-1.750822,-1.477176,-1.199742,1.706893,0.547174,0.001586,-0.370391,-0.266249,-0.156348,-0.362756,0.344946,0.111305,0.649457,35.361675,23.174850,6.636839,0.476469,1.844894,0.074935,0.000000,0.000000,0.000000,0.000000,0.000000,0.000000
10370268.000000,2.266517,-1.214990,-1.751090,-1.477332,-1.200108,1.707231,0.547290,-0.000680,-0.372409,-0.265493,-0.155801,-0.364920,0.342103,0.108872,0.748639,35.266460,23.202621,6.684447,0.440763,1.890670,0.028243,0.000000,0.000000,0.000000,0.000000,0.000000,0.000000
10370269.000000,2.266519,-1.215360,-1.751357,-1.477483,-1.200480,1.707581,0.547397,-0.000573,-0.366059,-0.266120,-0.155293,-0.368338,0.349236,0.108409,0.772443,35.214886,23.250229,6.684447,0.434354,1.819259,0.054794,0.000000,0.000000,0.000000,0.000000,0.000000,0.000000
10370270.000000,2.266522,-1.215744,-1.751626,-1.477638,-1.200841,1.707931,0.547502,-0.000054,-0.370734,-0.265532,-0.157589,-0.368808,0.355301,0.104138,0.772443,35.214886,23.250229,6.783629,0.440763,1.793624,0.074935,0.000000,0.000000,0.000000,0.000000,0.000000,0.000000
10370271.000000,2.266513,-1.216120,-1.751889,-1.477790,-1.201213,1.708280,0.547615,-0.000228,-0.371900,-0.266038,-0.158812,-0.371030,0.350995,0.102986,0.923200,35.191082,23.151047,6.807433,0.428861,1.844894,0.041976,0.000000,0.000000,0.000000,0.000000,0.000000,0.000000
10370272.000000,2.266510,-1.216499,-1.752149,-1.477952,-1.201590,1.708627,0.547717,-0.001381,-0.374785,-0.264180,-0.158784,-0.368257,0.346559,0.103522,0.994611,35.119671,23.079636,6.958189,0.458158,1.890670,0.087753,0.000000,0.000000,0.000000,0.000000,0.000000,0.000000
10370273.000000,2.266518,-1.216881,-1.752415,-1.478110,-1.201954,1.708977,0.547831,0.001731,-0.373849,-0.265682,-0.158115,-0.365882,0.351977,0.107607,0.895429,35.068096,23.028061,7.029601,0.464567,1.865035,0.015426,0.000000,0.000000,0.000000,0.000000,0.000000,0.000000
10370274.000000,2.266518,-1.217252,-1.752667,-1.478264,-1.202323,1.709338,0.547937,0.001959,-0.374723,-0.262712,-0.156350,-0.370766,0.350167,0.109162,0.871625,35.068096,22.905075,7.005797,0.500272,1.819259,0.009017,0.000000,0.000000,0.000000,0.000000,0.000000,0.000000
10370275.000000,2.266516,-1.217644,-1.752930,-1.478410,-1.202694,1.709687,0.548038,0.000936,-0.377779,-0.261083,-0.149124,-0.370618,0.348844,0.107611,0.895429,35.214886,22.932846,6.958189,0.452665,1.812850,0.074935,0.000000,0.000000,0.000000,0.000000,0.000000,0.000000
10370276.000000,2.266519,-1.218027,-1.753191,-1.478571,-1.203064,1.710039,0.548145,0.001320,-0.390447,-0.260466,-0.152030,-0.372219,0.351243,0.108226,0.871625,35.337872,22.857468,7.081175,0.458158,1.819259,0.100570,0.000000,0.000000,0.000000,0.000000,0.000000,0.000000
10370277.000000,2.266523,-1.218420,-1.753447,-1.478719,-1.203429,1.710401,0.548264,0.002099,-0.389276,-0.259426,-0.153960,-0.371310,0.354390,0.107611,0.824018,35.460857,22.881271,7.005797,0.422452,1.773483,0.021835,0.000000,0.000000,0.000000,0.000000,0.000000,0.000000
10370278.000000,2.266528,-1.218813,-1.753704,-1.478878,-1.203800,1.710761,0.548374,0.002127,-0.386593,-0.259012,-0.154323,-0.375873,0.357592,0.108251,0.796247,35.655254,22.833664,7.057372,0.381254,1.708480,0.021835,0.000000,0.000000,0.000000,0.000000,0.000000,0.000000
10370279.000000,2.266527,-1.219203,-1.753957,-1.479032,-1.204182,1.711119,0.548476,0.000271,-0.389029,-0.259848,-0.153523,-0.378873,0.355083,0.106732,0.847822,35.754436,22.786057,7.081175,0.422452,1.670028,0.094161,0.000000,0.000000,0.000000,0.000000,0.000000,0.000000
10370280.000000,2.266532,-1.219600,-1.754216,-1.479192,-1.204548,1.711475,0.548592,0.003230,-0.388326,-0.258161,-0.156741,-0.367983,0.358951,0.110478,0.847822,35.901226,22.786057,7.255736,0.398649,1.714889,0.041976,0.000000,0.000000,0.000000,0.000000,0.000000,0.000000
10370281.000000,2.266528,-1.220003,-1.754472,-1.479345,-1.204922,1.711818,0.548701,-0.000997,-0.393510,-0.255735,-0.153513,-0.376306,0.353785,0.110455,0.994611,36.000408,22.758286,7.350951,0.440763,1.779891,0.061202,0.000000,0.000000,0.000000,0.000000,0.000000,0.000000
10370282.000000,2.266533,-1.220388,-1.754718,-1.479501,-1.205306,1.712170,0.548812,0.001112,-0.388977,-0.252540,-0.155079,-0.373515,0.354798,0.111584,1.046186,36.024212,22.663071,7.426329,0.494779,1.767074,0.048385,0.000000,0.000000,0.000000,0.000000,0.000000,0.000000
10370283.000000,2.266542,-1.220766,-1.754979,-1.479658,-1.205673,1.712511,0.548922,0.004194,-0.383356,-0.253008,-0.155919,-0.380527,0.350091,0.111707,1.046186,35.829815,22.686874,7.525511,0.476469,1.760665,0.054794,0.000000,0.000000,0.000000,0.000000,0.000000,0.000000
10370284.000000,2.266550,-1.221139,-1.755237,-1.479810,-1.206048,1.712863,0.549025,0.006073,-0.378695,-0.252723,-0.151231,-0.380380,0.351033,0.107141,1.069990,35.706829,22.686874,7.549315,0.470060,1.793624,0.061202,0.000000,0.000000,0.000000,0.000000,0.000000,0.000000
10370285.000000,2.266556,-1.221527,-1.755494,-1.479962,-1.206422,1.713219,0.549137,0.006560,-0.381202,-0.253302,-0.147390,-0.376970,0.353753,0.108929,1.121564,35.683025,22.710678,7.600890,0.410551,1.793624,0.028243,0.000000,0.000000,0.000000,0.000000,0.000000,0.000000
10370286.000000,2.266563,-1.221919,-1.755748,-1.480116,-1.206789,1.713568,0.549242,0.004583,-0.379533,-0.252986,-0.146923,-0.371266,0.356444,0.108502,1.145368,35.778240,22.611496,7.700072,0.381254,1.754256,0.067611,0.000000,0.000000,0.000000,0.000000,0.000000,0.000000
10370287.000000,2.266571,-1.222297,-1.756011,-1.480269,-1.207154,1.713919,0.549355,0.006058,-0.382233,-0.255229,-0.149717,-0.374047,0.352258,0.110644,1.169172,35.778240,22.710678,7.747679,0.405057,1.767074,0.041976,0.000000,0.000000,0.000000,0.000000,0.000000,0.000000
10370288.000000,2.266581,-1.222678,-1.756270,-1.480420,-1.207527,1.714265,0.549463,0.008128,-0.381015,-0.254929,-0.150202,-0.382877,0.346055,0.105447,1.169172,35.683025,22.734482,7.771483,0.428861,1.806442,0.061202,0.000000,0.000000,0.000000,0.000000,0.000000,0.000000
10370289.000000,2.266590,-1.223054,-1.756530,-1.480579,-1.207898,1.714616,0.549575,0.006770,-0.384126,-0.255631,-0.152822,-0.377453,0.346410,0.108154,1.145368,35.583843,22.663071,7.898436,0.440763,1.800033,0.041976,0.000000,0.000000,0.000000,0.000000,0.000000,0.000000
10370290.000000,2.266600,-1.223430,-1.756787,-1.480728,-1.208269,1.714958,0.549685,0.009325,-0.380958,-0.254263,-0.151826,-0.373635,0.348927,0.110021,1.093793,35.385479,22.635300,7.946043,0.482877,1.812850,0.015426,0.000000,0.000000,0.000000,0.000000,0.000000,0.000000
10370291.000000,2.266607,-1.223803,-1.757050,-1.480879,-1.208641,1.715306,0.549784,0.012608,-0.377655,-0.253249,-0.148504,-0.374943,0.350795,0.108430,1.121564,35.143475,22.635300,7.969847,0.494779,1.838485,0.081344,0.000000,0.000000,0.000000,0.000000,0.000000,0.000000
10370292.000000,2.266616,-1.224172,-1.757313,-1.481023,-1.209016,1.715659,0.549894,0.012258,-0.377833,-0.263913,-0.146002,-0.375732,0.347590,0.110698,1.121564,34.849895,22.635300,7.946043,0.476469,1.844894,0.041976,0.000000,0.000000,0.000000,0.000000,0.000000,0.000000
10370293.000000,2.266628,-1.224545,-1.757568,-1.481165,-1.209382,1.716011,0.550000,0.013137,-0.378344,-0.262436,-0.145264,-0.369634,0.346916,0.105890,1.093793,34.603924,22.563889,7.922240,0.428861,1.838485,0.061202,0.000000,0.000000,0.000000,0.000000,0.000000,0.000000
10370294.000000,2.266641,-1.224918,-1.757828,-1.481314,-1.209744,1.716364,0.550114,0.010912,-0.382553,-0.260922,-0.145716,-0.369896,0.350841,0.105320,1.046186,34.310345,22.611496,7.898436,0.386747,1.812850,0.001693,0.000000,0.000000,0.000000,0.000000,0.000000,0.000000
10370295.000000,2.266652,-1.225279,-1.758079,-1.481449,-1.210123,1.716713,0.550215,0.011394,-0.376683,-0.260074,-0.141255,-0.370921,0.347948,0.099789,1.022382,34.064373,22.540085,7.747679,0.369352,1.819259,0.067611,0.000000,0.000000,0.000000,0.000000,0.000000,0.000000
10370296.000000,2.266663,-1.225662,-1.758331,-1.481591,-1.210496,1.717051,0.550324,0.012113,-0.376895,-0.256212,-0.142775,-0.373433,0.344053,0.104032,0.994611,34.040569,22.488510,7.700072,0.398649,1.865035,0.048385,0.000000,0.000000,0.000000,0.000000,0.000000,0.000000
10370297.000000,2.266677,-1.226036,-1.758584,-1.481729,-1.210874,1.717385,0.550425,0.012255,-0.375538,-0.260782,-0.143023,-0.377610,0.339250,0.105880,0.970807,34.064373,22.512314,7.624693,0.446256,1.877853,0.061202,0.000000,0.000000,0.000000,0.000000,0.000000,0.000000
10370298.000000,2.266683,-1.226426,-1.758843,-1.481859,-1.211262,1.717732,0.550537,0.007844,-0.377958,-0.262292,-0.135503,-0.383131,0.345144,0.107768,1.022382,34.139751,22.540085,7.477904,0.488370,1.858627,0.054794,0.000000,0.000000,0.000000,0.000000,0.000000,0.000000
10370299.000000,2.266700,-1.226810,-1.759100,-1.481994,-1.211647,1.718073,0.550652,0.011505,-0.377784,-0.257349,-0.134096,-0.384658,0.347821,0.110640,0.923200,34.262737,22.587692,7.378722,0.566190,1.786300,0.015426,0.000000,0.000000,0.000000,0.000000,0.000000,0.000000
10370300.000000,2.266714,-1.227193,-1.759352,-1.482136,-1.212019,1.718419,0.550755,0.014870,-0.379619,-0.260172,-0.135917,-0.381558,0.343264,0.108827,0.895429,34.357952,22.635300,7.350951,0.535978,1.708480,0.074935,0.000000,0.000000,0.000000,0.000000,0.000000,0.000000
10370301.000000,2.266724,-1.227572,-1.759609,-1.482269,-1.212397,1.718750,0.550866,0.014022,-0.374728,-0.261697,-0.135903,-0.386647,0.341862,0.111116,0.895429,34.357952,22.663071,7.303343,0.512174,1.727706,0.048385,0.000000,0.000000,0.000000,0.000000,0.000000,0.000000
10370302.000000,2.266740,-1.227954,-1.759860,-1.482401,-1.212777,1.719082,0.550978,0.017647,-0.375117,-0.256762,-0.132295,-0.383665,0.338220,0.112857,0.871625,34.357952,22.563889,7.255736,0.488370,1.806442,0.015426,0.000000,0.000000,0.000000,0.000000,0.000000,0.000000
10370303.000000,2.266751,-1.228344,-1.760116,-1.482532,-1.213154,1.719421,0.551082,0.015901,-0.374356,-0.259576,-0.128786,-0.381068,0.333174,0.110378,0.871625,34.433331,22.587692,7.227965,0.464567,1.825668,0.074935,0.000000,0.000000,0.000000,0.000000,0.000000,0.000000
10370304.000000,2.266767,-1.228731,-1.760365,-1.482661,-1.213525,1.719746,0.551199,0.016293,-0.377670,-0.257386,-0.131350,-0.378578,0.329395,0.111219,0.824018,34.433331,22.464706,7.227965,0.422452,1.851302,0.041976,0.000000,0.000000,0.000000,0.000000,0.000000,0.000000
10370305.000000,2.266778,-1.229109,-1.760616,-1.482792,-1.213903,1.720079,0.551301,0.014547,-0.376330,-0.254731,-0.131048,-0.379096,0.331399,0.109631,0.847822,34.385723,22.393295,7.227965,0.416959,1.877853,0.094161,0.000000,0.000000,0.000000,0.000000,0.000000,0.000000
10370306.000000,2.266794,-1.229497,-1.760868,-1.482922,-1.214271,1.720416,0.551420,0.015677,-0.378722,-0.253285,-0.133127,-0.380867,0.338337,0.112872,0.772443,34.385723,22.341721,7.227965,0.410551,1.832076,0.034652,0.000000,0.000000,0.000000,0.000000,0.000000,0.000000
10370307.000000,2.266806,-1.229884,-1.761122,-1.483050,-1.214640,1.720770,0.551529,0.014866,-0.387424,-0.252967,-0.130522,-0.381337,0.349076,0.113013,0.772443,34.457134,22.317917,7.204161,0.440763,1.721298,0.028243,0.000000,0.000000,0.000000,0.000000,0.000000,0.000000
10370308.000000,2.266822,-1.230281,-1.761377,-1.483172,-1.215020,1.721114,0.551634,0.017920,-0.389168,-0.256693,-0.126756,-0.380287,0.347597,0.110343,0.724836,34.651531,22.341721,7.156554,0.464567,1.682845,0.094161,0.000000,0.000000,0.000000,0.000000,0.000000,0.000000
10370309.000000,2.266836,-1.230689,-1.761630,-1.483292,-1.215394,1.721454,0.551754,0.016774,-0.393548,-0.255136,-0.124841,-0.375524,0.344902,0.116875,0.697065,34.849895,22.341721,7.081175,0.482877,1.721298,0.048385,0.000000,0.000000,0.000000,0.000000,0.000000,0.000000
10370310.000000,2.266860,-1.231092,-1.761877,-1.483411,-1.215763,1.721793,0.551867,0.021037,-0.397028,-0.253524,-0.122032,-0.375524,0.341165,0.111813,0.574079,35.068096,22.294113,7.029601,0.446256,1.767074,0.034652,0.000000,0.000000,0.000000,0.000000,0.000000,0.000000
10370311.000000,2.266877,-1.231503,-1.762133,-1.483524,-1.216147,1.722139,0.551978,0.019396,-0.401610,-0.256517,-0.119505,-0.375061,0.342731,0.110595,0.550275,35.290264,22.294113,6.934386,0.422452,1.735030,0.054794,0.000000,0.000000,0.000000,0.000000,0.000000,0.000000
10370312.000000,2.266902,-1.231912,-1.762392,-1.483638,-1.216514,1.722481,0.552087,0.019870,-0.401882,-0.256804,-0.115138,-0.373914,0.343214,0.111331,0.451093,35.484661,22.365524,6.807433,0.381254,1.695663,0.054794,0.000000,0.000000,0.000000,0.000000,0.000000,0.000000
10370313.000000,2.266925,-1.232314,-1.762644,-1.483760,-1.216882,1.722832,0.552194,0.019629,-0.402348,-0.256650,-0.119367,-0.368157,0.341069,0.106171,0.351911,35.560040,22.417099,6.807433,0.332731,1.702071,0.074935,0.000000,0.000000,0.000000,0.000000,0.000000,0.000000
10370314.000000,2.266947,-1.232723,-1.762901,-1.483870,-1.217264,1.723179,0.552312,0.018678,-0.402705,-0.255978,-0.116348,-0.376796,0.341697,0.110746,0.304304,35.655254,22.464706,6.736022,0.381254,1.676437,0.001693,0.000000,0.000000,0.000000,0.000000,0.000000,0.000000
10370315.000000,2.266975,-1.233129,-1.763159,-1.483981,-1.217650,1.723519,0.552412,0.022886,-0.403306,-0.252814,-0.115025,-0.380541,0.343037,0.108782,0.177350,35.706829,22.512314,6.708251,0.446256,1.662704,0.067611,0.000000,0.000000,0.000000,0.000000,0.000000,0.000000
10370316.000000,2.267001,-1.233538,-1.763417,-1.484090,-1.218027,1.723872,0.552518,0.024107,-0.401566,-0.254773,-0.113876,-0.375127,0.347618,0.109781,0.105939,35.802044,22.611496,6.660643,0.464567,1.637069,0.067611,0.000000,0.000000,0.000000,0.000000,0.000000,0.000000
10370317.000000,2.267025,-1.233954,-1.763669,-1.484197,-1.218409,1.724208,0.552620,0.021867,-0.404054,-0.256512,-0.109523,-0.381798,0.346819,0.105041,0.054365,35.925030,22.611496,6.613036,0.506681,1.637069,0.094161,0.000000,0.000000,0.000000,0.000000,0.000000,0.000000
10370318.000000,2.267055,-1.234357,-1.763929,-1.484310,-1.218794,1.724542,0.552733,0.024609,-0.404920,-0.257558,-0.112133,-0.380475,0.343586,0.104669,-0.068621,36.000408,22.710678,6.636839,0.506681,1.662704,0.034652,0.000000,0.000000,0.000000,0.000000,0.000000,0.000000
10370319.000000,2.267088,-1.234778,-1.764190,-1.484412,-1.219167,1.724874,0.552840,0.027158,-0.407010,-0.258003,-0.110167,-0.385008,0.336294,0.106515,-0.191607,36.194805,22.809860,6.537657,0.470060,1.662704,0.041976,0.000000,0.000000,0.000000,0.000000,0.000000,0.000000
10370320.000000,2.267114,-1.235184,-1.764449,-1.484529,-1.219540,1.725211,0.552942,0.027100,-0.406031,-0.260147,-0.112766,-0.381463,0.340702,0.101812,-0.243182,36.365398,22.857468,6.613036,0.416959,1.702071,0.087753,0.000000,0.000000,0.000000,0.000000,0.000000,0.000000
10370321.000000,2.267149,-1.235593,-1.764711,-1.484632,-1.219919,1.725549,0.553055,0.028923,-0.405446,-0.260843,-0.110547,-0.382942,0.338869,0.105372,-0.389971,36.416973,22.980453,6.585265,0.362943,1.747848,0.048385,0.000000,0.000000,0.000000,0.000000,0.000000,0.000000
10370322.000000,2.267182,-1.235996,-1.764971,-1.484743,-1.220300,1.725883,0.553161,0.026456,-0.402652,-0.262422,-0.109380,-0.383253,0.335386,0.106073,-0.489153,36.365398,23.055832,6.636839,0.398649,1.727706,0.081344,0.000000,0.000000,0.000000,0.000000,0.000000,0.000000
10370323.000000,2.267213,-1.236398,-1.765237,-1.484855,-1.220681,1.726222,0.553273,0.025994,-0.401130,-0.262017,-0.112265,-0.383314,0.335900,0.104713,-0.540728,36.317791,23.174850,6.684447,0.416959,1.721298,0.041976,0.000000,0.000000,0.000000,0.000000,0.000000,0.000000
10370324.000000,2.267246,-1.236801,-1.765506,-1.484963,-1.221073,1.726553,0.553375,0.028064,-0.395203,-0.264421,-0.109723,-0.387530,0.333001,0.100319,-0.635943,36.242413,23.274033,6.708251,0.458158,1.708480,0.074935,0.000000,0.000000,0.000000,0.000000,0.000000,0.000000
10370325.000000,2.267281,-1.237206,-1.765775,-1.485063,-1.221460,1.726889,0.553477,0.032472,-0.405790,-0.263691,-0.109173,-0.388523,0.332151,0.103649,-0.735125,36.194805,23.397018,6.660643,0.554288,1.689254,0.074935,0.000000,0.000000,0.000000,0.000000,0.000000,0.000000
10370326.000000,2.267316,-1.237617,-1.766036,-1.485173,-1.221830,1.727209,0.553586,0.031483,-0.408027,-0.261395,-0.112247,-0.386898,0.327235,0.102757,-0.810504,36.194805,23.448593,6.708251,0.488370,1.735030,0.034652,0.000000,0.000000,0.000000,0.000000,0.000000,0.000000
10370327.000000,2.267346,-1.238034,-1.766293,-1.485288,-1.222210,1.727530,0.553682,0.032272,-0.408670,-0.259458,-0.116118,-0.387434,0.327432,0.102656,-0.810504,36.147198,23.373215,6.736022,0.446256,1.832076,0.087753,0.000000,0.000000,0.000000,0.000000,0.000000,0.000000
10370328.000000,2.267382,-1.238439,-1.766555,-1.485396,-1.222596,1.727858,0.553788,0.034569,-0.407563,-0.266347,-0.111337,-0.385154,0.324728,0.101657,-0.909686,36.147198,23.420822,6.708251,0.410551,1.865035,0.048385,0.000000,0.000000,0.000000,0.000000,0.000000,0.000000
10370329.000000,2.267416,-1.238856,-1.766817,-1.485500,-1.222984,1.728197,0.553889,0.035312,-0.409593,-0.263611,-0.108698,-0.382051,0.332081,0.098752,-0.961260,36.194805,23.472397,6.708251,0.374845,1.819259,0.074935,0.000000,0.000000,0.000000,0.000000,0.000000,0.000000
10370330.000000,2.267450,-1.239277,-1.767085,-1.485611,-1.223379,1.728526,0.553987,0.036495,-0.410876,-0.265085,-0.110739,-0.385923,0.335147,0.097494,-0.985064,36.317791,23.543808,6.759825,0.386747,1.793624,0.081344,0.000000,0.000000,0.000000,0.000000,0.000000,0.000000
10370331.000000,2.267485,-1.239693,-1.767350,-1.485714,-1.223779,1.728859,0.554095,0.036523,-0.412926,-0.267096,-0.106788,-0.390300,0.331811,0.098295,-1.032672,36.389202,23.642990,6.708251,0.428861,1.806442,0.034652,0.000000,0.000000,0.000000,0.000000,0.000000,0.000000
10370332.000000,2.267520,-1.240107,-1.767609,-1.485817,-1.224172,1.729191,0.554193,0.037935,-0.411706,-0.262477,-0.105295,-0.395799,0.331158,0.104500,-1.084246,36.488384,23.642990,6.708251,0.476469,1.754256,0.094161,0.000000,0.000000,0.000000,0.000000,0.000000,0.000000
10370333.000000,2.267552,-1.240521,-1.767876,-1.485919,-1.224578,1.729522,0.554299,0.037766,-0.412974,-0.265063,-0.105899,-0.403097,0.331199,0.108074,-1.084246,36.512188,23.742172,6.660643,0.518583,1.708480,0.061202,0.000000,0.000000,0.000000,0.000000,0.000000,0.000000
10370334.000000,2.267586,-1.240938,-1.768131,-1.486024,-1.224983,1.729850,0.554404,0.036728,-0.412975,-0.259579,-0.107729,-0.397084,0.332955,0.109375,-1.084246,36.512188,23.666794,6.660643,0.547880,1.721298,0.054794,0.000000,0.000000,0.000000,0.000000,0.000000,0.000000
10370335.000000,2.267619,-1.241359,-1.768387,-1.486135,-1.225371,1.730176,0.554511,0.033756,-0.415070,-0.258141,-0.107010,-0.396056,0.333543,0.106350,-1.084246,36.440777,23.567612,6.708251,0.530485,1.754256,0.034652,0.000000,0.000000,0.000000,0.000000,0.000000,0.000000
10370336.000000,2.267659,-1.241767,-1.768644,-1.486245,-1.225763,1.730507,0.554610,0.035511,-0.413971,-0.261954,-0.105950,-0.394617,0.334696,0.102315,-1.159625,36.389202,23.520004,6.736022,0.470060,1.754256,0.061202,0.000000,0.000000,0.000000,0.000000,0.000000,0.000000
10370337.000000,2.267686,-1.242189,-1.768903,-1.486349,-1.226156,1.730826,0.554709,0.030773,-0.416467,-0.260459,-0.104525,-0.401291,0.323229,0.104190,-1.084246,36.389202,23.420822,6.736022,0.452665,1.773483,0.087753,0.000000,0.000000,0.000000,0.000000,0.000000,0.000000
10370338.000000,2.267717,-1.242604,-1.769159,-1.486456,-1.226545,1.731154,0.554812,0.031839,-0.416585,-0.260174,-0.103856,-0.395977,0.322009,0.107299,-1.060443,36.416973,23.349411,6.759825,0.446256,1.793624,0.067611,0.000000,0.000000,0.000000,0.000000,0.000000,0.000000
10370339.000000,2.267743,-1.243022,-1.769409,-1.486559,-1.226936,1.731490,0.554913,0.027964,-0.411577,-0.259372,-0.102945,-0.395286,0.323260,0.102875,-0.985064,36.365398,23.250229,6.759825,0.434354,1.747848,0.094161,0.000000,0.000000,0.000000,0.000000,0.000000,0.000000
10370340.000000,2.267770,-1.243437,-1.769664,-1.486666,-1.227335,1.731817,0.555019,0.028944,-0.415415,-0.257681,-0.102986,-0.397599,0.324478,0.106023,-0.909686,36.365398,23.127243,6.783629,0.488370,1.695663,0.054794,0.000000,0.000000,0.000000,0.000000,0.000000,0.000000
10370341.000000,2.267799,-1.243860,-1.769916,-1.486769,-1.227723,1.732144,0.555109,0.028790,-0.419377,-0.256092,-0.101648,-0.396511,0.320558,0.105334,-0.834307,36.535992,23.103439,6.759825,0.440763,1.649886,0.120712,0.000000,0.000000,0.000000,0.000000,0.000000,0.000000
10370342.000000,2.267823,-1.244285,-1.770173,-1.486876,-1.228120,1.732467,0.555218,0.029242,-0.423606,-0.254729,-0.105640,-0.397013,0.323579,0.110320,-0.735125,36.682781,23.079636,6.807433,0.452665,1.689254,0.041976,0.000000,0.000000,0.000000,0.000000,0.000000,0.000000
10370343.000000,2.267845,-1.244708,-1.770431,-1.486988,-1.228512,1.732799,0.555316,0.025824,-0.431363,-0.252218,-0.105748,-0.392057,0.323124,0.105395,-0.612139,36.833538,23.004257,6.882811,0.458158,1.721298,0.034652,0.000000,0.000000,0.000000,0.000000,0.000000,0.000000
10370344.000000,2.267872,-1.245128,-1.770687,-1.487097,-1.228901,1.733133,0.555412,0.026753,-0.431376,-0.253731,-0.105957,-0.388077,0.322822,0.104795,-0.540728,36.904949,23.055832,6.981993,0.458158,1.708480,0.094161,0.000000,0.000000,0.000000,0.000000,0.000000,0.000000
10370345.000000,2.267897,-1.245551,-1.770936,-1.487199,-1.229283,1.733467,0.555521,0.024970,-0.426293,-0.247948,-0.103695,-0.384927,0.328946,0.107876,-0.465350,36.904949,22.980453,6.958189,0.452665,1.689254,0.054794,0.000000,0.000000,0.000000,0.000000,0.000000,0.000000
10370346.000000,2.267919,-1.245973,-1.771188,-1.487303,-1.229672,1.733805,0.555622,0.022615,-0.430173,-0.250212,-0.106797,-0.386717,0.330065,0.102943,-0.342364,36.928753,23.004257,7.005797,0.393156,1.714889,0.094161,0.000000,0.000000,0.000000,0.000000,0.000000,0.000000
10370347.000000,2.267947,-1.246403,-1.771448,-1.487405,-1.230068,1.734138,0.555725,0.025495,-0.426170,-0.249303,-0.105690,-0.384840,0.328489,0.105849,-0.314593,36.952557,23.079636,7.029601,0.410551,1.721298,0.081344,0.000000,0.000000,0.000000,0.000000,0.000000,0.000000
10370348.000000,2.267967,-1.246823,-1.771703,-1.487508,-1.230453,1.734465,0.555830,0.023579,-0.424954,-0.249763,-0.102122,-0.382193,0.322566,0.108951,-0.215411,36.904949,23.079636,7.081175,0.398649,1.708480,0.048385,0.000000,0.000000,0.000000,0.000000,0.000000,0.000000
10370349.000000,2.267990,-1.247237,-1.771954,-1.487608,-1.230847,1.734797,0.555928,0.025028,-0.423083,-0.253293,-0.102451,-0.384633,0.325199,0.103201,-0.144000,36.805767,23.079636,7.128783,0.362943,1.735030,0.100570,0.000000,0.000000,0.000000,0.000000,0.000000,0.000000
10370350.000000,2.268013,-1.247662,-1.772204,-1.487715,-1.231240,1.735133,0.556040,0.024359,-0.421258,-0.248892,-0.104556,-0.396352,0.324207,0.103294,-0.092425,36.857342,23.055832,7.255736,0.410551,1.735030,0.041976,0.000000,0.000000,0.000000,0.000000,0.000000,0.000000
10370351.000000,2.268033,-1.248079,-1.772464,-1.487814,-1.231631,1.735471,0.556138,0.023214,-0.418800,-0.251353,-0.102270,-0.393313,0.329204,0.100658,-0.017047,36.952557,23.127243,7.227965,0.434354,1.735030,0.048385,0.000000,0.000000,0.000000,0.000000,0.000000,0.000000
10370352.000000,2.268058,-1.248498,-1.772720,-1.487912,-1.232032,1.735808,0.556237,0.025326,-0.419149,-0.253237,-0.101651,-0.398036,0.332551,0.098417,0.030561,37.027935,23.202621,7.227965,0.434354,1.708480,0.061202,0.000000,0.000000,0.000000,0.000000,0.000000,0.000000
10370353.000000,2.268079,-1.248916,-1.772978,-1.488007,-1.232427,1.736139,0.556337,0.023708,-0.417413,-0.253290,-0.100546,-0.398053,0.329745,0.097495,0.105939,37.004131,23.250229,7.204161,0.452665,1.708480,0.061202,0.000000,0.000000,0.000000,0.000000,0.000000,0.000000
10370354.000000,2.268107,-1.249322,-1.773237,-1.488104,-1.232817,1.736467,0.556437,0.024562,-0.416686,-0.256288,-0.101586,-0.398103,0.327241,0.097700,0.078168,36.881145,23.397018,7.255736,0.458158,1.708480,0.034652,0.000000,0.000000,0.000000,0.000000,0.000000,0.000000
10370355.000000,2.268128,-1.249730,-1.773496,-1.488201,-1.233214,1.736787,0.556538,0.023759,-0.410647,-0.255869,-0.098553,-0.405044,0.322188,0.097108,0.129743,36.682781,23.448593,7.279540,0.470060,1.714889,0.028243,0.000000,0.000000,0.000000,0.000000,0.000000,0.000000
10370356.000000,2.268149,-1.250135,-1.773762,-1.488285,-1.233611,1.737096,0.556631,0.022409,-0.406598,-0.256668,-0.093370,-0.403031,0.319204,0.098682,0.205121,36.535992,23.543808,7.180357,0.470060,1.793624,0.094161,0.000000,0.000000,0.000000,0.000000,0.000000,0.000000
10370357.000000,2.268177,-1.250537,-1.774017,-1.488379,-1.233997,1.737419,0.556736,0.023057,-0.401376,-0.255570,-0.093268,-0.391061,0.318349,0.103158,0.205121,36.194805,23.567612,7.227965,0.458158,1.851302,0.054794,0.000000,0.000000,0.000000,0.000000,0.000000,0.000000
10370358.000000,2.268200,-1.250947,-1.774275,-1.488467,-1.234384,1.737735,0.556833,0.025871,-0.403429,-0.254891,-0.093922,-0.390522,0.318849,0.100046,0.252729,35.976604,23.619186,7.180357,0.416959,1.865035,0.081344,0.000000,0.000000,0.000000,0.000000,0.000000,0.000000
10370359.000000,2.268222,-1.251344,-1.774534,-1.488565,-1.234780,1.738049,0.556937,0.023615,-0.398353,-0.257555,-0.093547,-0.387868,0.315662,0.099705,0.328107,35.730633,23.642990,7.227965,0.393156,1.865035,0.054794,0.000000,0.000000,0.000000,0.000000,0.000000,0.000000
10370360.000000,2.268249,-1.251751,-1.774792,-1.488655,-1.235183,1.738356,0.557032,0.024641,-0.399358,-0.259539,-0.091620,-0.391807,0.312073,0.097311,0.328107,35.583843,23.666794,7.204161,0.434354,1.877853,0.074935,0.000000,0.000000,0.000000,0.000000,0.000000,0.000000
10370361.000000,2.268269,-1.252159,-1.775052,-1.488745,-1.235576,1.738661,0.557136,0.019979,-0.408346,-0.258482,-0.090551,-0.396706,0.313280,0.098135,0.403486,35.583843,23.718369,7.204161,0.416959,1.930038,0.034652,0.000000,0.000000,0.000000,0.000000,0.000000,0.000000
10370362.000000,2.268290,-1.252575,-1.775313,-1.488827,-1.235983,1.738967,0.557234,0.019472,-0.411188,-0.261496,-0.091466,-0.397801,0.309604,0.095959,0.474897,35.607647,23.789780,7.156554,0.452665,1.949264,0.061202,0.000000,0.000000,0.000000,0.000000,0.000000,0.000000
10370363.000000,2.268315,-1.252990,-1.775570,-1.488909,-1.236373,1.739269,0.557330,0.021291,-0.409915,-0.258893,-0.090001,-0.392490,0.305240,0.099119,0.474897,35.655254,23.813583,7.128783,0.452665,1.909896,0.094161,0.000000,0.000000,0.000000,0.000000,0.000000,0.000000
10370364.000000,2.268341,-1.253399,-1.775824,-1.488994,-1.236772,1.739577,0.557435,0.022318,-0.409557,-0.258764,-0.090081,-0.398301,0.305776,0.100244,0.474897,35.706829,23.888962,7.156554,0.428861,1.871444,0.028243,0.000000,0.000000,0.000000,0.000000,0.000000,0.000000
10370365.000000,2.268361,-1.253813,-1.776073,-1.489072,-1.237185,1.739889,0.557530,0.017754,-0.404287,-0.254818,-0.085264,-0.397683,0.308751,0.097134,0.550275,35.706829,23.813583,7.104979,0.434354,1.903487,0.067611,0.000000,0.000000,0.000000,0.000000,0.000000,0.000000
10370366.000000,2.268383,-1.254230,-1.776328,-1.489157,-1.237580,1.740195,0.557628,0.018784,-0.406717,-0.253793,-0.087116,-0.397016,0.310611,0.096745,0.601850,35.706829,23.813583,7.156554,0.428861,1.936446,0.061202,0.000000,0.000000,0.000000,0.000000,0.000000,0.000000
10370367.000000,2.268411,-1.254652,-1.776582,-1.489235,-1.237978,1.740507,0.557735,0.020763,-0.409557,-0.254332,-0.082882,-0.396439,0.308297,0.102063,0.574079,35.877422,23.865158,7.104979,0.405057,1.923629,0.028243,0.000000,0.000000,0.000000,0.000000,0.000000,0.000000
10370368.000000,2.268429,-1.255064,-1.776837,-1.489316,-1.238389,1.740811,0.557831,0.019484,-0.407749,-0.252824,-0.084742,-0.406442,0.306535,0.098303,0.673261,35.802044,23.841354,7.128783,0.482877,1.936446,0.074935,0.000000,0.000000,0.000000,0.000000,0.000000,0.000000
10370369.000000,2.268450,-1.255476,-1.777095,-1.489401,-1.238791,1.741126,0.557938,0.019462,-0.406493,-0.252667,-0.082873,-0.399534,0.311131,0.103110,0.748639,35.802044,23.841354,7.156554,0.476469,1.942855,0.048385,0.000000,0.000000,0.000000,0.000000,0.000000,0.000000
10370370.000000,2.268470,-1.255905,-1.777341,-1.489486,-1.239187,1.741445,0.558035,0.019232,-0.411776,-0.248500,-0.082537,-0.401821,0.311207,0.103926,0.824018,35.948833,23.813583,7.227965,0.446256,1.884261,0.087753,0.000000,0.000000,0.000000,0.000000,0.000000,0.000000
10370371.000000,2.268488,-1.256330,-1.777589,-1.489568,-1.239593,1.741761,0.558136,0.018589,-0.412064,-0.247556,-0.081257,-0.400981,0.311092,0.101676,0.923200,36.071819,23.765976,7.255736,0.464567,1.825668,0.087753,0.000000,0.000000,0.000000,0.000000,0.000000,0.000000
10370372.000000,2.268512,-1.256763,-1.777838,-1.489649,-1.239991,1.742066,0.558241,0.019802,-0.418502,-0.248767,-0.077562,-0.398470,0.309917,0.101102,0.947004,36.341595,23.765976,7.303343,0.410551,1.903487,0.054794,0.000000,0.000000,0.000000,0.000000,0.000000,0.000000
10370373.000000,2.268535,-1.257192,-1.778083,-1.489727,-1.240386,1.742376,0.558339,0.017373,-0.416251,-0.247773,-0.076828,-0.400151,0.312180,0.098645,0.994611,36.488384,23.690598,7.303343,0.344633,1.955673,0.074935,0.000000,0.000000,0.000000,0.000000,0.000000,0.000000
10370374.000000,2.268550,-1.257618,-1.778329,-1.489807,-1.240782,1.742700,0.558435,0.016244,-0.419995,-0.247639,-0.077224,-0.403923,0.316231,0.101832,1.145368,36.563763,23.642990,7.350951,0.339139,1.909896,0.087753,0.000000,0.000000,0.000000,0.000000,0.000000,0.000000
10370375.000000,2.268575,-1.258048,-1.778570,-1.489883,-1.241180,1.743022,0.558534,0.018255,-0.417550,-0.247997,-0.076640,-0.402001,0.319441,0.099743,1.145368,36.682781,23.595383,7.350951,0.344633,1.865035,0.094161,0.000000,0.000000,0.000000,0.000000,0.000000,0.000000
10370376.000000,2.268601,-1.258486,-1.778819,-1.489960,-1.241568,1.743339,0.558639,0.019768,-0.424536,-0.247307,-0.076240,-0.400374,0.316012,0.104537,1.145368,36.781963,23.666794,7.350951,0.339139,1.838485,0.028243,0.000000,0.000000,0.000000,0.000000,0.000000,0.000000
10370377.000000,2.268626,-1.258908,-1.779054,-1.490031,-1.241977,1.743655,0.558727,0.021382,-0.421656,-0.246018,-0.074816,-0.407399,0.317744,0.099457,1.145368,36.781963,23.619186,7.303343,0.386747,1.858627,0.094161,0.000000,0.000000,0.000000,0.000000,0.000000,0.000000
10370378.000000,2.268650,-1.259342,-1.779291,-1.490104,-1.242382,1.743969,0.558829,0.021762,-0.422528,-0.242306,-0.076900,-0.408385,0.313518,0.100002,1.169172,36.805767,23.520004,7.255736,0.374845,1.865035,0.048385,0.000000,0.000000,0.000000,0.000000,0.000000,0.000000
10370379.000000,2.268683,-1.259784,-1.779543,-1.490179,-1.242775,1.744280,0.558920,0.024713,-0.424989,-0.244201,-0.075829,-0.403624,0.313400,0.101643,1.093793,37.004131,23.619186,7.227965,0.332731,1.812850,0.061202,0.000000,0.000000,0.000000,0.000000,0.000000,0.000000
10370380.000000,2.268706,-1.260220,-1.779779,-1.490252,-1.243188,1.744595,0.559013,0.025280,-0.428367,-0.245010,-0.074175,-0.407686,0.310795,0.099165,1.169172,37.150921,23.567612,7.180357,0.356534,1.793624,0.074935,0.000000,0.000000,0.000000,0.000000,0.000000,0.000000
10370381.000000,2.268736,-1.260650,-1.780023,-1.490323,-1.243587,1.744900,0.559109,0.027058,-0.428297,-0.243915,-0.070800,-0.403675,0.311405,0.098167,1.121564,37.222332,23.595383,7.156554,0.327238,1.865035,0.067611,0.000000,0.000000,0.000000,0.000000,0.000000,0.000000
10370382.000000,2.268764,-1.261089,-1.780263,-1.490388,-1.243983,1.745219,0.559204,0.026817,-0.432057,-0.251518,-0.067752,-0.405972,0.314304,0.096746,1.121564,37.420696,23.567612,7.104979,0.273221,1.851302,0.081344,0.000000,0.000000,0.000000,0.000000,0.000000,0.000000
10370383.000000,2.268793,-1.261521,-1.780508,-1.490456,-1.244404,1.745539,0.559303,0.029027,-0.432077,-0.249860,-0.066712,-0.409740,0.314000,0.096643,1.121564,37.515911,23.619186,7.104979,0.315336,1.800033,0.048385,0.000000,0.000000,0.000000,0.000000,0.000000,0.000000
10370384.000000,2.268828,-1.261946,-1.780755,-1.490523,-1.244812,1.745847,0.559393,0.033704,-0.430053,-0.248561,-0.065769,-0.411776,0.314491,0.089462,1.022382,37.392925,23.690598,7.104979,0.332731,1.832076,0.100570,0.000000,0.000000,0.000000,0.000000,0.000000,0.000000
10370385.000000,2.268861,-1.262367,-1.780995,-1.490585,-1.245217,1.746166,0.559493,0.031835,-0.427557,-0.249422,-0.064042,-0.408845,0.315823,0.088563,0.970807,37.321514,23.690598,7.057372,0.339139,1.832076,0.034652,0.000000,0.000000,0.000000,0.000000,0.000000,0.000000
10370386.000000,2.268895,-1.262793,-1.781244,-1.490647,-1.245631,1.746472,0.559580,0.031113,-0.422941,-0.247200,-0.063260,-0.418622,0.310857,0.088139,0.923200,37.174725,23.718369,7.029601,0.374845,1.871444,0.081344,0.000000,0.000000,0.000000,0.000000,0.000000,0.000000
10370387.000000,2.268939,-1.263205,-1.781488,-1.490711,-1.246043,1.746785,0.559667,0.033262,-0.419688,-0.247341,-0.063356,-0.415081,0.306243,0.088241,0.748639,36.980328,23.666794,7.029601,0.410551,1.851302,0.120712,0.000000,0.000000,0.000000,0.000000,0.000000,0.000000
10370388.000000,2.268973,-1.263635,-1.781738,-1.490766,-1.246447,1.747106,0.559770,0.033036,-0.422935,-0.250238,-0.060951,-0.414380,0.310875,0.092685,0.748639,36.881145,23.742172,6.934386,0.405057,1.825668,0.041976,0.000000,0.000000,0.000000,0.000000,0.000000,0.000000
10370389.000000,2.269007,-1.264055,-1.781984,-1.490827,-1.246851,1.747420,0.559857,0.037693,-0.421814,-0.251988,-0.061092,-0.412423,0.313432,0.091562,0.724836,36.635174,23.690598,6.906615,0.356534,1.825668,0.081344,0.000000,0.000000,0.000000,0.000000,0.000000,0.000000
10370390.000000,2.269050,-1.264468,-1.782230,-1.490886,-1.247261,1.747735,0.559953,0.037189,-0.416945,-0.251963,-0.060523,-0.410034,0.308752,0.093830,0.601850,36.464581,23.690598,6.859007,0.369352,1.858627,0.041976,0.000000,0.000000,0.000000,0.000000,0.000000,0.000000
10370391.000000,2.269088,-1.264887,-1.782478,-1.490943,-1.247667,1.748042,0.560041,0.038079,-0.418814,-0.245598,-0.060194,-0.407128,0.308227,0.092768,0.550275,36.317791,23.690598,6.807433,0.386747,1.858627,0.074935,0.000000,0.000000,0.000000,0.000000,0.000000,0.000000
10370392.000000,2.269127,-1.265302,-1.782734,-1.490993,-1.248078,1.748358,0.560128,0.038111,-0.423093,-0.248404,-0.054958,-0.408374,0.306334,0.093034,0.526471,36.218609,23.742172,6.684447,0.369352,1.871444,0.081344,0.000000,0.000000,0.000000,0.000000,0.000000,0.000000
10370393.000000,2.269168,-1.265723,-1.782970,-1.491049,-1.248485,1.748669,0.560225,0.038567,-0.422633,-0.246342,-0.059567,-0.406123,0.304024,0.093894,0.451093,36.123394,23.619186,6.660643,0.381254,1.890670,0.048385,0.000000,0.000000,0.000000,0.000000,0.000000,0.000000
10370394.000000,2.269214,-1.266146,-1.783223,-1.491103,-1.248883,1.748977,0.560316,0.041141,-0.416520,-0.245392,-0.057053,-0.406928,0.299700,0.096719,0.328107,36.071819,23.666794,6.636839,0.351041,1.871444,0.081344,0.000000,0.000000,0.000000,0.000000,0.000000,0.000000
10370395.000000,2.269251,-1.266560,-1.783472,-1.491147,-1.249296,1.749285,0.560415,0.038912,-0.420998,-0.247156,-0.052772,-0.409214,0.302253,0.097169,0.351911,35.976604,23.666794,6.513854,0.308927,1.825668,0.054794,0.000000,0.000000,0.000000,0.000000,0.000000,0.000000
10370396.000000,2.269292,-1.266982,-1.783717,-1.491195,-1.249723,1.749594,0.560504,0.038909,-0.418570,-0.243505,-0.052000,-0.408476,0.302266,0.093885,0.304304,35.948833,23.595383,6.486083,0.369352,1.825668,0.114303,0.000000,0.000000,0.000000,0.000000,0.000000,0.000000
10370397.000000,2.269338,-1.267407,-1.783967,-1.491241,-1.250131,1.749897,0.560607,0.040307,-0.421534,-0.240452,-0.048040,-0.410890,0.307243,0.096561,0.228925,35.829815,23.642990,6.462279,0.393156,1.832076,0.048385,0.000000,0.000000,0.000000,0.000000,0.000000,0.000000
10370398.000000,2.269375,-1.267821,-1.784206,-1.491286,-1.250550,1.750204,0.560697,0.040904,-0.415301,-0.242246,-0.050627,-0.408039,0.305689,0.094799,0.252729,35.754436,23.595383,6.414671,0.416959,1.825668,0.074935,0.000000,0.000000,0.000000,0.000000,0.000000,0.000000
10370399.000000,2.269411,-1.268242,-1.784449,-1.491332,-1.250967,1.750503,0.560792,0.041435,-0.414500,-0.237455,-0.050883,-0.411403,0.300523,0.095046,0.328107,35.607647,23.567612,6.414671,0.470060,1.832076,0.067611,0.000000,0.000000,0.000000,0.000000,0.000000,0.000000
10370400.000000,2.269461,-1.268660,-1.784694,-1.491375,-1.251370,1.750808,0.560885,0.042886,-0.413976,-0.238465,-0.050325,-0.412772,0.306437,0.093340,0.228925,35.560040,23.595383,6.386900,0.452665,1.806442,0.094161,0.000000,0.000000,0.000000,0.000000,0.000000,0.000000
10370401.000000,2.269507,-1.269090,-1.784929,-1.491417,-1.251783,1.751111,0.560982,0.044583,-0.417790,-0.234384,-0.049471,-0.407365,0.305759,0.095077,0.177350,35.560040,23.543808,6.339293,0.422452,1.819259,0.054794,0.000000,0.000000,0.000000,0.000000,0.000000,0.000000
10370402.000000,2.269547,-1.269511,-1.785172,-1.491460,-1.252189,1.751398,0.561071,0.042320,-0.416919,-0.234373,-0.046069,-0.408567,0.301685,0.093894,0.205121,35.536236,23.496201,6.315489,0.410551,1.903487,0.081344,0.000000,0.000000,0.000000,0.000000,0.000000,0.000000
10370403.000000,2.269591,-1.269938,-1.785409,-1.491497,-1.252588,1.751692,0.561161,0.044029,-0.421226,-0.235861,-0.042921,-0.408328,0.297146,0.087915,0.177350,35.607647,23.496201,6.263915,0.339139,1.936446,0.120712,0.000000,0.000000,0.000000,0.000000,0.000000,0.000000
10370404.000000,2.269625,-1.270366,-1.785641,-1.491538,-1.252994,1.751995,0.561261,0.043285,-0.420747,-0.231613,-0.041366,-0.416485,0.299671,0.092411,0.276533,35.706829,23.397018,6.240111,0.327238,1.909896,0.048385,0.000000,0.000000,0.000000,0.000000,0.000000,0.000000
10370405.000000,2.269670,-1.270807,-1.785884,-1.491578,-1.253397,1.752304,0.561345,0.042822,-0.424736,-0.235119,-0.040490,-0.412709,0.302408,0.090379,0.228925,35.948833,23.448593,6.240111,0.344633,1.897079,0.114303,0.000000,0.000000,0.000000,0.000000,0.000000,0.000000
10370406.000000,2.269710,-1.271239,-1.786125,-1.491616,-1.253794,1.752621,0.561448,0.042356,-0.427559,-0.237466,-0.039336,-0.412482,0.309098,0.094289,0.276533,36.071819,23.496201,6.216307,0.327238,1.838485,0.034652,0.000000,0.000000,0.000000,0.000000,0.000000,0.000000
10370407.000000,2.269749,-1.271680,-1.786359,-1.491656,-1.254200,1.752929,0.561539,0.043096,-0.429472,-0.238108,-0.039109,-0.413469,0.310401,0.093634,0.328107,36.194805,23.397018,6.216307,0.339139,1.754256,0.048385,0.000000,0.000000,0.000000,0.000000,0.000000,0.000000
10370408.000000,2.269793,-1.272121,-1.786594,-1.491695,-1.254613,1.753277,0.561643,0.045433,-0.432747,-0.240914,-0.035635,-0.412872,0.329277,0.096010,0.304304,36.389202,23.373215,6.216307,0.393156,1.416427,-0.011124,0.000000,0.000000,0.000000,0.000000,0.000000,0.000000
10370409.000000,2.269836,-1.272567,-1.786845,-1.491730,-1.255123,1.753768,0.561722,0.047248,-0.432302,-0.243442,-0.034954,-0.446469,0.385853,0.090392,0.276533,36.512188,23.496201,6.164732,1.294950,-0.171098,0.120712,0.000000,0.000000,0.000000,0.000000,0.000000,0.000000
10370410.000000,2.269869,-1.273002,-1.787104,-1.491788,-1.255606,1.754155,0.561838,0.044631,-0.445890,-0.248338,-0.042167,-0.458500,0.382669,0.099662,0.427289,36.611370,23.765976,6.438475,1.791166,-0.554704,-0.097184,0.000000,0.000000,0.000000,0.000000,0.000000,0.000000
10370411.000000,2.269893,-1.273460,-1.787287,-1.491807,-1.256085,1.754543,0.561938,0.039234,-0.447080,-0.223862,-0.033934,-0.462311,0.383668,0.094689,0.697065,36.904949,22.980453,6.164732,2.143644,-0.775346,-0.142960,0.000000,0.000000,0.000000,0.000000,0.000000,0.000000
10370412.000000,2.269965,-1.273932,-1.787497,-1.491792,-1.256684,1.755204,0.562010,0.049808,-0.454284,-0.218714,-0.014098,-0.514574,0.486844,0.086434,0.252729,37.369122,22.563889,5.399046,3.458341,-3.187760,0.034652,0.000000,0.000000,0.000000,0.000000,0.000000,0.000000
10370413.000000,2.270035,-1.274393,-1.787730,-1.491796,-1.257151,1.755696,0.562102,0.055581,-0.455784,-0.227271,-0.009348,-0.497814,0.490447,0.084184,-0.144000,37.785686,22.563889,5.006285,3.159879,-3.610734,0.028243,0.000000,0.000000,0.000000,0.000000,0.000000,0.000000
10370414.000000,2.270049,-1.274865,-1.787823,-1.491730,-1.257670,1.756131,0.562193,0.041928,-0.459614,-0.182199,0.015635,-0.500957,0.467230,0.085625,0.276533,38.226055,20.600082,3.693114,3.261503,-3.201493,0.061202,0.000000,0.000000,0.000000,0.000000,0.000000,0.000000
10370415.000000,2.270121,-1.275347,-1.787927,-1.491691,-1.258154,1.756596,0.562298,0.053572,-0.464942,-0.154720,0.025833,-0.493983,0.464741,0.091355,-0.116229,38.765606,18.906052,2.927428,2.956632,-3.012894,-0.056901,0.000000,0.000000,0.000000,0.000000,0.000000,0.000000
10370416.000000,2.270199,-1.275836,-1.787998,-1.491670,-1.258601,1.757032,0.562393,0.058505,-0.471915,-0.124887,0.023976,-0.475353,0.446754,0.089270,-0.564532,39.305157,16.989853,2.558470,2.341398,-2.550553,-0.116410,0.000000,0.000000,0.000000,0.000000,0.000000,0.000000
10370417.000000,2.270202,-1.276289,-1.787989,-1.491577,-1.259063,1.757431,0.562463,0.040420,-0.459703,-0.078144,0.047240,-0.473250,0.430878,0.078648,0.078168,39.281353,14.244492,1.296873,2.024625,-1.802567,0.067611,0.000000,0.000000,0.000000,0.000000,0.000000,0.000000
10370418.000000,2.270251,-1.276719,-1.788011,-1.491517,-1.259500,1.757873,0.562580,0.043848,-0.448152,-0.057815,0.052038,-0.453624,0.425430,0.087983,0.054365,38.813213,12.280685,0.654173,1.557706,-1.569108,-0.196061,0.000000,0.000000,0.000000,0.000000,0.000000,0.000000
10370419.000000,2.270313,-1.277133,-1.787984,-1.491495,-1.259952,1.758295,0.562656,0.049352,-0.438348,-0.029157,0.040822,-0.444768,0.418536,0.079324,-0.144000,38.079266,9.995529,0.654173,1.516508,-1.491288,-0.070634,0.000000,0.000000,0.000000,0.000000,0.000000,0.000000
10370420.000000,2.270312,-1.277516,-1.787910,-1.491431,-1.260428,1.758696,0.562747,0.033227,-0.414593,0.005358,0.047146,-0.451006,0.408663,0.083109,0.550275,36.857342,7.396957,0.086851,1.838773,-1.445512,-0.070634,0.000000,0.000000,0.000000,0.000000,0.000000,0.000000
10370421.000000,2.270307,-1.277883,-1.787854,-1.491373,-1.260832,1.759079,0.562845,0.021171,-0.403000,0.018770,0.049023,-0.435658,0.396947,0.087269,1.244550,35.683025,5.405380,-0.357485,1.630033,-1.439103,-0.110001,0.000000,0.000000,0.000000,0.000000,0.000000,0.000000
10370422.000000,2.270337,-1.278241,-1.787761,-1.491323,-1.261257,1.759436,0.562943,0.020948,-0.384142,0.043809,0.049773,-0.431258,0.386930,0.089936,1.391340,34.457134,3.199569,-0.631227,1.749052,-1.451920,-0.136552,0.000000,0.000000,0.000000,0.000000,0.000000,0.000000
10370423.000000,2.270337,-1.278558,-1.787621,-1.491281,-1.261648,1.759775,0.563028,0.014886,-0.360397,0.076267,0.050002,-0.421958,0.372875,0.092889,1.911054,32.890057,0.668442,-0.754213,1.594327,-1.334733,-0.064225,0.000000,0.000000,0.000000,0.000000,0.000000,0.000000
10370424.000000,2.270315,-1.278853,-1.787496,-1.491239,-1.261979,1.760090,0.563116,0.003327,-0.331051,0.090349,0.046869,-0.386907,0.349527,0.092236,2.704511,31.176189,-1.319168,-0.829591,0.930570,-1.165360,-0.037675,0.000000,0.000000,0.000000,0.000000,0.000000,0.000000
10370425.000000,2.270288,-1.279135,-1.787347,-1.491214,-1.262283,1.760420,0.563224,-0.006085,-0.313646,0.108230,0.037954,-0.356396,0.344109,0.098363,3.470197,29.490093,-3.330582,-0.607423,0.237516,-1.288956,-0.182328,0.000000,0.000000,0.000000,0.000000,0.000000,0.000000
10370426.000000,2.270264,-1.279390,-1.787185,-1.491188,-1.262624,1.760748,0.563309,-0.013739,-0.292942,0.123644,0.033375,-0.351370,0.342384,0.090418,4.140668,27.700848,-5.270584,-0.432863,-0.055453,-1.536149,-0.130143,0.000000,0.000000,0.000000,0.000000,0.000000,0.000000
10370427.000000,2.270236,-1.279617,-1.787047,-1.491158,-1.262935,1.761041,0.563399,-0.018424,-0.272304,0.124049,0.032113,-0.337788,0.331145,0.091109,4.783369,25.693401,-6.718643,-0.333681,-0.443636,-1.491288,-0.122819,0.000000,0.000000,0.000000,0.000000,0.000000,0.000000
10370428.000000,2.270197,-1.279812,-1.786928,-1.491123,-1.263226,1.761337,0.563499,-0.023658,-0.246940,0.115798,0.030540,-0.324240,0.323262,0.094693,5.501447,23.416180,-7.750137,-0.333681,-0.784213,-1.477555,-0.196061,0.000000,0.000000,0.000000,0.000000,0.000000,0.000000
10370429.000000,2.270165,-1.279974,-1.786803,-1.491105,-1.263521,1.761640,0.563582,-0.027167,-0.217163,0.118562,0.026984,-0.313764,0.317225,0.085794,6.068769,21.091351,-8.829239,-0.111513,-1.011263,-1.581925,-0.097184,0.000000,0.000000,0.000000,0.000000,0.000000,0.000000
10370430.000000,2.270137,-1.280108,-1.786691,-1.491101,-1.263802,1.761945,0.563678,-0.027748,-0.186382,0.112015,0.018327,-0.302482,0.315911,0.093468,6.540876,18.520550,-9.638565,0.257445,-1.316134,-1.789750,-0.130143,0.000000,0.000000,0.000000,0.000000,0.000000,0.000000
10370431.000000,2.270096,-1.280216,-1.786599,-1.491096,-1.264054,1.762258,0.563761,-0.032477,-0.161801,0.102172,0.013593,-0.288216,0.318597,0.091612,7.183576,15.953716,-10.178116,0.578795,-1.805941,-1.946305,-0.083451,0.000000,0.000000,0.000000,0.000000,0.000000,0.000000
10370432.000000,2.270069,-1.280306,-1.786506,-1.491095,-1.264313,1.762554,0.563843,-0.030140,-0.138352,0.095026,0.007179,-0.278519,0.310777,0.089964,7.580305,13.430523,-10.670059,0.900145,-2.122714,-1.881303,-0.017533,0.000000,0.000000,0.000000,0.000000,0.000000,0.000000
10370433.000000,2.270049,-1.280382,-1.786445,-1.491101,-1.264577,1.762822,0.563936,-0.024140,-0.119107,0.080632,0.002414,-0.277999,0.297834,0.087444,7.778669,10.935101,-10.741470,1.221495,-2.260043,-1.607560,-0.037675,0.000000,0.000000,0.000000,0.000000,0.000000,0.000000
10370434.000000,2.270032,-1.280430,-1.786401,-1.491109,-1.264877,1.763086,0.564021,-0.021514,-0.095212,0.064293,-0.002397,-0.288701,0.283726,0.086532,7.901655,8.435711,-10.646255,1.471434,-2.212435,-1.328324,0.021835,0.000000,0.000000,0.000000,0.000000,0.000000,0.000000
10370435.000000,2.270023,-1.280466,-1.786369,-1.491110,-1.265191,1.763350,0.564110,-0.014258,-0.073846,0.049057,-0.002539,-0.305908,0.275775,0.088378,7.901655,6.063274,-10.495499,1.570616,-1.967989,-1.120499,0.034652,0.000000,0.000000,0.000000,0.000000,0.000000,0.000000
10370436.000000,2.270026,-1.280480,-1.786372,-1.491124,-1.265535,1.763629,0.564193,-0.005451,-0.057846,0.030641,-0.005855,-0.325309,0.272629,0.089338,7.731061,3.686870,-10.007523,1.792784,-1.573397,-1.074723,0.054794,0.000000,0.000000,0.000000,0.000000,0.000000,0.000000
10370437.000000,2.270033,-1.280498,-1.786390,-1.491126,-1.265898,1.763921,0.564279,0.000497,-0.044673,0.011154,-0.003127,-0.342872,0.281667,0.086223,7.556501,1.532634,-9.491776,1.792784,-1.166903,-1.217545,0.048385,0.000000,0.000000,0.000000,0.000000,0.000000,0.000000
10370438.000000,2.270039,-1.280513,-1.786423,-1.491119,-1.266275,1.764198,0.564364,0.003894,-0.035743,-0.003741,0.001467,-0.359087,0.280560,0.086808,7.405744,-0.423237,-8.924454,1.665831,-0.909640,-1.295365,0.061202,0.000000,0.000000,0.000000,0.000000,0.000000,0.000000
10370439.000000,2.270063,-1.280534,-1.786463,-1.491098,-1.266661,1.764466,0.564447,0.009490,-0.032905,-0.017451,0.008931,-0.366759,0.276290,0.084087,7.112165,-2.061726,-8.484085,1.344481,-0.814425,-1.263322,0.061202,0.000000,0.000000,0.000000,0.000000,0.000000,0.000000
