chaoyuefei/paper-gmrm-data/batch01/robot_logs/s2_dq_mrm_max_0.30_log_20260314_165027.csv
# time_ms,q_0,q_1,q_2,q_3,q_4,q_5,q_6,dq_0,dq_1,dq_2,dq_3,dq_4,dq_5,dq_6,tau_J_0,tau_J_1,tau_J_2,tau_J_3,tau_J_4,tau_J_5,tau_J_6,O_dP_EE_c_0,O_dP_EE_c_1,O_dP_EE_c_2,O_dP_EE_c_3,O_dP_EE_c_4,O_dP_EE_c_5
9688957.000000,2.271173,-1.155345,-1.701990,-1.435799,-1.140637,1.634688,0.524306,0.000090,-0.000327,0.000173,0.000894,0.000570,-0.000167,0.000935,0.054365,36.270184,22.587692,8.465757,0.882963,1.312057,-0.182328,0.000000,0.000000,0.000000,0.000000,0.000000,0.000000
9688958.000000,2.271169,-1.155345,-1.701992,-1.435801,-1.140640,1.634685,0.524304,-0.000497,-0.000218,-0.000441,0.000039,-0.000739,-0.000348,-0.000089,0.078168,36.270184,22.611496,8.489561,0.913175,1.318465,-0.163102,0.000000,0.000000,0.000000,0.000000,0.000000,0.000000
9688959.000000,2.271171,-1.155343,-1.701994,-1.435804,-1.140637,1.634686,0.524303,-0.000331,0.000504,-0.000851,-0.001087,0.000423,0.000242,-0.000331,0.078168,36.242413,22.635300,8.537169,0.888456,1.305648,-0.155778,0.000000,0.000000,0.000000,0.000000,0.000000,0.000000
9688960.000000,2.271169,-1.155345,-1.701990,-1.435801,-1.140639,1.634686,0.524305,-0.000221,-0.000314,0.000546,0.000389,-0.000396,0.000399,0.000526,0.078168,36.270184,22.587692,8.489561,0.906766,1.299239,-0.175919,0.000000,0.000000,0.000000,0.000000,0.000000,0.000000
9688961.000000,2.271156,-1.155347,-1.701994,-1.435804,-1.140640,1.634688,0.524304,-0.013610,-0.009443,-0.010609,-0.002061,-0.011494,0.001012,0.008334,-0.290789,35.853619,22.119553,8.588743,0.823453,1.279098,-0.136552,0.000000,0.000000,0.000000,0.000000,0.000000,0.000000
9688962.000000,2.271148,-1.155328,-1.702012,-1.435806,-1.140627,1.634686,0.524315,-0.022790,-0.007414,-0.026039,0.001716,-0.010213,-0.002841,0.013965,-2.024493,33.969158,20.576279,8.858519,0.476469,1.247054,-0.083451,0.000000,0.000000,0.000000,0.000000,0.000000,0.000000
9688963.000000,2.271145,-1.155287,-1.702073,-1.435795,-1.140622,1.634670,0.524351,-0.021448,0.007097,-0.045349,0.002773,-0.007955,-0.004693,0.026281,-5.095171,30.688213,18.168137,8.957701,0.064481,1.312057,-0.122819,0.000000,0.000000,0.000000,0.000000,0.000000,0.000000
9688964.000000,2.271120,-1.155287,-1.702174,-1.435776,-1.140648,1.634658,0.524387,-0.010349,0.011441,-0.061497,0.005735,-0.016032,-0.007526,0.031565,-8.138080,27.359661,15.541794,8.687925,-0.103060,1.422836,-0.064225,0.000000,0.000000,0.000000,0.000000,0.000000,0.000000
9688965.000000,2.271080,-1.155339,-1.702290,-1.435781,-1.140704,1.634663,0.524440,-0.003465,0.002268,-0.063647,-0.005497,-0.027236,-0.002198,0.042282,-10.193133,24.542889,12.943222,8.168211,-0.001437,1.467696,-0.037675,0.000000,0.000000,0.000000,0.000000,0.000000,0.000000
9688966.000000,2.271041,-1.155421,-1.702429,-1.435823,-1.140788,1.634716,0.524503,-0.000660,-0.015273,-0.082418,-0.022247,-0.046328,0.011586,0.049871,-11.034198,22.388653,11.027023,7.549315,0.285123,1.247054,-0.011124,0.000000,0.000000,0.000000,0.000000,0.000000,0.000000
9688967.000000,2.271007,-1.155533,-1.702561,-1.435879,-1.140895,1.634828,0.524586,-0.006346,-0.038876,-0.088063,-0.032746,-0.068433,0.049271,0.057571,-10.911212,20.996136,9.507553,6.537657,0.685209,0.641891,-0.044083,0.000000,0.000000,0.000000,0.000000,0.000000,0.000000
9688968.000000,2.270975,-1.155655,-1.702696,-1.435955,-1.140990,1.634973,0.524677,-0.017837,-0.061807,-0.099546,-0.047392,-0.076979,0.087177,0.067819,-10.070148,20.016216,8.476059,5.228453,0.774930,-0.008134,-0.070634,0.000000,0.000000,0.000000,0.000000,0.000000,0.000000
9688969.000000,2.270956,-1.155798,-1.702814,-1.436053,-1.141089,1.635110,0.524765,-0.021356,-0.085869,-0.105171,-0.060019,-0.080581,0.108690,0.071766,-9.030719,19.405254,7.638962,3.792296,0.661405,-0.248917,0.001693,0.000000,0.000000,0.000000,0.000000,0.000000,0.000000
9688970.000000,2.270950,-1.155941,-1.702925,-1.436157,-1.141196,1.635233,0.524879,-0.021346,-0.105548,-0.106217,-0.066856,-0.089238,0.113433,0.081470,-7.991290,18.960918,6.881210,2.209349,0.428861,-0.047501,-0.103593,0.000000,0.000000,0.000000,0.000000,0.000000,0.000000
9688971.000000,2.270948,-1.156070,-1.703045,-1.436264,-1.141305,1.635366,0.524990,-0.021734,-0.114145,-0.109506,-0.075546,-0.097018,0.120087,0.090581,-6.975665,18.449139,6.389267,0.578795,0.064481,0.369064,-0.136552,0.000000,0.000000,0.000000,0.000000,0.000000,0.000000
9688972.000000,2.270937,-1.156178,-1.703164,-1.436411,-1.141427,1.635547,0.525090,-0.022325,-0.110731,-0.114164,-0.098253,-0.100700,0.142061,0.088136,-5.884661,17.715191,6.044113,-0.532045,-0.240389,0.635482,-0.050492,0.000000,0.000000,0.000000,0.000000,0.000000,0.000000
9688973.000000,2.270898,-1.156263,-1.703278,-1.436586,-1.141570,1.635790,0.525212,-0.031974,-0.106912,-0.111859,-0.117676,-0.113295,0.176979,0.096634,-4.500079,16.687664,5.651352,-1.250124,-0.419833,0.544845,-0.103593,0.000000,0.000000,0.000000,0.000000,0.000000,0.000000
9688974.000000,2.270843,-1.156342,-1.703407,-1.436795,-1.141745,1.636075,0.525323,-0.044002,-0.097838,-0.121195,-0.146584,-0.130028,0.212000,0.099296,-3.012347,15.485577,5.480759,-1.448488,-0.401522,0.316879,-0.064225,0.000000,0.000000,0.000000,0.000000,0.000000,0.000000
9688975.000000,2.270760,-1.156413,-1.703534,-1.437027,-1.141951,1.636372,0.525448,-0.059095,-0.088628,-0.125800,-0.173375,-0.157500,0.238216,0.102677,-1.330218,14.287457,5.258591,-1.321535,-0.216586,0.206100,-0.064225,0.000000,0.000000,0.000000,0.000000,0.000000,0.000000
9688976.000000,2.270667,-1.156486,-1.703667,-1.437269,-1.142191,1.636690,0.525571,-0.072637,-0.083347,-0.128117,-0.201262,-0.182293,0.262938,0.109595,0.351911,13.259930,4.988815,-1.150941,0.093778,0.206100,-0.050492,0.000000,0.000000,0.000000,0.000000,0.000000,0.000000
9688977.000000,2.270580,-1.156564,-1.703798,-1.437534,-1.142449,1.637027,0.525692,-0.077872,-0.079205,-0.130967,-0.220109,-0.209620,0.286984,0.115115,1.712690,12.379192,4.647629,-0.805788,0.297025,0.316879,-0.011124,0.000000,0.000000,0.000000,0.000000,0.000000,0.000000
9688978.000000,2.270484,-1.156652,-1.703929,-1.437811,-1.142705,1.637382,0.525825,-0.083540,-0.083808,-0.131742,-0.236806,-0.224117,0.309832,0.116851,3.002058,11.692852,4.254868,-0.432863,0.344633,0.440475,-0.064225,0.000000,0.000000,0.000000,0.000000,0.000000,0.000000
9688979.000000,2.270394,-1.156747,-1.704063,-1.438087,-1.142949,1.637766,0.525954,-0.085034,-0.089328,-0.135726,-0.250986,-0.230408,0.333298,0.121054,4.041486,11.129498,3.862106,-0.234499,0.123990,0.505477,-0.056901,0.000000,0.000000,0.000000,0.000000,0.000000,0.000000
9688980.000000,2.270313,-1.156869,-1.704206,-1.438367,-1.143187,1.638177,0.526089,-0.081274,-0.096763,-0.139401,-0.261677,-0.235676,0.359268,0.128293,4.834943,10.883526,3.493149,-0.262270,-0.180880,0.511886,-0.056901,0.000000,0.000000,0.000000,0.000000,0.000000,0.000000
9688981.000000,2.270245,-1.157012,-1.704362,-1.438643,-1.143450,1.638604,0.526223,-0.072749,-0.112475,-0.147298,-0.265529,-0.247705,0.377691,0.125642,5.354658,10.958904,3.223373,-0.508241,-0.353915,0.524703,-0.050492,0.000000,0.000000,0.000000,0.000000,0.000000,0.000000
9688982.000000,2.270182,-1.157164,-1.704540,-1.438925,-1.143727,1.639044,0.526360,-0.065259,-0.127129,-0.160779,-0.271495,-0.250561,0.395145,0.128145,5.775190,11.081890,3.124191,-0.904970,-0.431735,0.440475,-0.070634,0.000000,0.000000,0.000000,0.000000,0.000000,0.000000
9688983.000000,2.270126,-1.157329,-1.704726,-1.439216,-1.144008,1.639495,0.526491,-0.062069,-0.141206,-0.170601,-0.274295,-0.262300,0.410593,0.127523,5.973554,11.252483,2.929794,-1.250124,-0.372225,0.291244,-0.011124,0.000000,0.000000,0.000000,0.000000,0.000000,0.000000
9688984.000000,2.270069,-1.157493,-1.704920,-1.439511,-1.144306,1.639958,0.526618,-0.063573,-0.152763,-0.182619,-0.276143,-0.271297,0.424760,0.127850,5.898176,11.351665,2.707626,-1.250124,-0.180880,0.037643,0.028243,0.000000,0.000000,0.000000,0.000000,0.000000,0.000000
9688985.000000,2.270009,-1.157668,-1.705118,-1.439806,-1.144601,1.640419,0.526762,-0.059680,-0.156761,-0.187553,-0.273897,-0.285235,0.436057,0.132439,5.426069,11.423077,2.267257,-0.976381,-0.025240,-0.215958,-0.064225,0.000000,0.000000,0.000000,0.000000,0.000000,0.000000
9688986.000000,2.269941,-1.157841,-1.705326,-1.440083,-1.144905,1.640875,0.526893,-0.061442,-0.158896,-0.191451,-0.270308,-0.287546,0.441575,0.126599,4.735761,11.446880,1.822922,-0.484438,0.064481,-0.287370,-0.037675,0.000000,0.000000,0.000000,0.000000,0.000000,0.000000
9688987.000000,2.269881,-1.158007,-1.705529,-1.440347,-1.145213,1.641316,0.527016,-0.056004,-0.160245,-0.196040,-0.269045,-0.292756,0.438623,0.130042,3.767744,11.323895,1.283371,0.233641,0.112089,-0.183915,0.034652,0.000000,0.000000,0.000000,0.000000,0.000000,0.000000
9688988.000000,2.269830,-1.158165,-1.705750,-1.440613,-1.145504,1.641752,0.527160,-0.052086,-0.155834,-0.200227,-0.268927,-0.292305,0.435469,0.134038,2.605329,11.228680,1.061203,1.197691,0.046171,-0.008134,-0.037675,0.000000,0.000000,0.000000,0.000000,0.000000,0.000000
9688989.000000,2.269778,-1.158325,-1.705968,-1.440871,-1.145793,1.642207,0.527292,-0.047646,-0.156332,-0.200678,-0.266833,-0.286611,0.440670,0.132323,1.565900,11.423077,1.112778,2.161741,-0.067355,0.102645,-0.004716,0.000000,0.000000,0.000000,0.000000,0.000000,0.000000
9688990.000000,2.269711,-1.158479,-1.706174,-1.441125,-1.146086,1.642675,0.527427,-0.049608,-0.152393,-0.199147,-0.265718,-0.287212,0.444088,0.133032,0.923200,11.740459,1.529343,3.125792,-0.174471,0.115462,-0.011124,0.000000,0.000000,0.000000,0.000000,0.000000,0.000000
9688991.000000,2.269663,-1.158638,-1.706379,-1.441386,-1.146363,1.643156,0.527558,-0.050601,-0.155612,-0.201366,-0.268349,-0.282666,0.452921,0.127081,0.228925,12.355389,2.291061,4.137450,-0.294406,0.069686,0.015426,0.000000,0.000000,0.000000,0.000000,0.000000,0.000000
9688992.000000,2.269614,-1.158801,-1.706584,-1.441646,-1.146655,1.643629,0.527687,-0.051880,-0.157259,-0.204256,-0.271499,-0.281377,0.459366,0.126767,-0.290789,13.089336,3.270981,5.077696,-0.234896,0.147506,0.061202,0.000000,0.000000,0.000000,0.000000,0.000000,0.000000
9688993.000000,2.269566,-1.158969,-1.706788,-1.441913,-1.146939,1.644080,0.527831,-0.049182,-0.162316,-0.208286,-0.271702,-0.284889,0.459238,0.131194,-0.687518,13.894695,4.278671,5.819579,-0.174471,0.381881,-0.023942,0.000000,0.000000,0.000000,0.000000,0.000000,0.000000
9688994.000000,2.269518,-1.159139,-1.707000,-1.442178,-1.147230,1.644534,0.527956,-0.049970,-0.166996,-0.211713,-0.274305,-0.287809,0.453145,0.129283,-0.933489,14.628643,5.333969,6.414671,-0.109469,0.654708,0.034652,0.000000,0.000000,0.000000,0.000000,0.000000,0.000000
9688995.000000,2.269475,-1.159322,-1.707205,-1.442448,-1.147529,1.644987,0.528086,-0.049991,-0.176332,-0.216154,-0.271419,-0.287638,0.444527,0.130087,-1.183428,15.362591,6.242477,6.859007,0.034269,0.798446,0.034652,0.000000,0.000000,0.000000,0.000000,0.000000,0.000000
9688996.000000,2.269444,-1.159510,-1.707428,-1.442716,-1.147815,1.645441,0.528222,-0.043884,-0.182060,-0.223437,-0.269879,-0.288124,0.446356,0.133131,-1.552386,15.902142,7.198593,7.057372,0.088285,0.850631,-0.031266,0.000000,0.000000,0.000000,0.000000,0.000000,0.000000
9688997.000000,2.269404,-1.159709,-1.707661,-1.442990,-1.148088,1.645890,0.528346,-0.043438,-0.187705,-0.227992,-0.272613,-0.285222,0.442513,0.130867,-1.750750,16.366314,8.107101,7.227965,0.034269,0.889083,0.021835,0.000000,0.000000,0.000000,0.000000,0.000000,0.000000
9688998.000000,2.269360,-1.159935,-1.707896,-1.443253,-1.148366,1.646328,0.528480,-0.040747,-0.197279,-0.232206,-0.266122,-0.288428,0.448668,0.132306,-1.873736,16.929668,8.793442,7.156554,0.004056,0.869857,0.009017,0.000000,0.000000,0.000000,0.000000,0.000000,0.000000
9688999.000000,2.269323,-1.160163,-1.708148,-1.443521,-1.148659,1.646761,0.528603,-0.037614,-0.206201,-0.237745,-0.264381,-0.286897,0.443611,0.129165,-2.048296,17.421612,9.432175,7.029601,-0.013339,0.922042,0.074935,0.000000,0.000000,0.000000,0.000000,0.000000,0.000000
9689000.000000,2.269281,-1.160417,-1.708399,-1.443784,-1.148942,1.647192,0.528743,-0.039647,-0.221020,-0.244029,-0.266013,-0.279287,0.440793,0.136634,-2.147479,17.984966,9.995529,6.859007,-0.079257,0.947677,0.015426,0.000000,0.000000,0.000000,0.000000,0.000000,0.000000
9689001.000000,2.269237,-1.160684,-1.708658,-1.444044,-1.149225,1.647607,0.528875,-0.040623,-0.236250,-0.248939,-0.259026,-0.281383,0.434263,0.137099,-2.147479,18.449139,10.439865,6.613036,-0.067355,0.966903,0.001693,0.000000,0.000000,0.000000,0.000000,0.000000,0.000000
9689002.000000,2.269196,-1.160964,-1.708926,-1.444311,-1.149521,1.648023,0.528999,-0.040139,-0.247256,-0.259881,-0.260764,-0.285120,0.426068,0.138446,-2.171282,19.012493,10.955612,6.486083,-0.007845,1.052047,0.054794,0.000000,0.000000,0.000000,0.000000,0.000000,0.000000
9689003.000000,2.269153,-1.161265,-1.709197,-1.444578,-1.149830,1.648429,0.529136,-0.038031,-0.257323,-0.259612,-0.262300,-0.294716,0.416653,0.139827,-2.123675,19.964642,11.590378,6.363097,0.123990,1.129867,-0.011124,0.000000,0.000000,0.000000,0.000000,0.000000,0.000000
9689004.000000,2.269107,-1.161579,-1.709471,-1.444830,-1.150138,1.648844,0.529262,-0.039814,-0.271691,-0.258507,-0.256158,-0.297674,0.415759,0.136590,-1.925311,21.214336,12.451279,6.192503,0.285123,1.162826,0.021835,0.000000,0.000000,0.000000,0.000000,0.000000,0.000000
9689005.000000,2.269058,-1.161904,-1.709734,-1.445073,-1.150437,1.649269,0.529387,-0.045694,-0.287731,-0.258793,-0.250600,-0.300975,0.419438,0.130802,-1.651568,22.733807,13.383591,5.970335,0.356534,1.182052,0.028243,0.000000,0.000000,0.000000,0.000000,0.000000,0.000000
9689006.000000,2.269005,-1.162231,-1.710000,-1.445317,-1.150720,1.649698,0.529518,-0.044680,-0.297947,-0.262925,-0.247305,-0.298982,0.421236,0.131803,-1.306414,24.372295,14.391281,5.819579,0.303434,1.110641,0.009017,0.000000,0.000000,0.000000,0.000000,0.000000,0.000000
9689007.000000,2.268952,-1.162545,-1.710272,-1.445566,-1.151017,1.650132,0.529639,-0.050074,-0.303053,-0.266818,-0.251617,-0.302910,0.426363,0.130555,-0.961260,25.939373,15.422775,5.918761,0.243009,1.052047,0.054794,0.000000,0.000000,0.000000,0.000000,0.000000,0.000000
9689008.000000,2.268887,-1.162868,-1.710529,-1.445818,-1.151308,1.650563,0.529774,-0.056737,-0.309232,-0.264963,-0.251486,-0.297914,0.421764,0.132519,-0.489153,27.383465,16.279709,6.041747,0.105680,1.104232,0.015426,0.000000,0.000000,0.000000,0.000000,0.000000,0.000000
9689009.000000,2.268821,-1.163192,-1.710791,-1.446082,-1.151598,1.650977,0.529899,-0.061720,-0.319843,-0.262207,-0.253495,-0.297225,0.415989,0.131884,0.006757,28.728374,17.089035,6.263915,0.040677,1.214095,0.034652,0.000000,0.000000,0.000000,0.000000,0.000000,0.000000
9689010.000000,2.268757,-1.163517,-1.711057,-1.446350,-1.151892,1.651387,0.530022,-0.062458,-0.319137,-0.269081,-0.260619,-0.297012,0.411999,0.131278,0.403486,29.902691,17.826950,6.613036,0.100187,1.429244,0.054794,0.000000,0.000000,0.000000,0.000000,0.000000,0.000000
9689011.000000,2.268680,-1.163840,-1.711324,-1.446621,-1.152192,1.651789,0.530155,-0.067487,-0.322376,-0.271491,-0.265175,-0.299807,0.402389,0.133122,0.970807,30.835003,18.437912,6.981993,0.123990,1.611434,0.009017,0.000000,0.000000,0.000000,0.000000,0.000000,0.000000
9689012.000000,2.268604,-1.164161,-1.711608,-1.446897,-1.152496,1.652199,0.530277,-0.071731,-0.324393,-0.277598,-0.273810,-0.297813,0.404049,0.132472,1.442914,31.568951,19.104416,7.350951,0.159696,1.689254,0.021835,0.000000,0.000000,0.000000,0.000000,0.000000,0.000000
9689013.000000,2.268529,-1.164486,-1.711886,-1.447175,-1.152803,1.652626,0.530400,-0.076339,-0.322599,-0.280417,-0.273320,-0.302205,0.415539,0.127467,1.863447,32.279095,19.667770,7.648497,0.243009,1.605026,0.054794,0.000000,0.000000,0.000000,0.000000,0.000000,0.000000
9689014.000000,2.268467,-1.164815,-1.712177,-1.447449,-1.153097,1.653043,0.530528,-0.071755,-0.325333,-0.280198,-0.269185,-0.303286,0.419396,0.124713,2.061811,32.842449,20.159714,7.799254,0.267728,1.519881,0.034652,0.000000,0.000000,0.000000,0.000000,0.000000,0.000000
9689015.000000,2.268412,-1.165148,-1.712475,-1.447721,-1.153391,1.653449,0.530643,-0.065800,-0.326647,-0.287639,-0.270772,-0.305901,0.407988,0.120816,2.133222,33.354229,20.671494,7.846861,0.195402,1.532699,0.067611,0.000000,0.000000,0.000000,0.000000,0.000000,0.000000
9689016.000000,2.268358,-1.165487,-1.712772,-1.447989,-1.153692,1.653846,0.530768,-0.064075,-0.327802,-0.289487,-0.268488,-0.301614,0.413467,0.118859,2.160993,33.893780,21.016647,7.747679,0.213712,1.630660,0.067611,0.000000,0.000000,0.000000,0.000000,0.000000,0.000000
9689017.000000,2.268316,-1.165838,-1.713084,-1.448260,-1.153988,1.654246,0.530890,-0.059166,-0.336368,-0.292700,-0.268797,-0.300596,0.410927,0.125042,2.010236,34.433331,21.433212,7.700072,0.171598,1.727706,0.100570,0.000000,0.000000,0.000000,0.000000,0.000000,0.000000
9689018.000000,2.268273,-1.166197,-1.713386,-1.448524,-1.154279,1.654647,0.531029,-0.053142,-0.341762,-0.296415,-0.265088,-0.295518,0.405502,0.130586,1.863447,34.921307,21.754562,7.600890,0.135892,1.793624,0.001693,0.000000,0.000000,0.000000,0.000000,0.000000,0.000000
9689019.000000,2.268231,-1.166553,-1.713691,-1.448794,-1.154578,1.655046,0.531153,-0.050198,-0.347303,-0.300219,-0.266793,-0.297564,0.411827,0.129165,1.764264,35.337872,22.000534,7.577086,0.129484,1.844894,0.041976,0.000000,0.000000,0.000000,0.000000,0.000000,0.000000
9689020.000000,2.268203,-1.166907,-1.714008,-1.449050,-1.154878,1.655455,0.531275,-0.040323,-0.346103,-0.309228,-0.260489,-0.294380,0.412712,0.128732,1.466718,35.631451,22.393295,7.477904,0.112089,1.844894,0.081344,0.000000,0.000000,0.000000,0.000000,0.000000,0.000000
9689021.000000,2.268173,-1.167256,-1.714323,-1.449321,-1.155185,1.655867,0.531409,-0.038482,-0.342004,-0.311345,-0.261587,-0.300148,0.410888,0.132556,1.244550,35.802044,22.663071,7.477904,0.195402,1.786300,0.001693,0.000000,0.000000,0.000000,0.000000,0.000000,0.000000
9689022.000000,2.268142,-1.167607,-1.714646,-1.449582,-1.155484,1.656269,0.531532,-0.034905,-0.343447,-0.312810,-0.260828,-0.298396,0.412492,0.131191,1.069990,35.925030,22.932846,7.426329,0.261320,1.773483,0.041976,0.000000,0.000000,0.000000,0.000000,0.000000,0.000000
9689023.000000,2.268119,-1.167950,-1.714967,-1.449844,-1.155793,1.656677,0.531652,-0.030827,-0.339404,-0.315660,-0.263119,-0.305757,0.411651,0.129262,0.824018,35.877422,23.250229,7.477904,0.303434,1.800033,0.100570,0.000000,0.000000,0.000000,0.000000,0.000000,0.000000
9689024.000000,2.268101,-1.168289,-1.715277,-1.450112,-1.156100,1.657083,0.531784,-0.026662,-0.338324,-0.312452,-0.265213,-0.309949,0.410329,0.127820,0.526471,35.754436,23.349411,7.577086,0.308927,1.741439,0.034652,0.000000,0.000000,0.000000,0.000000,0.000000,0.000000
9689025.000000,2.268086,-1.168611,-1.715591,-1.450378,-1.156406,1.657493,0.531900,-0.024329,-0.332303,-0.316493,-0.267729,-0.313437,0.416299,0.122304,0.252729,35.508465,23.420822,7.700072,0.303434,1.747848,0.087753,0.000000,0.000000,0.000000,0.000000,0.000000,0.000000
9689026.000000,2.268076,-1.168941,-1.715904,-1.450647,-1.156706,1.657887,0.532028,-0.018236,-0.330392,-0.317057,-0.266546,-0.308566,0.410701,0.127875,-0.068621,35.385479,23.520004,7.846861,0.237516,1.884261,0.041976,0.000000,0.000000,0.000000,0.000000,0.000000,0.000000
9689027.000000,2.268070,-1.169280,-1.716220,-1.450915,-1.157012,1.658278,0.532157,-0.013973,-0.337816,-0.312319,-0.270745,-0.311876,0.404270,0.124625,-0.389971,35.290264,23.567612,7.946043,0.231107,1.974899,0.028243,0.000000,0.000000,0.000000,0.000000,0.000000,0.000000
9689028.000000,2.268063,-1.169606,-1.716534,-1.451183,-1.157335,1.658670,0.532278,-0.011532,-0.331698,-0.309829,-0.270870,-0.317235,0.399427,0.121642,-0.687518,35.266460,23.619186,8.045225,0.291532,2.039901,0.074935,0.000000,0.000000,0.000000,0.000000,0.000000,0.000000
9689029.000000,2.268066,-1.169937,-1.716853,-1.451455,-1.157646,1.659060,0.532409,-0.007244,-0.330631,-0.310032,-0.268939,-0.314165,0.394244,0.121636,-1.084246,35.167278,23.742172,8.215818,0.303434,2.053634,0.015426,0.000000,0.000000,0.000000,0.000000,0.000000,0.000000
9689030.000000,2.268059,-1.170267,-1.717166,-1.451720,-1.157955,1.659458,0.532523,-0.005979,-0.329143,-0.309897,-0.268785,-0.312320,0.392992,0.118040,-1.282611,35.119671,23.718369,8.291197,0.315336,1.981307,0.087753,0.000000,0.000000,0.000000,0.000000,0.000000,0.000000
9689031.000000,2.268058,-1.170600,-1.717473,-1.451983,-1.158272,1.659857,0.532646,-0.002866,-0.331161,-0.309593,-0.266150,-0.314230,0.397770,0.116753,-1.552386,35.091900,23.690598,8.267393,0.291532,1.884261,0.094161,0.000000,0.000000,0.000000,0.000000,0.000000,0.000000
9689032.000000,2.268064,-1.170944,-1.717782,-1.452263,-1.158594,1.660253,0.532778,0.000118,-0.333937,-0.305130,-0.265664,-0.318022,0.394084,0.122493,-1.849932,35.119671,23.619186,8.441954,0.327238,1.844894,0.048385,0.000000,0.000000,0.000000,0.000000,0.000000,0.000000
9689033.000000,2.268058,-1.171281,-1.718083,-1.452530,-1.158908,1.660642,0.532897,-0.002073,-0.333482,-0.311376,-0.266342,-0.319747,0.392454,0.119880,-1.949114,35.167278,23.472397,8.513365,0.327238,1.877853,0.054794,0.000000,0.000000,0.000000,0.000000,0.000000,0.000000
9689035.000000,2.268045,-1.171977,-1.718677,-1.453074,-1.159528,1.661414,0.533135,-0.005290,-0.341070,-0.304785,-0.267429,-0.312395,0.393109,0.119890,-2.099871,35.337872,23.226425,8.687925,0.297025,1.988631,0.107894,0.000000,0.000000,0.000000,0.000000,0.000000,0.000000
9689036.000000,2.268034,-1.172335,-1.718964,-1.453340,-1.159847,1.661820,0.533270,-0.007293,-0.346512,-0.296730,-0.268180,-0.315749,0.395748,0.126311,-2.123675,35.460857,23.028061,8.787107,0.303434,1.942855,0.028243,0.000000,0.000000,0.000000,0.000000,0.000000,0.000000
9689037.000000,2.268022,-1.172702,-1.719267,-1.453603,-1.160148,1.662209,0.533390,-0.009609,-0.351320,-0.294693,-0.262637,-0.314344,0.395905,0.124973,-2.099871,35.631451,23.028061,8.787107,0.213712,1.942855,0.100570,0.000000,0.000000,0.000000,0.000000,0.000000,0.000000
9689038.000000,2.268010,-1.173056,-1.719556,-1.453861,-1.160454,1.662617,0.533517,-0.010847,-0.355454,-0.293788,-0.263107,-0.307446,0.396815,0.123459,-2.099871,35.829815,22.881271,8.810911,0.201810,1.916305,0.094161,0.000000,0.000000,0.000000,0.000000,0.000000,0.000000
9689039.000000,2.267998,-1.173430,-1.719844,-1.454108,-1.160769,1.663033,0.533647,-0.009019,-0.360135,-0.289571,-0.260150,-0.310750,0.404602,0.122643,-2.072100,36.147198,22.857468,8.687925,0.178007,1.825668,0.048385,0.000000,0.000000,0.000000,0.000000,0.000000,0.000000
9689040.000000,2.267981,-1.173794,-1.720131,-1.454370,-1.161072,1.663438,0.533766,-0.011594,-0.365334,-0.289386,-0.260379,-0.308476,0.404823,0.118309,-2.000689,36.464581,22.833664,8.664122,0.147794,1.760665,0.100570,0.000000,0.000000,0.000000,0.000000,0.000000,0.000000
9689041.000000,2.267961,-1.174169,-1.720417,-1.454625,-1.161387,1.663844,0.533893,-0.014289,-0.367529,-0.288859,-0.258082,-0.309348,0.400065,0.122686,-1.901507,36.758160,22.809860,8.664122,0.189908,1.800033,0.081344,0.000000,0.000000,0.000000,0.000000,0.000000,0.000000
9689042.000000,2.267933,-1.174553,-1.720704,-1.454873,-1.161683,1.664251,0.534019,-0.018720,-0.370888,-0.285717,-0.252059,-0.307524,0.399306,0.120708,-1.679339,37.150921,22.809860,8.636351,0.171598,1.786300,0.067611,0.000000,0.000000,0.000000,0.000000,0.000000,0.000000
9689043.000000,2.267909,-1.174921,-1.720994,-1.455124,-1.161997,1.664663,0.534139,-0.022532,-0.373241,-0.287340,-0.259192,-0.308694,0.400174,0.122186,-1.552386,37.392925,22.833664,8.612547,0.207303,1.741439,0.107894,0.000000,0.000000,0.000000,0.000000,0.000000,0.000000
9689044.000000,2.267878,-1.175295,-1.721282,-1.455378,-1.162316,1.665071,0.534268,-0.024484,-0.373318,-0.289518,-0.257817,-0.309127,0.401675,0.122556,-1.330218,37.591290,22.881271,8.636351,0.243009,1.793624,0.041976,0.000000,0.000000,0.000000,0.000000,0.000000,0.000000
9689045.000000,2.267843,-1.175667,-1.721576,-1.455621,-1.162620,1.665475,0.534383,-0.027084,-0.369497,-0.288366,-0.250415,-0.307425,0.399968,0.118963,-1.060443,37.714275,23.004257,8.537169,0.225614,1.806442,0.094161,0.000000,0.000000,0.000000,0.000000,0.000000,0.000000
9689046.000000,2.267813,-1.176030,-1.721861,-1.455869,-1.162921,1.665881,0.534511,-0.029637,-0.366916,-0.290164,-0.250354,-0.306200,0.400199,0.123931,-0.885882,37.714275,23.079636,8.513365,0.201810,1.760665,0.048385,0.000000,0.000000,0.000000,0.000000,0.000000,0.000000
9689047.000000,2.267774,-1.176396,-1.722149,-1.456118,-1.163226,1.666287,0.534635,-0.030046,-0.365714,-0.289292,-0.248442,-0.308422,0.400401,0.126065,-0.635943,37.761883,23.079636,8.441954,0.141385,1.727706,0.048385,0.000000,0.000000,0.000000,0.000000,0.000000,0.000000
9689048.000000,2.267739,-1.176757,-1.722445,-1.456356,-1.163536,1.666694,0.534748,-0.032874,-0.364741,-0.288719,-0.252212,-0.310263,0.403617,0.124835,-0.413775,37.761883,23.202621,8.291197,0.069974,1.741439,0.120712,0.000000,0.000000,0.000000,0.000000,0.000000,0.000000
9689049.000000,2.267699,-1.177129,-1.722733,-1.456599,-1.163852,1.667092,0.534875,-0.035813,-0.361161,-0.290049,-0.248213,-0.309812,0.399573,0.130226,-0.144000,37.908672,23.274033,8.243589,0.088285,1.800033,0.061202,0.000000,0.000000,0.000000,0.000000,0.000000,0.000000
9689050.000000,2.267652,-1.177514,-1.723025,-1.456841,-1.164157,1.667487,0.534993,-0.039146,-0.369987,-0.290200,-0.246644,-0.313555,0.396072,0.124291,0.177350,38.130840,23.325607,8.144407,0.081876,1.877853,0.107894,0.000000,0.000000,0.000000,0.000000,0.000000,0.000000
9689051.000000,2.267610,-1.177885,-1.723313,-1.457071,-1.164482,1.667892,0.535110,-0.042121,-0.367090,-0.289334,-0.240922,-0.322276,0.401004,0.121858,0.375715,38.226055,23.448593,7.969847,0.105680,1.858627,0.114303,0.000000,0.000000,0.000000,0.000000,0.000000,0.000000
9689052.000000,2.267573,-1.178263,-1.723612,-1.457303,-1.164808,1.668289,0.535234,-0.038568,-0.369543,-0.290237,-0.237928,-0.325364,0.408611,0.124819,0.474897,38.424419,23.642990,7.846861,0.171598,1.825668,0.100570,0.000000,0.000000,0.000000,0.000000,0.000000,0.000000
9689053.000000,2.267538,-1.178639,-1.723916,-1.457530,-1.165131,1.668698,0.535356,-0.038757,-0.371371,-0.291210,-0.232993,-0.325811,0.406716,0.127473,0.550275,38.595013,23.865158,7.600890,0.195402,1.793624,0.061202,0.000000,0.000000,0.000000,0.000000,0.000000,0.000000
9689054.000000,2.267501,-1.179016,-1.724217,-1.457746,-1.165446,1.669108,0.535478,-0.039647,-0.371668,-0.298704,-0.229062,-0.325353,0.405863,0.123536,0.649457,38.717999,24.111130,7.327147,0.201810,1.741439,0.067611,0.000000,0.000000,0.000000,0.000000,0.000000,0.000000
9689055.000000,2.267469,-1.179405,-1.724527,-1.457959,-1.165777,1.669507,0.535594,-0.036172,-0.376153,-0.299462,-0.219442,-0.331180,0.399794,0.125098,0.673261,38.888592,24.329330,7.057372,0.249418,1.714889,0.074935,0.000000,0.000000,0.000000,0.000000,0.000000,0.000000
9689056.000000,2.267442,-1.179770,-1.724841,-1.458170,-1.166108,1.669909,0.535712,-0.035630,-0.373274,-0.298377,-0.215107,-0.330191,0.400793,0.122145,0.649457,38.912395,24.575302,6.882811,0.267728,1.767074,0.087753,0.000000,0.000000,0.000000,0.000000,0.000000,0.000000
9689057.000000,2.267411,-1.180147,-1.725143,-1.458386,-1.166433,1.670311,0.535839,-0.032260,-0.373064,-0.299460,-0.215564,-0.327108,0.402551,0.120292,0.649457,38.936199,24.773666,6.736022,0.225614,1.812850,0.074935,0.000000,0.000000,0.000000,0.000000,0.000000,0.000000
9689058.000000,2.267376,-1.180513,-1.725450,-1.458598,-1.166752,1.670699,0.535963,-0.032092,-0.377441,-0.301727,-0.212424,-0.330275,0.400017,0.118502,0.724836,38.936199,24.920456,6.585265,0.207303,1.844894,0.087753,0.000000,0.000000,0.000000,0.000000,0.000000,0.000000
9689059.000000,2.267342,-1.180888,-1.725756,-1.458804,-1.167093,1.671102,0.536090,-0.034272,-0.373087,-0.305161,-0.208353,-0.331796,0.403474,0.118865,0.772443,38.912395,25.114853,6.486083,0.273221,1.838485,0.041976,0.000000,0.000000,0.000000,0.000000,0.000000,0.000000
9689060.000000,2.267316,-1.181267,-1.726061,-1.459020,-1.167422,1.671494,0.536208,-0.030873,-0.368632,-0.305171,-0.212584,-0.330813,0.401938,0.120152,0.724836,38.983807,25.214035,6.462279,0.303434,1.844894,0.087753,0.000000,0.000000,0.000000,0.000000,0.000000,0.000000
9689061.000000,2.267282,-1.181630,-1.726376,-1.459230,-1.167751,1.671887,0.536333,-0.033483,-0.370199,-0.307759,-0.211147,-0.325423,0.397329,0.119853,0.796247,38.936199,25.408432,6.414671,0.332731,1.812850,0.054794,0.000000,0.000000,0.000000,0.000000,0.000000,0.000000
9689062.000000,2.267260,-1.182000,-1.726681,-1.459447,-1.168087,1.672283,0.536454,-0.029263,-0.364936,-0.306725,-0.212818,-0.330665,0.392725,0.118542,0.724836,38.936199,25.582993,6.438475,0.362943,1.806442,0.074935,0.000000,0.000000,0.000000,0.000000,0.000000,0.000000
9689063.000000,2.267237,-1.182368,-1.726990,-1.459658,-1.168418,1.672673,0.536570,-0.029603,-0.364793,-0.305049,-0.213085,-0.334732,0.393447,0.115542,0.649457,38.936199,25.777390,6.438475,0.393156,1.812850,0.120712,0.000000,0.000000,0.000000,0.000000,0.000000,0.000000
9689064.000000,2.267218,-1.182735,-1.727296,-1.459872,-1.168749,1.673057,0.536697,-0.022851,-0.363442,-0.302247,-0.213965,-0.336993,0.387124,0.122123,0.550275,39.011578,25.876572,6.462279,0.398649,1.858627,0.061202,0.000000,0.000000,0.000000,0.000000,0.000000,0.000000
9689065.000000,2.267197,-1.183102,-1.727606,-1.460092,-1.169061,1.673435,0.536813,-0.021252,-0.362454,-0.304579,-0.214747,-0.327979,0.387647,0.118361,0.451093,39.130596,26.023361,6.513854,0.320829,1.923629,0.094161,0.000000,0.000000,0.000000,0.000000,0.000000,0.000000
9689066.000000,2.267178,-1.183468,-1.727910,-1.460317,-1.169392,1.673822,0.536938,-0.017627,-0.364400,-0.303494,-0.217502,-0.330011,0.392662,0.114797,0.375715,39.205975,26.047165,6.636839,0.267728,1.988631,0.054794,0.000000,0.000000,0.000000,0.000000,0.000000,0.000000
9689067.000000,2.267165,-1.183829,-1.728209,-1.460537,-1.169733,1.674208,0.537063,-0.016520,-0.360832,-0.296022,-0.218375,-0.334394,0.387965,0.114987,0.228925,39.205975,26.047165,6.736022,0.279630,2.020675,0.034652,0.000000,0.000000,0.000000,0.000000,0.000000,0.000000
9689068.000000,2.267147,-1.184195,-1.728519,-1.460761,-1.170057,1.674594,0.537179,-0.016993,-0.359858,-0.299707,-0.220641,-0.331090,0.391508,0.112429,0.129743,39.130596,26.193954,6.783629,0.255826,1.995040,0.107894,0.000000,0.000000,0.000000,0.000000,0.000000,0.000000
9689069.000000,2.267130,-1.184552,-1.728817,-1.460991,-1.170386,1.674987,0.537306,-0.018074,-0.356724,-0.304931,-0.225849,-0.336166,0.392517,0.119339,0.078168,39.082989,26.221725,6.958189,0.303434,1.988631,0.054794,0.000000,0.000000,0.000000,0.000000,0.000000,0.000000
9689070.000000,2.267115,-1.184918,-1.729122,-1.461219,-1.170726,1.675364,0.537425,-0.018421,-0.360150,-0.304498,-0.225367,-0.338926,0.388053,0.116893,0.006757,39.035381,26.269333,7.104979,0.327238,2.014266,0.094161,0.000000,0.000000,0.000000,0.000000,0.000000,0.000000
9689071.000000,2.267104,-1.185278,-1.729419,-1.461451,-1.171067,1.675749,0.537547,-0.017506,-0.357506,-0.301464,-0.229004,-0.342447,0.386411,0.116353,-0.116229,39.011578,26.193954,7.279540,0.393156,1.995040,0.087753,0.000000,0.000000,0.000000,0.000000,0.000000,0.000000
9689072.000000,2.267092,-1.185645,-1.729722,-1.461683,-1.171404,1.676143,0.537675,-0.015203,-0.361327,-0.301759,-0.228686,-0.338628,0.388718,0.122941,-0.191607,38.960003,26.221725,7.450133,0.416959,1.981307,0.048385,0.000000,0.000000,0.000000,0.000000,0.000000,0.000000
9689073.000000,2.267078,-1.186018,-1.730017,-1.461919,-1.171729,1.676532,0.537792,-0.014554,-0.361338,-0.299726,-0.231642,-0.338598,0.391846,0.117888,-0.215411,38.936199,26.170151,7.672301,0.381254,1.962081,0.114303,0.000000,0.000000,0.000000,0.000000,0.000000,0.000000
9689074.000000,2.267063,-1.186379,-1.730308,-1.462159,-1.172063,1.676913,0.537912,-0.014010,-0.362393,-0.297408,-0.232405,-0.330530,0.390865,0.122695,-0.243182,38.936199,26.047165,7.946043,0.386747,2.020675,0.094161,0.000000,0.000000,0.000000,0.000000,0.000000,0.000000
9689075.000000,2.267048,-1.186754,-1.730602,-1.462399,-1.172396,1.677302,0.538030,-0.013930,-0.364794,-0.293556,-0.234241,-0.332263,0.391005,0.119900,-0.243182,39.035381,25.951950,8.144407,0.344633,2.066451,0.107894,0.000000,0.000000,0.000000,0.000000,0.000000,0.000000
9689076.000000,2.267041,-1.187111,-1.730898,-1.462639,-1.172717,1.677689,0.538159,-0.011623,-0.368843,-0.291779,-0.233901,-0.329451,0.388833,0.125258,-0.342364,39.035381,25.924179,8.267393,0.315336,2.039901,0.048385,0.000000,0.000000,0.000000,0.000000,0.000000,0.000000
9689077.000000,2.267025,-1.187488,-1.731183,-1.462881,-1.173048,1.678071,0.538273,-0.013034,-0.369179,-0.291484,-0.236195,-0.329574,0.385738,0.124343,-0.314593,39.106792,25.801193,8.489561,0.339139,2.027084,0.114303,0.000000,0.000000,0.000000,0.000000,0.000000,0.000000
9689078.000000,2.267007,-1.187850,-1.731477,-1.463127,-1.173367,1.678449,0.538403,-0.014343,-0.360178,-0.290369,-0.237848,-0.323705,0.378737,0.127403,-0.266986,39.059185,25.777390,8.735533,0.297025,2.039901,0.081344,0.000000,0.000000,0.000000,0.000000,0.000000,0.000000
9689079.000000,2.266994,-1.188205,-1.731761,-1.463367,-1.173690,1.678840,0.538528,-0.013595,-0.361558,-0.284542,-0.244545,-0.328591,0.380486,0.129528,-0.266986,38.936199,25.654404,8.858519,0.279630,1.988631,0.054794,0.000000,0.000000,0.000000,0.000000,0.000000,0.000000
9689080.000000,2.266970,-1.188562,-1.732039,-1.463625,-1.174011,1.679218,0.538642,-0.016109,-0.354960,-0.280678,-0.249519,-0.328649,0.375043,0.123266,-0.144000,38.765606,25.559189,9.179869,0.297025,1.988631,0.114303,0.000000,0.000000,0.000000,0.000000,0.000000,0.000000
9689081.000000,2.266953,-1.188917,-1.732315,-1.463877,-1.174336,1.679587,0.538766,-0.016041,-0.355173,-0.278997,-0.250515,-0.331820,0.372804,0.127847,-0.092425,38.519634,25.408432,9.406004,0.279630,2.066451,0.081344,0.000000,0.000000,0.000000,0.000000,0.000000,0.000000
9689082.000000,2.266929,-1.189263,-1.732582,-1.464123,-1.174662,1.679962,0.538880,-0.018030,-0.351415,-0.274971,-0.252592,-0.331274,0.369984,0.123448,0.054365,38.226055,25.237839,9.552794,0.303434,2.157089,0.100570,0.000000,0.000000,0.000000,0.000000,0.000000,0.000000
9689083.000000,2.266906,-1.189616,-1.732859,-1.464378,-1.174982,1.680331,0.539001,-0.018979,-0.351651,-0.271908,-0.251704,-0.330550,0.364885,0.120521,0.177350,38.079266,25.190231,9.727354,0.315336,2.177230,0.114303,0.000000,0.000000,0.000000,0.000000,0.000000,0.000000
9689084.000000,2.266883,-1.189967,-1.733134,-1.464632,-1.175295,1.680711,0.539124,-0.019067,-0.349779,-0.269725,-0.250672,-0.331899,0.370760,0.120842,0.276533,37.956280,25.166428,9.874144,0.255826,2.118636,0.061202,0.000000,0.000000,0.000000,0.000000,0.000000,0.000000
9689085.000000,2.266858,-1.190317,-1.733395,-1.464870,-1.175627,1.681097,0.539235,-0.019997,-0.348225,-0.268695,-0.247061,-0.335381,0.374161,0.113137,0.403486,37.833294,25.043442,9.897947,0.261320,2.066451,0.107894,0.000000,0.000000,0.000000,0.000000,0.000000,0.000000
9689086.000000,2.266830,-1.190673,-1.733664,-1.465115,-1.175950,1.681467,0.539356,-0.020873,-0.346975,-0.266641,-0.246813,-0.331869,0.369472,0.118905,0.550275,37.714275,25.015671,9.897947,0.225614,2.092086,0.081344,0.000000,0.000000,0.000000,0.000000,0.000000,0.000000
9689087.000000,2.266802,-1.191026,-1.733924,-1.465358,-1.176273,1.681840,0.539477,-0.024205,-0.343584,-0.271254,-0.247943,-0.328993,0.369721,0.118265,0.673261,37.738079,24.896652,9.921751,0.189908,2.125045,0.067611,0.000000,0.000000,0.000000,0.000000,0.000000,0.000000
9689088.000000,2.266766,-1.191384,-1.734187,-1.465594,-1.176605,1.682223,0.539591,-0.026318,-0.345956,-0.267126,-0.244631,-0.333032,0.371712,0.119531,0.923200,37.761883,24.773666,9.897947,0.189908,2.131454,0.120712,0.000000,0.000000,0.000000,0.000000,0.000000,0.000000
9689089.000000,2.266740,-1.191740,-1.734451,-1.465839,-1.176940,1.682596,0.539710,-0.024233,-0.349381,-0.266774,-0.243597,-0.331795,0.368104,0.119210,1.022382,37.833294,24.650681,9.921751,0.195402,2.144271,0.094161,0.000000,0.000000,0.000000,0.000000,0.000000,0.000000
9689090.000000,2.266711,-1.192099,-1.734713,-1.466076,-1.177277,1.682974,0.539826,-0.026241,-0.354072,-0.266009,-0.242723,-0.335145,0.375884,0.117715,1.121564,37.884869,24.622910,9.949522,0.207303,2.112228,0.094161,0.000000,0.000000,0.000000,0.000000,0.000000,0.000000
9689091.000000,2.266681,-1.192456,-1.734974,-1.466310,-1.177603,1.683355,0.539940,-0.025717,-0.353428,-0.262607,-0.234651,-0.333904,0.378049,0.116085,1.268354,37.884869,24.503891,9.949522,0.237516,2.072860,0.100570,0.000000,0.000000,0.000000,0.000000,0.000000,0.000000
9689092.000000,2.266651,-1.192795,-1.735237,-1.466531,-1.177940,1.683745,0.540056,-0.027718,-0.347584,-0.264909,-0.230640,-0.340858,0.384154,0.115404,1.391340,37.761883,24.428513,9.874144,0.231107,2.027084,0.100570,0.000000,0.000000,0.000000,0.000000,0.000000,0.000000
9689093.000000,2.266627,-1.193148,-1.735498,-1.466761,-1.178285,1.684124,0.540172,-0.026850,-0.349237,-0.263981,-0.228131,-0.342523,0.379097,0.109594,1.415143,37.686504,24.380905,9.822569,0.255826,1.981307,0.114303,0.000000,0.000000,0.000000,0.000000,0.000000,0.000000
9689094.000000,2.266603,-1.193499,-1.735758,-1.466979,-1.178621,1.684507,0.540294,-0.026588,-0.352188,-0.261462,-0.221620,-0.338556,0.383880,0.112367,1.442914,37.591290,24.281723,9.699583,0.267728,1.962081,0.067611,0.000000,0.000000,0.000000,0.000000,0.000000,0.000000
9689095.000000,2.266570,-1.193847,-1.736015,-1.467195,-1.178951,1.684887,0.540401,-0.031556,-0.349096,-0.260304,-0.215079,-0.342853,0.379693,0.111006,1.565900,37.444500,24.182541,9.628172,0.213712,2.007858,0.107894,0.000000,0.000000,0.000000,0.000000,0.000000,0.000000
9689096.000000,2.266546,-1.194197,-1.736271,-1.467412,-1.179284,1.685254,0.540515,-0.030345,-0.343360,-0.256207,-0.215942,-0.333722,0.373110,0.111474,1.613508,37.297710,24.083359,9.552794,0.166105,2.047225,0.107894,0.000000,0.000000,0.000000,0.000000,0.000000,0.000000
9689097.000000,2.266520,-1.194536,-1.736528,-1.467621,-1.179626,1.685631,0.540634,-0.029563,-0.343321,-0.253646,-0.217768,-0.332851,0.374805,0.113238,1.665082,37.174725,24.011948,9.429808,0.183500,2.039901,0.074935,0.000000,0.000000,0.000000,0.000000,0.000000,0.000000
9689098.000000,2.266491,-1.194887,-1.736782,-1.467836,-1.179957,1.686014,0.540748,-0.030401,-0.341430,-0.255479,-0.213945,-0.335443,0.374929,0.112937,1.764264,37.127117,23.960373,9.429808,0.166105,2.060043,0.114303,0.000000,0.000000,0.000000,0.000000,0.000000,0.000000
9689099.000000,2.266465,-1.195226,-1.737039,-1.468030,-1.180286,1.686389,0.540865,-0.030047,-0.340923,-0.249999,-0.206152,-0.337917,0.370561,0.113613,1.811872,36.952557,23.912766,9.231443,0.166105,2.072860,0.100570,0.000000,0.000000,0.000000,0.000000,0.000000,0.000000
9689100.000000,2.266445,-1.195569,-1.737293,-1.468224,-1.180629,1.686777,0.540983,-0.028167,-0.340059,-0.249850,-0.204002,-0.336104,0.373906,0.109593,1.788068,36.904949,23.888962,9.033079,0.195402,2.014266,0.081344,0.000000,0.000000,0.000000,0.000000,0.000000,0.000000
9689101.000000,2.266424,-1.195913,-1.737556,-1.468423,-1.180962,1.687169,0.541093,-0.024069,-0.336241,-0.252192,-0.200743,-0.334524,0.389635,0.108553,1.788068,36.904949,23.960373,8.910093,0.219205,1.936446,0.127120,0.000000,0.000000,0.000000,0.000000,0.000000,0.000000
9689102.000000,2.266408,-1.196254,-1.737818,-1.468614,-1.181291,1.687559,0.541213,-0.022489,-0.340449,-0.251971,-0.197478,-0.331728,0.388570,0.111737,1.712690,36.881145,23.960373,8.735533,0.207303,1.877853,0.081344,0.000000,0.000000,0.000000,0.000000,0.000000,0.000000
9689103.000000,2.266384,-1.196590,-1.738070,-1.468794,-1.181634,1.687941,0.541330,-0.021175,-0.336979,-0.251420,-0.187612,-0.335783,0.385854,0.111636,1.764264,36.734356,23.936569,8.513365,0.231107,1.858627,0.094161,0.000000,0.000000,0.000000,0.000000,0.000000,0.000000
9689104.000000,2.266376,-1.196926,-1.738323,-1.468983,-1.181971,1.688316,0.541443,-0.018638,-0.336541,-0.250910,-0.188141,-0.332895,0.381296,0.116179,1.613508,36.535992,23.936569,8.366575,0.225614,1.923629,0.120712,0.000000,0.000000,0.000000,0.000000,0.000000,0.000000
9689105.000000,2.266361,-1.197257,-1.738579,-1.469164,-1.182309,1.688699,0.541562,-0.015534,-0.332268,-0.257088,-0.183900,-0.331452,0.377831,0.121571,1.542096,36.293987,23.865158,8.144407,0.243009,1.981307,0.087753,0.000000,0.000000,0.000000,0.000000,0.000000,0.000000
9689107.000000,2.266339,-1.197917,-1.739083,-1.469524,-1.182980,1.689472,0.541797,-0.011540,-0.329327,-0.252349,-0.177427,-0.336208,0.378121,0.121634,1.391340,35.802044,23.742172,7.799254,0.189908,1.981307,0.074935,0.000000,0.000000,0.000000,0.000000,0.000000,0.000000
9689108.000000,2.266332,-1.198250,-1.739335,-1.469698,-1.183326,1.689861,0.541915,-0.009561,-0.327019,-0.250764,-0.180811,-0.339369,0.379025,0.125881,1.292158,35.560040,23.666794,7.648497,0.207303,1.942855,0.054794,0.000000,0.000000,0.000000,0.000000,0.000000,0.000000
9689109.000000,2.266329,-1.198584,-1.739594,-1.469879,-1.183663,1.690245,0.542033,-0.007146,-0.327940,-0.248708,-0.180360,-0.332789,0.376879,0.121300,1.145368,35.290264,23.718369,7.525511,0.189908,1.858627,0.087753,0.000000,0.000000,0.000000,0.000000,0.000000,0.000000
9689110.000000,2.266322,-1.198920,-1.739841,-1.470045,-1.184020,1.690629,0.542148,-0.008036,-0.328767,-0.246495,-0.178798,-0.338004,0.378288,0.123430,1.093793,35.143475,23.595383,7.327147,0.255826,1.825668,0.107894,0.000000,0.000000,0.000000,0.000000,0.000000,0.000000
9689111.000000,2.266316,-1.199253,-1.740088,-1.470216,-1.184374,1.691015,0.542264,-0.004851,-0.328339,-0.245975,-0.176071,-0.340179,0.377828,0.121018,1.022382,34.996685,23.520004,7.204161,0.267728,1.819259,0.114303,0.000000,0.000000,0.000000,0.000000,0.000000,0.000000
9689112.000000,2.266321,-1.199592,-1.740328,-1.470394,-1.184722,1.691394,0.542387,-0.002769,-0.336900,-0.239458,-0.177270,-0.341319,0.373239,0.125582,0.824018,34.897503,23.325607,7.227965,0.273221,1.812850,0.067611,0.000000,0.000000,0.000000,0.000000,0.000000,0.000000
9689113.000000,2.266318,-1.199920,-1.740572,-1.470561,-1.185072,1.691772,0.542501,-0.003043,-0.336058,-0.241032,-0.176627,-0.347256,0.372932,0.122406,0.697065,34.798321,23.226425,7.057372,0.279630,1.819259,0.087753,0.000000,0.000000,0.000000,0.000000,0.000000,0.000000
9689114.000000,2.266316,-1.200261,-1.740813,-1.470734,-1.185416,1.692144,0.542617,-0.000769,-0.336303,-0.241073,-0.175400,-0.340801,0.368274,0.119950,0.601850,34.750713,23.103439,7.005797,0.195402,1.844894,0.087753,0.000000,0.000000,0.000000,0.000000,0.000000,0.000000
9689115.000000,2.266321,-1.200595,-1.741053,-1.470903,-1.185771,1.692525,0.542735,0.000112,-0.331962,-0.237087,-0.175085,-0.347677,0.370478,0.115826,0.403486,34.750713,22.932846,7.005797,0.207303,1.844894,0.054794,0.000000,0.000000,0.000000,0.000000,0.000000,0.000000
9689116.000000,2.266326,-1.200931,-1.741290,-1.471071,-1.186125,1.692903,0.542844,0.001095,-0.333450,-0.239005,-0.168828,-0.348247,0.374170,0.117509,0.205121,34.726910,22.833664,6.981993,0.231107,1.800033,0.114303,0.000000,0.000000,0.000000,0.000000,0.000000,0.000000
9689117.000000,2.266321,-1.201275,-1.741526,-1.471235,-1.186471,1.693284,0.542961,0.001646,-0.335145,-0.235850,-0.169664,-0.351845,0.376444,0.117743,0.129743,34.726910,22.710678,6.934386,0.219205,1.760665,0.100570,0.000000,0.000000,0.000000,0.000000,0.000000,0.000000
9689118.000000,2.266324,-1.201606,-1.741760,-1.471400,-1.186825,1.693667,0.543073,0.003895,-0.334846,-0.236346,-0.170298,-0.349401,0.376350,0.116890,-0.017047,34.651531,22.540085,6.882811,0.207303,1.747848,0.094161,0.000000,0.000000,0.000000,0.000000,0.000000,0.000000
9689119.000000,2.266331,-1.201945,-1.741994,-1.471574,-1.187175,1.694043,0.543188,0.004145,-0.335013,-0.236771,-0.167166,-0.349944,0.381448,0.115094,-0.243182,34.504742,22.365524,6.958189,0.243009,1.689254,0.114303,0.000000,0.000000,0.000000,0.000000,0.000000,0.000000
9689120.000000,2.266328,-1.202290,-1.742225,-1.471742,-1.187519,1.694432,0.543308,0.002691,-0.336347,-0.232815,-0.166325,-0.348593,0.381571,0.120215,-0.266986,34.603924,22.147324,6.958189,0.237516,1.656295,0.074935,0.000000,0.000000,0.000000,0.000000,0.000000,0.000000
9689121.000000,2.266329,-1.202642,-1.742457,-1.471906,-1.187870,1.694821,0.543422,0.003642,-0.339554,-0.233679,-0.165597,-0.349830,0.383539,0.117797,-0.366168,34.679302,21.948959,6.958189,0.171598,1.676437,0.114303,0.000000,0.000000,0.000000,0.000000,0.000000,0.000000
9689122.000000,2.266343,-1.202997,-1.742689,-1.472074,-1.188217,1.695191,0.543540,0.006714,-0.341122,-0.231285,-0.164675,-0.353889,0.381273,0.118166,-0.564532,34.750713,21.778366,6.958189,0.183500,1.702071,0.074935,0.000000,0.000000,0.000000,0.000000,0.000000,0.000000
9689123.000000,2.266350,-1.203348,-1.742921,-1.472246,-1.188560,1.695580,0.543656,0.012219,-0.346761,-0.232950,-0.168410,-0.350828,0.385493,0.122753,-0.635943,34.849895,21.655380,7.005797,0.154203,1.676437,0.054794,0.000000,0.000000,0.000000,0.000000,0.000000,0.000000
9689124.000000,2.266354,-1.203710,-1.743155,-1.472401,-1.188909,1.695972,0.543764,0.007918,-0.350508,-0.232672,-0.162341,-0.357073,0.384968,0.117885,-0.612139,34.972881,21.556198,6.807433,0.100187,1.637069,0.114303,0.000000,0.000000,0.000000,0.000000,0.000000,0.000000
9689125.000000,2.266360,-1.204066,-1.743388,-1.472571,-1.189257,1.696360,0.543878,0.008086,-0.352506,-0.231350,-0.162923,-0.359182,0.385280,0.117747,-0.588336,35.143475,21.409409,6.807433,0.100187,1.578475,0.094161,0.000000,0.000000,0.000000,0.000000,0.000000,0.000000
9689126.000000,2.266378,-1.204426,-1.743626,-1.472730,-1.189608,1.696752,0.543989,0.011443,-0.357070,-0.233531,-0.162216,-0.361065,0.393861,0.115673,-0.687518,35.238689,21.385605,6.759825,0.117582,1.526290,0.120712,0.000000,0.000000,0.000000,0.000000,0.000000,0.000000
9689127.000000,2.266387,-1.204784,-1.743867,-1.472892,-1.189945,1.697142,0.544109,0.010368,-0.356173,-0.235095,-0.161208,-0.349683,0.391409,0.115726,-0.635943,35.290264,21.385605,6.708251,0.117582,1.481429,0.081344,0.000000,0.000000,0.000000,0.000000,0.000000,0.000000
9689128.000000,2.266394,-1.205143,-1.744100,-1.473051,-1.190302,1.697525,0.544217,0.006532,-0.357729,-0.234872,-0.166888,-0.349394,0.387815,0.114163,-0.588336,35.290264,21.187241,6.561461,0.135892,1.481429,0.107894,0.000000,0.000000,0.000000,0.000000,0.000000,0.000000
9689129.000000,2.266407,-1.205501,-1.744338,-1.473218,-1.190661,1.697904,0.544329,0.009917,-0.352443,-0.236458,-0.166934,-0.348413,0.384151,0.114300,-0.663714,35.290264,21.187241,6.585265,0.135892,1.500655,0.100570,0.000000,0.000000,0.000000,0.000000,0.000000,0.000000
9689130.000000,2.266419,-1.205857,-1.744578,-1.473390,-1.191006,1.698278,0.544451,0.011742,-0.351446,-0.232610,-0.167291,-0.347430,0.375985,0.115705,-0.711321,35.266460,21.139633,6.636839,0.129484,1.546432,0.054794,0.000000,0.000000,0.000000,0.000000,0.000000,0.000000
9689131.000000,2.266422,-1.206203,-1.744817,-1.473543,-1.191361,1.698655,0.544563,0.009031,-0.347307,-0.234492,-0.162305,-0.350498,0.375431,0.113878,-0.588336,35.091900,21.139633,6.462279,0.100187,1.559249,0.081344,0.000000,0.000000,0.000000,0.000000,0.000000,0.000000
9689132.000000,2.266432,-1.206555,-1.745062,-1.473709,-1.191717,1.699024,0.544677,0.010173,-0.348352,-0.236450,-0.165214,-0.346547,0.377237,0.113025,-0.588336,34.972881,21.163437,6.438475,0.100187,1.532699,0.100570,0.000000,0.000000,0.000000,0.000000,0.000000,0.000000
9689133.000000,2.266443,-1.206910,-1.745309,-1.473868,-1.192077,1.699402,0.544789,0.011935,-0.351922,-0.238531,-0.164978,-0.352868,0.378616,0.113380,-0.635943,34.897503,21.215012,6.339293,0.141385,1.500655,0.094161,0.000000,0.000000,0.000000,0.000000,0.000000,0.000000
9689134.000000,2.266451,-1.207270,-1.745547,-1.474031,-1.192425,1.699772,0.544900,0.011456,-0.353111,-0.237952,-0.160694,-0.349467,0.373308,0.113291,-0.612139,34.945110,21.187241,6.291686,0.105680,1.513473,0.127120,0.000000,0.000000,0.000000,0.000000,0.000000,0.000000
9689135.000000,2.266453,-1.207636,-1.745799,-1.474194,-1.192781,1.700132,0.545016,0.009028,-0.354275,-0.239340,-0.163984,-0.353245,0.365210,0.114147,-0.489153,34.996685,21.262619,6.263915,0.100187,1.513473,0.107894,0.000000,0.000000,0.000000,0.000000,0.000000,0.000000
9689136.000000,2.266467,-1.207997,-1.746042,-1.474349,-1.193142,1.700503,0.545133,0.011275,-0.353573,-0.245123,-0.160446,-0.357773,0.363461,0.115961,-0.540728,35.119671,21.310226,6.240111,0.154203,1.500655,0.094161,0.000000,0.000000,0.000000,0.000000,0.000000,0.000000
9689137.000000,2.266478,-1.208363,-1.746295,-1.474502,-1.193492,1.700864,0.545245,0.009638,-0.356800,-0.246293,-0.159426,-0.355293,0.367855,0.115243,-0.588336,35.191082,21.433212,6.164732,0.166105,1.539108,0.087753,0.000000,0.000000,0.000000,0.000000,0.000000,0.000000
9689138.000000,2.266479,-1.208722,-1.746546,-1.474666,-1.193853,1.701230,0.545359,0.007363,-0.357610,-0.245482,-0.161540,-0.363054,0.363847,0.119848,-0.465350,35.290264,21.484787,6.192503,0.178007,1.591293,0.061202,0.000000,0.000000,0.000000,0.000000,0.000000,0.000000
9689139.000000,2.266486,-1.209083,-1.746805,-1.474822,-1.194211,1.701594,0.545469,0.008471,-0.361949,-0.250550,-0.159145,-0.358206,0.361586,0.116878,-0.441546,35.385479,21.655380,6.192503,0.171598,1.611434,0.094161,0.000000,0.000000,0.000000,0.000000,0.000000,0.000000
9689140.000000,2.266494,-1.209444,-1.747073,-1.474982,-1.194565,1.701970,0.545586,0.008379,-0.357884,-0.254853,-0.157870,-0.348809,0.359003,0.117039,-0.389971,35.337872,21.877548,6.240111,0.207303,1.546432,0.074935,0.000000,0.000000,0.000000,0.000000,0.000000,0.000000
9689141.000000,2.266499,-1.209796,-1.747337,-1.475133,-1.194918,1.702340,0.545696,0.005394,-0.354706,-0.264995,-0.155482,-0.352242,0.360361,0.114413,-0.342364,35.238689,22.048141,6.216307,0.207303,1.500655,0.120712,0.000000,0.000000,0.000000,0.000000,0.000000,0.000000
9689142.000000,2.266501,-1.210154,-1.747604,-1.475287,-1.195275,1.702687,0.545816,0.005231,-0.355223,-0.264102,-0.158082,-0.359221,0.351489,0.115830,-0.243182,35.068096,22.194931,6.240111,0.171598,1.605026,0.074935,0.000000,0.000000,0.000000,0.000000,0.000000,0.000000
9689143.000000,2.266503,-1.210506,-1.747868,-1.475452,-1.195626,1.703039,0.545930,0.005572,-0.356719,-0.261300,-0.161547,-0.361122,0.349031,0.114872,-0.167803,34.972881,22.270309,6.339293,0.183500,1.727706,0.081344,0.000000,0.000000,0.000000,0.000000,0.000000,0.000000
9689144.000000,2.266510,-1.210872,-1.748126,-1.475617,-1.195982,1.703403,0.546040,0.007297,-0.358526,-0.258667,-0.162134,-0.357578,0.355802,0.114011,-0.144000,34.945110,22.294113,6.486083,0.201810,1.735030,0.094161,0.000000,0.000000,0.000000,0.000000,0.000000,0.000000
9689145.000000,2.266511,-1.211242,-1.748402,-1.475773,-1.196332,1.703754,0.546157,0.005889,-0.360225,-0.259909,-0.161771,-0.349293,0.351910,0.114594,-0.017047,34.945110,22.464706,6.486083,0.135892,1.741439,0.067611,0.000000,0.000000,0.000000,0.000000,0.000000,0.000000
9689146.000000,2.266510,-1.211608,-1.748671,-1.475930,-1.196694,1.704106,0.546264,0.001988,-0.363137,-0.261483,-0.163460,-0.353777,0.353727,0.112460,0.105939,34.873699,22.512314,6.585265,0.141385,1.754256,0.114303,0.000000,0.000000,0.000000,0.000000,0.000000,0.000000
9689147.000000,2.266515,-1.211972,-1.748938,-1.476082,-1.197056,1.704460,0.546382,0.003936,-0.360480,-0.264407,-0.159889,-0.357966,0.348782,0.114518,0.153547,34.750713,22.635300,6.585265,0.178007,1.793624,0.074935,0.000000,0.000000,0.000000,0.000000,0.000000,0.000000
9689148.000000,2.266517,-1.212342,-1.749210,-1.476243,-1.197413,1.704808,0.546493,0.001084,-0.363372,-0.262267,-0.161014,-0.360398,0.348713,0.109446,0.252729,34.798321,22.734482,6.613036,0.195402,1.747848,0.074935,0.000000,0.000000,0.000000,0.000000,0.000000,0.000000
9689149.000000,2.266520,-1.212714,-1.749472,-1.476392,-1.197782,1.705154,0.546595,0.002510,-0.364706,-0.261029,-0.155997,-0.362592,0.347638,0.104308,0.328107,34.849895,22.809860,6.513854,0.237516,1.695663,0.127120,0.000000,0.000000,0.000000,0.000000,0.000000,0.000000
9689150.000000,2.266525,-1.213093,-1.749747,-1.476549,-1.198146,1.705492,0.546709,0.001803,-0.371112,-0.265393,-0.155568,-0.368827,0.343604,0.108211,0.351911,35.020489,22.980453,6.561461,0.261320,1.754256,0.081344,0.000000,0.000000,0.000000,0.000000,0.000000,0.000000
9689151.000000,2.266530,-1.213468,-1.750021,-1.476702,-1.198503,1.705836,0.546823,0.000510,-0.371410,-0.263175,-0.157089,-0.366633,0.340486,0.105608,0.403486,35.091900,23.055832,6.585265,0.231107,1.812850,0.081344,0.000000,0.000000,0.000000,0.000000,0.000000,0.000000
9689152.000000,2.266526,-1.213841,-1.750286,-1.476853,-1.198871,1.706184,0.546934,-0.002708,-0.371223,-0.263451,-0.155479,-0.370262,0.340740,0.107589,0.550275,35.191082,23.079636,6.585265,0.219205,1.806442,0.081344,0.000000,0.000000,0.000000,0.000000,0.000000,0.000000
9689153.000000,2.266531,-1.214225,-1.750557,-1.477008,-1.199235,1.706534,0.547049,0.000745,-0.374277,-0.263484,-0.153949,-0.369459,0.347160,0.109965,0.574079,35.290264,23.127243,6.585265,0.225614,1.767074,0.067611,0.000000,0.000000,0.000000,0.000000,0.000000,0.000000
9689154.000000,2.266534,-1.214596,-1.750821,-1.477165,-1.199594,1.706876,0.547155,0.002800,-0.371749,-0.265824,-0.154320,-0.368103,0.342301,0.109138,0.625654,35.290264,23.103439,6.636839,0.219205,1.832076,0.114303,0.000000,0.000000,0.000000,0.000000,0.000000,0.000000
9689155.000000,2.266534,-1.214972,-1.751096,-1.477319,-1.199956,1.707211,0.547272,0.000790,-0.370037,-0.267790,-0.150023,-0.372463,0.339228,0.112037,0.697065,35.214886,23.202621,6.636839,0.207303,1.903487,0.061202,0.000000,0.000000,0.000000,0.000000,0.000000,0.000000
9689156.000000,2.266532,-1.215343,-1.751362,-1.477479,-1.200329,1.707556,0.547375,-0.001348,-0.367383,-0.265602,-0.152563,-0.366793,0.341032,0.106412,0.796247,35.167278,23.174850,6.736022,0.225614,1.871444,0.094161,0.000000,0.000000,0.000000,0.000000,0.000000,0.000000
9689157.000000,2.266538,-1.215724,-1.751632,-1.477628,-1.200697,1.707918,0.547482,0.000549,-0.372533,-0.266295,-0.151880,-0.365776,0.348075,0.108169,0.748639,35.143475,23.226425,6.736022,0.213712,1.793624,0.114303,0.000000,0.000000,0.000000,0.000000,0.000000,0.000000
9689158.000000,2.266539,-1.216106,-1.751896,-1.477785,-1.201058,1.708268,0.547597,0.000060,-0.369619,-0.262928,-0.153389,-0.357744,0.350222,0.106217,0.772443,35.091900,23.151047,6.835204,0.201810,1.806442,0.074935,0.000000,0.000000,0.000000,0.000000,0.000000,0.000000
9689159.000000,2.266531,-1.216482,-1.752156,-1.477943,-1.201430,1.708617,0.547698,-0.002649,-0.373759,-0.266232,-0.156703,-0.363908,0.346144,0.107506,0.895429,35.044292,23.028061,6.882811,0.183500,1.844894,0.094161,0.000000,0.000000,0.000000,0.000000,0.000000,0.000000
9689160.000000,2.266531,-1.216865,-1.752421,-1.478102,-1.201801,1.708966,0.547808,-0.001625,-0.370564,-0.265236,-0.156189,-0.365105,0.347748,0.110542,0.895429,35.020489,23.004257,6.934386,0.189908,1.890670,0.048385,0.000000,0.000000,0.000000,0.000000,0.000000,0.000000
9689161.000000,2.266535,-1.217243,-1.752680,-1.478258,-1.202169,1.709326,0.547913,0.000136,-0.382019,-0.262980,-0.155005,-0.368324,0.348035,0.109945,0.847822,35.119671,22.932846,6.958189,0.261320,1.838485,0.081344,0.000000,0.000000,0.000000,0.000000,0.000000,0.000000
9689162.000000,2.266535,-1.217633,-1.752934,-1.478411,-1.202532,1.709683,0.548021,0.000170,-0.383298,-0.262352,-0.154347,-0.369701,0.346105,0.111355,0.847822,35.238689,22.881271,6.981993,0.207303,1.819259,0.067611,0.000000,0.000000,0.000000,0.000000,0.000000,0.000000
9689163.000000,2.266533,-1.218018,-1.753193,-1.478571,-1.202897,1.710030,0.548129,-0.000384,-0.383366,-0.262035,-0.155167,-0.364313,0.349802,0.111119,0.871625,35.337872,22.857468,7.081175,0.166105,1.806442,0.081344,0.000000,0.000000,0.000000,0.000000,0.000000,0.000000
9689164.000000,2.266538,-1.218404,-1.753453,-1.478725,-1.203265,1.710391,0.548239,0.000902,-0.385800,-0.259795,-0.158519,-0.364923,0.348444,0.111074,0.824018,35.385479,22.857468,7.057372,0.159696,1.773483,0.100570,0.000000,0.000000,0.000000,0.000000,0.000000,0.000000
9689165.000000,2.266545,-1.218796,-1.753705,-1.478881,-1.203639,1.710756,0.548349,0.001841,-0.387320,-0.259016,-0.156391,-0.369370,0.352661,0.113490,0.772443,35.583843,22.786057,7.057372,0.147794,1.721298,0.081344,0.000000,0.000000,0.000000,0.000000,0.000000,0.000000
9689166.000000,2.266544,-1.219193,-1.753963,-1.479038,-1.204012,1.711110,0.548453,0.003031,-0.390523,-0.259245,-0.156392,-0.369175,0.355068,0.111724,0.824018,35.706829,22.758286,7.128783,0.159696,1.682845,0.133529,0.000000,0.000000,0.000000,0.000000,0.000000,0.000000
9689167.000000,2.266543,-1.219579,-1.754224,-1.479197,-1.204383,1.711466,0.548567,0.000618,-0.390589,-0.259273,-0.158252,-0.368367,0.352281,0.113582,0.895429,35.754436,22.833664,7.279540,0.171598,1.747848,0.100570,0.000000,0.000000,0.000000,0.000000,0.000000,0.000000
9689168.000000,2.266543,-1.219980,-1.754473,-1.479353,-1.204752,1.711813,0.548681,-0.001151,-0.391551,-0.254151,-0.155429,-0.373730,0.352702,0.114833,0.970807,35.853619,22.710678,7.402525,0.201810,1.779891,0.061202,0.000000,0.000000,0.000000,0.000000,0.000000,0.000000
9689169.000000,2.266547,-1.220361,-1.754728,-1.479510,-1.205133,1.712165,0.548785,0.001302,-0.384646,-0.256031,-0.161311,-0.377116,0.350287,0.107499,1.022382,35.853619,22.663071,7.501708,0.225614,1.760665,0.120712,0.000000,0.000000,0.000000,0.000000,0.000000,0.000000
9689170.000000,2.266558,-1.220743,-1.754984,-1.479665,-1.205505,1.712512,0.548900,0.004930,-0.385521,-0.255573,-0.159255,-0.377500,0.351903,0.106099,0.994611,35.730633,22.686874,7.549315,0.195402,1.767074,0.074935,0.000000,0.000000,0.000000,0.000000,0.000000,0.000000
9689171.000000,2.266559,-1.221128,-1.755238,-1.479820,-1.205870,1.712861,0.549009,0.001500,-0.382547,-0.252659,-0.157399,-0.374988,0.352940,0.107330,1.093793,35.706829,22.635300,7.600890,0.201810,1.793624,0.087753,0.000000,0.000000,0.000000,0.000000,0.000000,0.000000
9689172.000000,2.266567,-1.221512,-1.755494,-1.479972,-1.206248,1.713212,0.549112,0.001400,-0.385232,-0.261267,-0.155892,-0.380512,0.348559,0.108617,1.093793,35.706829,22.663071,7.624693,0.178007,1.812850,0.100570,0.000000,0.000000,0.000000,0.000000,0.000000,0.000000
9689173.000000,2.266575,-1.221901,-1.755753,-1.480128,-1.206622,1.713565,0.549224,0.006574,-0.380737,-0.261103,-0.153848,-0.376613,0.348370,0.105188,1.145368,35.778240,22.635300,7.747679,0.159696,1.773483,0.094161,0.000000,0.000000,0.000000,0.000000,0.000000,0.000000
9689174.000000,2.266582,-1.222285,-1.756018,-1.480280,-1.206982,1.713919,0.549335,0.007890,-0.384951,-0.263410,-0.153243,-0.368979,0.356203,0.112225,1.169172,35.877422,22.710678,7.771483,0.147794,1.760665,0.087753,0.000000,0.000000,0.000000,0.000000,0.000000,0.000000
9689175.000000,2.266589,-1.222666,-1.756276,-1.480433,-1.207354,1.714269,0.549447,0.008619,-0.380418,-0.262653,-0.156708,-0.368352,0.350002,0.108151,1.192975,35.778240,22.686874,7.823058,0.159696,1.793624,0.074935,0.000000,0.000000,0.000000,0.000000,0.000000,0.000000
9689176.000000,2.266600,-1.223041,-1.756534,-1.480592,-1.207723,1.714613,0.549555,0.010260,-0.377898,-0.260441,-0.156816,-0.361219,0.351904,0.104447,1.169172,35.583843,22.611496,7.922240,0.183500,1.806442,0.094161,0.000000,0.000000,0.000000,0.000000,0.000000,0.000000
9689177.000000,2.266608,-1.223420,-1.756796,-1.480742,-1.208093,1.714961,0.549663,0.010505,-0.375046,-0.265972,-0.152910,-0.363368,0.349089,0.102188,1.192975,35.460857,22.611496,7.969847,0.207303,1.806442,0.087753,0.000000,0.000000,0.000000,0.000000,0.000000,0.000000
9689178.000000,2.266621,-1.223790,-1.757060,-1.480893,-1.208467,1.715314,0.549766,0.012110,-0.372243,-0.266683,-0.152592,-0.365640,0.350997,0.105097,1.145368,35.214886,22.663071,7.993651,0.249418,1.832076,0.081344,0.000000,0.000000,0.000000,0.000000,0.000000,0.000000
9689179.000000,2.266630,-1.224159,-1.757319,-1.481037,-1.208836,1.715660,0.549872,0.009609,-0.380326,-0.259762,-0.147501,-0.364735,0.347612,0.106446,1.121564,34.897503,22.563889,7.946043,0.225614,1.858627,0.100570,0.000000,0.000000,0.000000,0.000000,0.000000,0.000000
9689180.000000,2.266639,-1.224521,-1.757577,-1.481188,-1.209206,1.716015,0.549982,0.010433,-0.375098,-0.258962,-0.149536,-0.362736,0.350507,0.110167,1.121564,34.532513,22.611496,7.993651,0.189908,1.838485,0.067611,0.000000,0.000000,0.000000,0.000000,0.000000,0.000000
9689181.000000,2.266654,-1.224901,-1.757829,-1.481332,-1.209565,1.716364,0.550088,0.008987,-0.375268,-0.255048,-0.144440,-0.359595,0.353334,0.105092,1.069990,34.310345,22.540085,7.922240,0.141385,1.825668,0.094161,0.000000,0.000000,0.000000,0.000000,0.000000,0.000000
9689182.000000,2.266665,-1.225266,-1.758088,-1.481469,-1.209941,1.716717,0.550195,0.009354,-0.373335,-0.253629,-0.142279,-0.365385,0.350732,0.102842,1.093793,34.139751,22.512314,7.799254,0.112089,1.812850,0.087753,0.000000,0.000000,0.000000,0.000000,0.000000,0.000000
9689183.000000,2.266675,-1.225641,-1.758341,-1.481610,-1.210327,1.717056,0.550297,0.010885,-0.372040,-0.250561,-0.139711,-0.367666,0.341207,0.104495,1.069990,34.016766,22.540085,7.723876,0.166105,1.865035,0.120712,0.000000,0.000000,0.000000,0.000000,0.000000,0.000000
9689184.000000,2.266689,-1.226025,-1.758593,-1.481748,-1.210695,1.717390,0.550410,0.009204,-0.373259,-0.252582,-0.137091,-0.368000,0.340325,0.108191,1.022382,34.088177,22.512314,7.624693,0.183500,1.877853,0.081344,0.000000,0.000000,0.000000,0.000000,0.000000,0.000000
9689185.000000,2.266701,-1.226401,-1.758848,-1.481882,-1.211082,1.717732,0.550516,0.007968,-0.374238,-0.253437,-0.138115,-0.373782,0.339808,0.109577,0.970807,34.064373,22.540085,7.501708,0.237516,1.871444,0.094161,0.000000,0.000000,0.000000,0.000000,0.000000,0.000000
9689186.000000,2.266714,-1.226787,-1.759104,-1.482023,-1.211468,1.718075,0.550627,0.008842,-0.374725,-0.250870,-0.140144,-0.383795,0.349928,0.110108,0.970807,34.211163,22.587692,7.450133,0.297025,1.800033,0.100570,0.000000,0.000000,0.000000,0.000000,0.000000,0.000000
9689187.000000,2.266727,-1.227170,-1.759369,-1.482163,-1.211843,1.718420,0.550741,0.009555,-0.378454,-0.250661,-0.138334,-0.379203,0.345185,0.112341,0.970807,34.310345,22.710678,7.378722,0.291532,1.735030,0.074935,0.000000,0.000000,0.000000,0.000000,0.000000,0.000000
9689188.000000,2.266740,-1.227553,-1.759619,-1.482297,-1.212224,1.718757,0.550845,0.010451,-0.375206,-0.249881,-0.136965,-0.384019,0.338730,0.111586,0.947004,34.334148,22.686874,7.303343,0.261320,1.735030,0.100570,0.000000,0.000000,0.000000,0.000000,0.000000,0.000000
9689192.000000,2.266798,-1.229081,-1.760631,-1.482822,-1.213733,1.720080,0.551294,0.017993,-0.377677,-0.246067,-0.133606,-0.375601,0.332105,0.111197,0.824018,34.334148,22.417099,7.227965,0.178007,1.865035,0.054794,0.000000,0.000000,0.000000,0.000000,0.000000,0.000000
9689193.000000,2.266809,-1.229471,-1.760879,-1.482952,-1.214105,1.720425,0.551397,0.016377,-0.385254,-0.246523,-0.134954,-0.373226,0.334323,0.109941,0.824018,34.409527,22.365524,7.227965,0.183500,1.844894,0.120712,0.000000,0.000000,0.000000,0.000000,0.000000,0.000000
9689194.000000,2.266823,-1.229870,-1.761129,-1.483082,-1.214470,1.720772,0.551513,0.012823,-0.386216,-0.243298,-0.130001,-0.369375,0.335576,0.107720,0.796247,34.556316,22.317917,7.255736,0.195402,1.727706,0.074935,0.000000,0.000000,0.000000,0.000000,0.000000,0.000000
9689195.000000,2.266837,-1.230262,-1.761390,-1.483201,-1.214849,1.721115,0.551624,0.013820,-0.391406,-0.246618,-0.127103,-0.374660,0.342500,0.109472,0.748639,34.750713,22.341721,7.180357,0.219205,1.682845,0.067611,0.000000,0.000000,0.000000,0.000000,0.000000,0.000000
9689196.000000,2.266855,-1.230664,-1.761643,-1.483322,-1.215230,1.721463,0.551730,0.014399,-0.393250,-0.245231,-0.125166,-0.378428,0.339844,0.107771,0.697065,34.921307,22.365524,7.104979,0.243009,1.727706,0.133529,0.000000,0.000000,0.000000,0.000000,0.000000,0.000000
9689197.000000,2.266877,-1.231074,-1.761897,-1.483440,-1.215593,1.721800,0.551852,0.016019,-0.404215,-0.246087,-0.123210,-0.374412,0.338283,0.112495,0.601850,35.167278,22.365524,7.005797,0.219205,1.767074,0.067611,0.000000,0.000000,0.000000,0.000000,0.000000,0.000000
9689198.000000,2.266895,-1.231478,-1.762149,-1.483562,-1.215970,1.722143,0.551962,0.014742,-0.404026,-0.248185,-0.122565,-0.379169,0.339008,0.116755,0.601850,35.361675,22.393295,6.934386,0.154203,1.747848,0.081344,0.000000,0.000000,0.000000,0.000000,0.000000,0.000000
9689199.000000,2.266913,-1.231886,-1.762401,-1.483681,-1.216343,1.722486,0.552072,0.017838,-0.404947,-0.248753,-0.120478,-0.373338,0.344738,0.114759,0.574079,35.583843,22.393295,6.807433,0.147794,1.721298,0.120712,0.000000,0.000000,0.000000,0.000000,0.000000,0.000000
9689200.000000,2.266940,-1.232289,-1.762659,-1.483799,-1.216713,1.722835,0.552180,0.016611,-0.403483,-0.250975,-0.122989,-0.370569,0.339264,0.114612,0.427289,35.730633,22.464706,6.736022,0.112089,1.702071,0.120712,0.000000,0.000000,0.000000,0.000000,0.000000,0.000000
9689201.000000,2.266957,-1.232690,-1.762911,-1.483916,-1.217092,1.723191,0.552290,0.015699,-0.402055,-0.251359,-0.119663,-0.375360,0.340963,0.114825,0.403486,35.754436,22.488510,6.684447,0.129484,1.662704,0.114303,0.000000,0.000000,0.000000,0.000000,0.000000,0.000000
9689202.000000,2.266982,-1.233100,-1.763171,-1.484029,-1.217471,1.723529,0.552405,0.019871,-0.401393,-0.249578,-0.116680,-0.368166,0.340650,0.116301,0.304304,35.754436,22.587692,6.613036,0.189908,1.662704,0.067611,0.000000,0.000000,0.000000,0.000000,0.000000,0.000000
9689203.000000,2.267010,-1.233504,-1.763424,-1.484140,-1.217853,1.723879,0.552503,0.020514,-0.400604,-0.250619,-0.115498,-0.373425,0.339923,0.113231,0.177350,35.853619,22.611496,6.585265,0.243009,1.656295,0.127120,0.000000,0.000000,0.000000,0.000000,0.000000,0.000000
9689204.000000,2.267038,-1.233920,-1.763687,-1.484248,-1.218226,1.724219,0.552618,0.024057,-0.403341,-0.253206,-0.113948,-0.377793,0.347532,0.116162,0.054365,36.024212,22.710678,6.537657,0.279630,1.656295,0.061202,0.000000,0.000000,0.000000,0.000000,0.000000,0.000000
9689205.000000,2.267062,-1.234321,-1.763948,-1.484362,-1.218612,1.724560,0.552713,0.021857,-0.400866,-0.250339,-0.114225,-0.379362,0.341417,0.112094,0.006757,36.071819,22.758286,6.537657,0.267728,1.649886,0.133529,0.000000,0.000000,0.000000,0.000000,0.000000,0.000000
9689206.000000,2.267091,-1.234738,-1.764207,-1.484475,-1.218988,1.724897,0.552828,0.022062,-0.401059,-0.252494,-0.117163,-0.373630,0.340825,0.115535,-0.116229,36.242413,22.857468,6.537657,0.213712,1.649886,0.067611,0.000000,0.000000,0.000000,0.000000,0.000000,0.000000
9689207.000000,2.267119,-1.235151,-1.764467,-1.484589,-1.219358,1.725240,0.552939,0.024685,-0.401152,-0.249258,-0.116653,-0.368294,0.340371,0.115413,-0.215411,36.416973,22.905075,6.561461,0.183500,1.649886,0.054794,0.000000,0.000000,0.000000,0.000000,0.000000,0.000000
9689208.000000,2.267156,-1.235555,-1.764727,-1.484700,-1.219737,1.725577,0.553041,0.028377,-0.401293,-0.256045,-0.116326,-0.376458,0.339718,0.107592,-0.389971,36.464581,22.980453,6.585265,0.147794,1.714889,0.127120,0.000000,0.000000,0.000000,0.000000,0.000000,0.000000
9689209.000000,2.267186,-1.235957,-1.764991,-1.484813,-1.220121,1.725911,0.553159,0.029178,-0.395995,-0.253473,-0.116796,-0.379790,0.335059,0.111451,-0.489153,36.440777,23.079636,6.636839,0.147794,1.721298,0.061202,0.000000,0.000000,0.000000,0.000000,0.000000,0.000000
9689210.000000,2.267214,-1.236359,-1.765264,-1.484923,-1.220497,1.726253,0.553260,0.028516,-0.406170,-0.258574,-0.112703,-0.378551,0.336365,0.110269,-0.540728,36.389202,23.226425,6.636839,0.195402,1.721298,0.114303,0.000000,0.000000,0.000000,0.000000,0.000000,0.000000
9689211.000000,2.267257,-1.236761,-1.765532,-1.485034,-1.220886,1.726593,0.553366,0.032618,-0.400524,-0.262250,-0.111271,-0.385628,0.336564,0.106351,-0.762896,36.341595,23.349411,6.708251,0.225614,1.727706,0.114303,0.000000,0.000000,0.000000,0.000000,0.000000,0.000000
9689212.000000,2.267284,-1.237161,-1.765795,-1.485145,-1.221274,1.726922,0.553473,0.030207,-0.396909,-0.259225,-0.111818,-0.381303,0.338009,0.104161,-0.762896,36.171001,23.373215,6.736022,0.315336,1.721298,0.100570,0.000000,0.000000,0.000000,0.000000,0.000000,0.000000
9689213.000000,2.267316,-1.237565,-1.766058,-1.485256,-1.221647,1.727249,0.553571,0.033172,-0.395515,-0.257873,-0.111872,-0.380545,0.338130,0.105053,-0.834307,36.171001,23.420822,6.736022,0.267728,1.741439,0.140853,0.000000,0.000000,0.000000,0.000000,0.000000,0.000000
9689214.000000,2.267350,-1.237983,-1.766323,-1.485375,-1.222029,1.727580,0.553683,0.032444,-0.396042,-0.263493,-0.110631,-0.385982,0.336648,0.105170,-0.909686,36.171001,23.496201,6.807433,0.243009,1.793624,0.067611,0.000000,0.000000,0.000000,0.000000,0.000000,0.000000
9689215.000000,2.267380,-1.238393,-1.766586,-1.485488,-1.222410,1.727908,0.553786,0.033604,-0.394642,-0.259872,-0.110887,-0.388883,0.337161,0.107304,-0.933489,36.171001,23.520004,6.807433,0.183500,1.806442,0.061202,0.000000,0.000000,0.000000,0.000000,0.000000,0.000000
9689216.000000,2.267413,-1.238804,-1.766843,-1.485598,-1.222798,1.728241,0.553878,0.035682,-0.400154,-0.260003,-0.111498,-0.386397,0.337169,0.101843,-0.985064,36.194805,23.496201,6.807433,0.159696,1.812850,0.140853,0.000000,0.000000,0.000000,0.000000,0.000000,0.000000
9689217.000000,2.267449,-1.239218,-1.767112,-1.485707,-1.223189,1.728568,0.553986,0.037546,-0.401742,-0.265457,-0.111538,-0.379514,0.337608,0.102109,-1.060443,36.270184,23.567612,6.807433,0.171598,1.832076,0.081344,0.000000,0.000000,0.000000,0.000000,0.000000,0.000000
9689218.000000,2.267479,-1.239636,-1.767376,-1.485814,-1.223589,1.728905,0.554085,0.034127,-0.404588,-0.262257,-0.113657,-0.386999,0.333768,0.098631,-1.060443,36.365398,23.595383,6.783629,0.189908,1.825668,0.127120,0.000000,0.000000,0.000000,0.000000,0.000000,0.000000
9689219.000000,2.267511,-1.240047,-1.767638,-1.485921,-1.223989,1.729244,0.554190,0.032352,-0.404414,-0.263408,-0.112888,-0.394266,0.337461,0.098785,-1.084246,36.416973,23.642990,6.759825,0.243009,1.767074,0.120712,0.000000,0.000000,0.000000,0.000000,0.000000,0.000000
9689220.000000,2.267544,-1.240459,-1.767907,-1.486031,-1.224381,1.729570,0.554300,0.034283,-0.401855,-0.261839,-0.112837,-0.386095,0.334661,0.099157,-1.108050,36.341595,23.742172,6.759825,0.279630,1.727706,0.081344,0.000000,0.000000,0.000000,0.000000,0.000000,0.000000
9689221.000000,2.267576,-1.240867,-1.768166,-1.486139,-1.224784,1.729898,0.554402,0.035134,-0.401146,-0.261280,-0.111803,-0.391330,0.330664,0.103236,-1.108050,36.317791,23.718369,6.708251,0.303434,1.721298,0.081344,0.000000,0.000000,0.000000,0.000000,0.000000,0.000000
9689222.000000,2.267610,-1.241280,-1.768419,-1.486249,-1.225182,1.730225,0.554504,0.033196,-0.401429,-0.258106,-0.111998,-0.394546,0.334634,0.100016,-1.131854,36.218609,23.567612,6.708251,0.291532,1.754256,0.100570,0.000000,0.000000,0.000000,0.000000,0.000000,0.000000
9689223.000000,2.267647,-1.241690,-1.768684,-1.486362,-1.225563,1.730558,0.554608,0.032863,-0.402348,-0.262010,-0.113096,-0.396516,0.331599,0.100258,-1.207232,36.242413,23.543808,6.736022,0.255826,1.754256,0.087753,0.000000,0.000000,0.000000,0.000000,0.000000,0.000000
9689224.000000,2.267672,-1.242112,-1.768934,-1.486474,-1.225966,1.730884,0.554715,0.028419,-0.406258,-0.255565,-0.114736,-0.398198,0.327837,0.099752,-1.108050,36.270184,23.373215,6.807433,0.255826,1.779891,0.061202,0.000000,0.000000,0.000000,0.000000,0.000000,0.000000
9689225.000000,2.267701,-1.242528,-1.769190,-1.486579,-1.226351,1.731209,0.554812,0.026335,-0.404897,-0.255711,-0.109625,-0.386685,0.325709,0.100903,-1.060443,36.270184,23.297836,6.759825,0.231107,1.800033,0.133529,0.000000,0.000000,0.000000,0.000000,0.000000,0.000000
9689226.000000,2.267731,-1.242942,-1.769448,-1.486685,-1.226732,1.731545,0.554917,0.028902,-0.410043,-0.260500,-0.107982,-0.385370,0.327067,0.106347,-1.032672,36.242413,23.325607,6.783629,0.201810,1.735030,0.074935,0.000000,0.000000,0.000000,0.000000,0.000000,0.000000
9689227.000000,2.267760,-1.243359,-1.769697,-1.486796,-1.227131,1.731878,0.555018,0.030005,-0.408424,-0.254174,-0.109819,-0.391904,0.328356,0.102417,-0.985064,36.317791,23.151047,6.807433,0.219205,1.656295,0.094161,0.000000,0.000000,0.000000,0.000000,0.000000,0.000000
9689228.000000,2.267783,-1.243779,-1.769954,-1.486906,-1.227523,1.732200,0.555112,0.026149,-0.420353,-0.252322,-0.109952,-0.396797,0.331107,0.098731,-0.862078,36.464581,23.103439,6.783629,0.255826,1.656295,0.140853,0.000000,0.000000,0.000000,0.000000,0.000000,0.000000
9689229.000000,2.267807,-1.244201,-1.770200,-1.487018,-1.227910,1.732527,0.555218,0.027603,-0.421418,-0.249724,-0.112666,-0.396571,0.329644,0.100547,-0.786700,36.587566,22.980453,6.859007,0.219205,1.721298,0.081344,0.000000,0.000000,0.000000,0.000000,0.000000,0.000000
9689230.000000,2.267828,-1.244628,-1.770457,-1.487128,-1.228298,1.732855,0.555315,0.026964,-0.421099,-0.249120,-0.110414,-0.391526,0.326055,0.102283,-0.635943,36.658978,22.932846,6.906615,0.213712,1.760665,0.114303,0.000000,0.000000,0.000000,0.000000,0.000000,0.000000
9689231.000000,2.267854,-1.245043,-1.770718,-1.487236,-1.228691,1.733192,0.555417,0.029063,-0.421560,-0.252405,-0.111963,-0.390834,0.335443,0.100066,-0.588336,36.758160,23.028061,6.981993,0.219205,1.735030,0.127120,0.000000,0.000000,0.000000,0.000000,0.000000,0.000000
9689232.000000,2.267878,-1.245463,-1.770962,-1.487338,-1.229075,1.733533,0.555526,0.026556,-0.418382,-0.250552,-0.107730,-0.384609,0.343584,0.104732,-0.512957,36.758160,22.956650,6.934386,0.201810,1.682845,0.094161,0.000000,0.000000,0.000000,0.000000,0.000000,0.000000
9689233.000000,2.267902,-1.245886,-1.771220,-1.487450,-1.229460,1.733867,0.555626,0.025054,-0.416961,-0.253221,-0.108574,-0.389767,0.342306,0.106604,-0.441546,36.758160,22.956650,7.057372,0.178007,1.689254,0.114303,0.000000,0.000000,0.000000,0.000000,0.000000,0.000000
9689234.000000,2.267924,-1.246316,-1.771468,-1.487551,-1.229854,1.734203,0.555732,0.026537,-0.422089,-0.252731,-0.107353,-0.392777,0.340049,0.104336,-0.342364,36.857342,22.932846,7.104979,0.171598,1.721298,0.094161,0.000000,0.000000,0.000000,0.000000,0.000000,0.000000
9689235.000000,2.267945,-1.246735,-1.771725,-1.487654,-1.230240,1.734530,0.555836,0.024722,-0.422272,-0.250360,-0.105212,-0.388954,0.331005,0.106545,-0.266986,36.857342,22.980453,7.104979,0.159696,1.714889,0.107894,0.000000,0.000000,0.000000,0.000000,0.000000,0.000000
9689236.000000,2.267968,-1.247151,-1.771982,-1.487757,-1.230630,1.734870,0.555942,0.026906,-0.420417,-0.251088,-0.106463,-0.393161,0.338418,0.105040,-0.191607,36.833538,23.004257,7.104979,0.154203,1.708480,0.067611,0.000000,0.000000,0.000000,0.000000,0.000000,0.000000
9689237.000000,2.267988,-1.247574,-1.772230,-1.487864,-1.231029,1.735212,0.556045,0.023909,-0.420188,-0.246926,-0.107127,-0.397180,0.333487,0.106579,-0.068621,36.904949,22.956650,7.204161,0.178007,1.721298,0.087753,0.000000,0.000000,0.000000,0.000000,0.000000,0.000000
9689238.000000,2.268015,-1.247994,-1.772492,-1.487971,-1.231422,1.735549,0.556141,0.025982,-0.418490,-0.247808,-0.106770,-0.388430,0.335245,0.101660,-0.116229,36.904949,23.103439,7.279540,0.201810,1.727706,0.140853,0.000000,0.000000,0.000000,0.000000,0.000000,0.000000
9689239.000000,2.268036,-1.248415,-1.772742,-1.488069,-1.231815,1.735887,0.556245,0.023767,-0.418033,-0.249027,-0.104883,-0.392296,0.332803,0.102214,-0.017047,37.075542,23.127243,7.279540,0.207303,1.682845,0.081344,0.000000,0.000000,0.000000,0.000000,0.000000,0.000000
9689240.000000,2.268059,-1.248824,-1.773002,-1.488162,-1.232212,1.736219,0.556340,0.023147,-0.412849,-0.251814,-0.101579,-0.397829,0.337051,0.098207,0.030561,36.952557,23.226425,7.204161,0.249418,1.682845,0.127120,0.000000,0.000000,0.000000,0.000000,0.000000,0.000000
9689241.000000,2.268084,-1.249233,-1.773262,-1.488264,-1.232608,1.736549,0.556446,0.020985,-0.414938,-0.253368,-0.103075,-0.399626,0.332662,0.103421,0.030561,36.881145,23.325607,7.279540,0.243009,1.695663,0.074935,0.000000,0.000000,0.000000,0.000000,0.000000,0.000000
9689242.000000,2.268108,-1.249637,-1.773519,-1.488358,-1.233003,1.736872,0.556536,0.018478,-0.409194,-0.254171,-0.099156,-0.400988,0.324338,0.098670,0.054365,36.635174,23.397018,7.279540,0.255826,1.708480,0.140853,0.000000,0.000000,0.000000,0.000000,0.000000,0.000000
9689243.000000,2.268127,-1.250045,-1.773783,-1.488452,-1.233400,1.737177,0.556644,0.017845,-0.406664,-0.254015,-0.097840,-0.395308,0.324877,0.099469,0.153547,36.440777,23.472397,7.227965,0.255826,1.800033,0.094161,0.000000,0.000000,0.000000,0.000000,0.000000,0.000000
9689244.000000,2.268149,-1.250449,-1.774039,-1.488547,-1.233789,1.737498,0.556746,0.018682,-0.408028,-0.257599,-0.097917,-0.392702,0.318647,0.098727,0.205121,36.242413,23.520004,7.204161,0.237516,1.844894,0.087753,0.000000,0.000000,0.000000,0.000000,0.000000,0.000000
9689245.000000,2.268175,-1.250854,-1.774297,-1.488645,-1.234177,1.737821,0.556845,0.020836,-0.403795,-0.256580,-0.098577,-0.396174,0.319559,0.096744,0.205121,36.000408,23.567612,7.204161,0.225614,1.844894,0.107894,0.000000,0.000000,0.000000,0.000000,0.000000,0.000000
9689246.000000,2.268197,-1.251249,-1.774560,-1.488745,-1.234568,1.738129,0.556950,0.021074,-0.407513,-0.258840,-0.100870,-0.397889,0.310551,0.102407,0.252729,35.706829,23.619186,7.279540,0.189908,1.851302,0.067611,0.000000,0.000000,0.000000,0.000000,0.000000,0.000000
9689247.000000,2.268219,-1.251652,-1.774815,-1.488830,-1.234972,1.738438,0.557044,0.017884,-0.404071,-0.257290,-0.099527,-0.401172,0.312029,0.094353,0.304304,35.560040,23.642990,7.227965,0.249418,1.871444,0.100570,0.000000,0.000000,0.000000,0.000000,0.000000,0.000000
9689248.000000,2.268243,-1.252067,-1.775073,-1.488918,-1.235357,1.738741,0.557144,0.016404,-0.404077,-0.256336,-0.095339,-0.394501,0.308278,0.099592,0.328107,35.560040,23.690598,7.180357,0.225614,1.909896,0.094161,0.000000,0.000000,0.000000,0.000000,0.000000,0.000000
9689249.000000,2.268263,-1.252477,-1.775336,-1.489001,-1.235764,1.739050,0.557246,0.017753,-0.408847,-0.259013,-0.091890,-0.398801,0.306322,0.103435,0.375715,35.607647,23.742172,7.104979,0.255826,1.930038,0.081344,0.000000,0.000000,0.000000,0.000000,0.000000,0.000000
9689250.000000,2.268286,-1.252891,-1.775594,-1.489086,-1.236166,1.739354,0.557340,0.015611,-0.407217,-0.258416,-0.090526,-0.396583,0.300830,0.098960,0.427289,35.631451,23.813583,7.081175,0.267728,1.930038,0.140853,0.000000,0.000000,0.000000,0.000000,0.000000,0.000000
9689251.000000,2.268308,-1.253308,-1.775852,-1.489174,-1.236549,1.739660,0.557448,0.017389,-0.411597,-0.257012,-0.090607,-0.390175,0.302256,0.105199,0.451093,35.730633,23.865158,7.104979,0.213712,1.903487,0.074935,0.000000,0.000000,0.000000,0.000000,0.000000,0.000000
9689252.000000,2.268330,-1.253719,-1.776099,-1.489255,-1.236953,1.739974,0.557542,0.018400,-0.410282,-0.254473,-0.088289,-0.396620,0.302509,0.102968,0.502668,35.778240,23.813583,7.029601,0.183500,1.884261,0.100570,0.000000,0.000000,0.000000,0.000000,0.000000,0.000000
9689253.000000,2.268353,-1.254134,-1.776354,-1.489342,-1.237353,1.740282,0.557645,0.019804,-0.413749,-0.253627,-0.088262,-0.393216,0.301299,0.100685,0.526471,35.802044,23.813583,7.029601,0.201810,1.916305,0.100570,0.000000,0.000000,0.000000,0.000000,0.000000,0.000000
9689254.000000,2.268373,-1.254537,-1.776609,-1.489430,-1.237752,1.740591,0.557745,0.020301,-0.411680,-0.252300,-0.091634,-0.392492,0.301158,0.104511,0.574079,35.706829,23.789780,7.057372,0.213712,1.942855,0.081344,0.000000,0.000000,0.000000,0.000000,0.000000,0.000000
9689255.000000,2.268397,-1.254960,-1.776859,-1.489523,-1.238163,1.740905,0.557848,0.020330,-0.418334,-0.251235,-0.090499,-0.402836,0.310552,0.106359,0.625654,35.829815,23.765976,7.180357,0.273221,1.955673,0.087753,0.000000,0.000000,0.000000,0.000000,0.000000,0.000000
9689256.000000,2.268414,-1.255370,-1.777121,-1.489602,-1.238568,1.741219,0.557952,0.019137,-0.414418,-0.251929,-0.085837,-0.397823,0.313713,0.108359,0.748639,35.706829,23.813583,7.156554,0.315336,1.942855,0.087753,0.000000,0.000000,0.000000,0.000000,0.000000,0.000000
9689257.000000,2.268435,-1.255789,-1.777368,-1.489690,-1.238964,1.741542,0.558054,0.019983,-0.419920,-0.258553,-0.088598,-0.394865,0.312799,0.104179,0.796247,35.802044,23.765976,7.255736,0.327238,1.871444,0.114303,0.000000,0.000000,0.000000,0.000000,0.000000,0.000000
9689258.000000,2.268450,-1.256220,-1.777620,-1.489773,-1.239366,1.741852,0.558162,0.018442,-0.418703,-0.254057,-0.085570,-0.396056,0.311518,0.103393,0.923200,36.000408,23.789780,7.279540,0.279630,1.832076,0.067611,0.000000,0.000000,0.000000,0.000000,0.000000,0.000000
9689259.000000,2.268472,-1.256644,-1.777871,-1.489858,-1.239760,1.742166,0.558255,0.019600,-0.422235,-0.251405,-0.083332,-0.397142,0.311943,0.103615,0.970807,36.218609,23.718369,7.303343,0.219205,1.884261,0.107894,0.000000,0.000000,0.000000,0.000000,0.000000,0.000000
9689260.000000,2.268489,-1.257076,-1.778114,-1.489942,-1.240153,1.742481,0.558354,0.019152,-0.424101,-0.250610,-0.085370,-0.392085,0.312205,0.101147,1.069990,36.416973,23.690598,7.350951,0.166105,1.930038,0.114303,0.000000,0.000000,0.000000,0.000000,0.000000,0.000000
9689261.000000,2.268510,-1.257513,-1.778358,-1.490021,-1.240546,1.742805,0.558460,0.019967,-0.427957,-0.245965,-0.085003,-0.387627,0.315207,0.106245,1.121564,36.587566,23.642990,7.327147,0.123990,1.909896,0.067611,0.000000,0.000000,0.000000,0.000000,0.000000,0.000000
9689262.000000,2.268530,-1.257934,-1.778606,-1.490101,-1.240947,1.743123,0.558551,0.020389,-0.422158,-0.250839,-0.085675,-0.393924,0.308240,0.100948,1.169172,36.658978,23.595383,7.327147,0.147794,1.877853,0.127120,0.000000,0.000000,0.000000,0.000000,0.000000,0.000000
9689263.000000,2.268553,-1.258367,-1.778854,-1.490186,-1.241343,1.743440,0.558655,0.021260,-0.424788,-0.252808,-0.086635,-0.394154,0.311047,0.100784,1.192975,36.805767,23.666794,7.350951,0.189908,1.897079,0.087753,0.000000,0.000000,0.000000,0.000000,0.000000,0.000000
9689264.000000,2.268578,-1.258785,-1.779095,-1.490266,-1.241740,1.743758,0.558752,0.019533,-0.427675,-0.251240,-0.083211,-0.402749,0.314885,0.099136,1.192975,36.758160,23.642990,7.327147,0.195402,1.858627,0.087753,0.000000,0.000000,0.000000,0.000000,0.000000,0.000000
9689265.000000,2.268600,-1.259221,-1.779336,-1.490348,-1.242147,1.744081,0.558843,0.020624,-0.432656,-0.251779,-0.082483,-0.408802,0.313225,0.093686,1.216779,36.833538,23.666794,7.378722,0.231107,1.793624,0.107894,0.000000,0.000000,0.000000,0.000000,0.000000,0.000000
9689266.000000,2.268628,-1.259658,-1.779583,-1.490420,-1.242538,1.744390,0.558943,0.022831,-0.427158,-0.245556,-0.078110,-0.400612,0.311011,0.094556,1.169172,36.952557,23.690598,7.279540,0.213712,1.773483,0.087753,0.000000,0.000000,0.000000,0.000000,0.000000,0.000000
9689267.000000,2.268650,-1.260087,-1.779820,-1.490492,-1.242944,1.744704,0.559034,0.022403,-0.429343,-0.241490,-0.079070,-0.406489,0.311533,0.093730,1.216779,37.051739,23.595383,7.227965,0.178007,1.825668,0.107894,0.000000,0.000000,0.000000,0.000000,0.000000,0.000000
9689268.000000,2.268679,-1.260522,-1.780063,-1.490568,-1.243351,1.745013,0.559134,0.024310,-0.424149,-0.241147,-0.078847,-0.405472,0.311424,0.094504,1.169172,37.174725,23.619186,7.255736,0.141385,1.897079,0.094161,0.000000,0.000000,0.000000,0.000000,0.000000,0.000000
9689269.000000,2.268708,-1.260964,-1.780310,-1.490641,-1.243744,1.745333,0.559236,0.024750,-0.428215,-0.239939,-0.076658,-0.398059,0.310507,0.095806,1.145368,37.345318,23.619186,7.204161,0.112089,1.865035,0.074935,0.000000,0.000000,0.000000,0.000000,0.000000,0.000000
9689270.000000,2.268735,-1.261385,-1.780548,-1.490707,-1.244151,1.745653,0.559328,0.025084,-0.421662,-0.239580,-0.071560,-0.404501,0.314966,0.093673,1.145368,37.392925,23.595383,7.128783,0.117582,1.806442,0.120712,0.000000,0.000000,0.000000,0.000000,0.000000,0.000000
9689271.000000,2.268766,-1.261814,-1.780797,-1.490775,-1.244561,1.745967,0.559423,0.026535,-0.421670,-0.241171,-0.071354,-0.411898,0.315769,0.094565,1.093793,37.392925,23.666794,7.081175,0.141385,1.819259,0.100570,0.000000,0.000000,0.000000,0.000000,0.000000,0.000000
9689272.000000,2.268802,-1.262233,-1.781044,-1.490846,-1.244974,1.746283,0.559516,0.028203,-0.419131,-0.246636,-0.069536,-0.412561,0.311173,0.090009,0.994611,37.345318,23.666794,7.081175,0.189908,1.844894,0.094161,0.000000,0.000000,0.000000,0.000000,0.000000,0.000000
9689273.000000,2.268832,-1.262654,-1.781287,-1.490907,-1.245386,1.746606,0.559606,0.031214,-0.416105,-0.247682,-0.068878,-0.415723,0.310643,0.091540,0.970807,37.150921,23.666794,6.981993,0.207303,1.793624,0.100570,0.000000,0.000000,0.000000,0.000000,0.000000,0.000000
9689274.000000,2.268871,-1.263069,-1.781534,-1.490975,-1.245796,1.746913,0.559702,0.032714,-0.410628,-0.247736,-0.066971,-0.408230,0.312845,0.097378,0.824018,36.928753,23.666794,6.958189,0.249418,1.800033,0.094161,0.000000,0.000000,0.000000,0.000000,0.000000,0.000000
9689275.000000,2.268906,-1.263495,-1.781778,-1.491041,-1.246209,1.747234,0.559790,0.034907,-0.417384,-0.255664,-0.065744,-0.404716,0.314117,0.095391,0.772443,36.881145,23.642990,6.934386,0.303434,1.812850,0.127120,0.000000,0.000000,0.000000,0.000000,0.000000,0.000000
9689276.000000,2.268937,-1.263909,-1.782028,-1.491104,-1.246609,1.747551,0.559887,0.034963,-0.417115,-0.254982,-0.064422,-0.407206,0.315007,0.096894,0.772443,36.658978,23.666794,6.906615,0.213712,1.832076,0.074935,0.000000,0.000000,0.000000,0.000000,0.000000,0.000000
9689277.000000,2.268974,-1.264323,-1.782274,-1.491169,-1.247015,1.747868,0.559976,0.037098,-0.415464,-0.252499,-0.064347,-0.408045,0.315814,0.098405,0.697065,36.440777,23.619186,6.906615,0.219205,1.858627,0.127120,0.000000,0.000000,0.000000,0.000000,0.000000,0.000000
9689278.000000,2.269019,-1.264739,-1.782524,-1.491218,-1.247422,1.748184,0.560071,0.040572,-0.415655,-0.253545,-0.058064,-0.406914,0.312901,0.094120,0.550275,36.293987,23.666794,6.783629,0.219205,1.844894,0.100570,0.000000,0.000000,0.000000,0.000000,0.000000,0.000000
9689279.000000,2.269052,-1.265159,-1.782779,-1.491276,-1.247819,1.748497,0.560165,0.038776,-0.415897,-0.250232,-0.058967,-0.403427,0.313835,0.094889,0.574079,36.147198,23.718369,6.759825,0.183500,1.871444,0.081344,0.000000,0.000000,0.000000,0.000000,0.000000,0.000000
9689280.000000,2.269092,-1.265574,-1.783025,-1.491330,-1.248235,1.748808,0.560255,0.039998,-0.418102,-0.253384,-0.055793,-0.410183,0.310038,0.093307,0.502668,36.071819,23.642990,6.708251,0.195402,1.890670,0.120712,0.000000,0.000000,0.000000,0.000000,0.000000,0.000000
9689281.000000,2.269132,-1.265996,-1.783277,-1.491385,-1.248646,1.749119,0.560355,0.039947,-0.412260,-0.250770,-0.053402,-0.411457,0.308667,0.094282,0.451093,36.000408,23.690598,6.660643,0.231107,1.871444,0.100570,0.000000,0.000000,0.000000,0.000000,0.000000,0.000000
9689282.000000,2.269174,-1.266408,-1.783530,-1.491439,-1.249042,1.749429,0.560452,0.040811,-0.425490,-0.253439,-0.052424,-0.405914,0.308994,0.093221,0.375715,35.948833,23.690598,6.636839,0.159696,1.819259,0.127120,0.000000,0.000000,0.000000,0.000000,0.000000,0.000000
9689283.000000,2.269213,-1.266829,-1.783771,-1.491486,-1.249469,1.749742,0.560549,0.039417,-0.421959,-0.250633,-0.053490,-0.407618,0.306725,0.094257,0.375715,35.901226,23.595383,6.561461,0.231107,1.812850,0.107894,0.000000,0.000000,0.000000,0.000000,0.000000,0.000000
9689284.000000,2.269257,-1.267250,-1.784020,-1.491538,-1.249879,1.750044,0.560645,0.040155,-0.422088,-0.244967,-0.052822,-0.406037,0.304246,0.094621,0.304304,35.829815,23.619186,6.561461,0.249418,1.844894,0.100570,0.000000,0.000000,0.000000,0.000000,0.000000,0.000000
9689285.000000,2.269297,-1.267670,-1.784273,-1.491584,-1.250300,1.750349,0.560736,0.040392,-0.416744,-0.245179,-0.053419,-0.412995,0.300011,0.089267,0.252729,35.802044,23.690598,6.486083,0.279630,1.825668,0.114303,0.000000,0.000000,0.000000,0.000000,0.000000,0.000000
9689286.000000,2.269335,-1.268085,-1.784513,-1.491626,-1.250722,1.750652,0.560833,0.041796,-0.416172,-0.241533,-0.050526,-0.422533,0.300587,0.091358,0.276533,35.683025,23.619186,6.386900,0.327238,1.825668,0.094161,0.000000,0.000000,0.000000,0.000000,0.000000,0.000000
9689288.000000,2.269418,-1.268924,-1.784993,-1.491722,-1.251533,1.751257,0.561023,0.040488,-0.418635,-0.243647,-0.050919,-0.409001,0.300865,0.093497,0.228925,35.508465,23.543808,6.386900,0.273221,1.825668,0.100570,0.000000,0.000000,0.000000,0.000000,0.000000,0.000000
9689289.000000,2.269461,-1.269341,-1.785236,-1.491769,-1.251940,1.751551,0.561117,0.040113,-0.411316,-0.240933,-0.049579,-0.413658,0.303090,0.093891,0.205121,35.413250,23.472397,6.339293,0.255826,1.858627,0.094161,0.000000,0.000000,0.000000,0.000000,0.000000,0.000000
9689290.000000,2.269499,-1.269765,-1.785480,-1.491819,-1.252348,1.751845,0.561205,0.038012,-0.417816,-0.241075,-0.047894,-0.412324,0.300893,0.093655,0.252729,35.484661,23.496201,6.386900,0.249418,1.916305,0.147262,0.000000,0.000000,0.000000,0.000000,0.000000,0.000000
9689291.000000,2.269541,-1.270193,-1.785709,-1.491857,-1.252755,1.752157,0.561305,0.037577,-0.415646,-0.238759,-0.043656,-0.413659,0.306273,0.096444,0.276533,35.560040,23.420822,6.315489,0.213712,1.909896,0.081344,0.000000,0.000000,0.000000,0.000000,0.000000,0.000000
9689292.000000,2.269583,-1.270631,-1.785953,-1.491905,-1.253158,1.752464,0.561394,0.037793,-0.422469,-0.239127,-0.042885,-0.406831,0.305881,0.090347,0.276533,35.730633,23.448593,6.339293,0.249418,1.897079,0.107894,0.000000,0.000000,0.000000,0.000000,0.000000,0.000000
9689293.000000,2.269621,-1.271055,-1.786191,-1.491946,-1.253556,1.752775,0.561489,0.037276,-0.419189,-0.241454,-0.041253,-0.406993,0.306396,0.091782,0.304304,35.829815,23.472397,6.315489,0.249418,1.851302,0.100570,0.000000,0.000000,0.000000,0.000000,0.000000,0.000000
9689294.000000,2.269659,-1.271497,-1.786430,-1.491988,-1.253958,1.753090,0.561581,0.039259,-0.424277,-0.243297,-0.040378,-0.411705,0.312765,0.091007,0.351911,36.024212,23.448593,6.315489,0.225614,1.773483,0.133529,0.000000,0.000000,0.000000,0.000000,0.000000,0.000000
9689295.000000,2.269702,-1.271935,-1.786670,-1.492025,-1.254368,1.753434,0.561691,0.040206,-0.433181,-0.244542,-0.037365,-0.410218,0.321062,0.096716,0.328107,36.242413,23.420822,6.216307,0.261320,1.467696,0.001693,0.000000,0.000000,0.000000,0.000000,0.000000,0.000000
9689296.000000,2.269748,-1.272386,-1.786915,-1.492064,-1.254872,1.753950,0.561763,0.041101,-0.436176,-0.244427,-0.037298,-0.440809,0.385590,0.087627,0.252729,36.440777,23.472397,6.192503,1.133817,-0.320329,0.219589,0.000000,0.000000,0.000000,0.000000,0.000000,0.000000
9689297.000000,2.269780,-1.272822,-1.787180,-1.492122,-1.255367,1.754369,0.561889,0.036015,-0.431190,-0.250960,-0.046337,-0.462738,0.395575,0.101128,0.427289,36.512188,23.841354,6.438475,1.803068,-1.068314,-0.083451,0.000000,0.000000,0.000000,0.000000,0.000000,0.000000
9689298.000000,2.269797,-1.273277,-1.787371,-1.492148,-1.255858,1.754698,0.561962,0.029178,-0.437356,-0.226745,-0.038560,-0.479102,0.377804,0.092741,0.748639,36.857342,23.103439,6.216307,2.179349,-0.632523,0.081344,0.000000,0.000000,0.000000,0.000000,0.000000,0.000000
9689299.000000,2.269863,-1.273747,-1.787557,-1.492130,-1.256522,1.755331,0.562032,0.043665,-0.447737,-0.213227,-0.019514,-0.540528,0.459869,0.081403,0.403486,37.369122,22.365524,5.399046,4.014066,-2.667741,0.272689,0.000000,0.000000,0.000000,0.000000,0.000000,0.000000
9689300.000000,2.269947,-1.274213,-1.787816,-1.492139,-1.256964,1.755906,0.562153,0.059257,-0.461555,-0.226260,-0.016533,-0.507470,0.502120,0.090632,-0.215411,37.833294,22.710678,5.006285,3.476652,-3.942155,0.001693,0.000000,0.000000,0.000000,0.000000,0.000000,0.000000
9689301.000000,2.269958,-1.274667,-1.787907,-1.492084,-1.257564,1.756347,0.562264,0.044861,-0.459262,-0.180004,0.011471,-0.535492,0.485378,0.097794,0.252729,38.079266,20.699265,3.768492,4.122098,-3.591508,-0.175919,0.000000,0.000000,0.000000,0.000000,0.000000,0.000000
9689302.000000,2.270016,-1.275143,-1.788009,-1.492039,-1.258077,1.756785,0.562325,0.047962,-0.461068,-0.151792,0.020760,-0.527861,0.468383,0.086064,0.054365,38.472027,18.953659,2.828245,3.871244,-3.103532,0.094161,0.000000,0.000000,0.000000,0.000000,0.000000,0.000000
9689303.000000,2.270113,-1.275628,-1.788092,-1.492029,-1.258517,1.757268,0.562459,0.062356,-0.470431,-0.128361,0.017587,-0.494586,0.466614,0.102531,-0.687518,39.059185,17.164413,2.558470,2.902616,-2.954301,-0.287614,0.000000,0.000000,0.000000,0.000000,0.000000,0.000000
9689304.000000,2.270117,-1.276089,-1.788059,-1.491920,-1.259026,1.757668,0.562544,0.043205,-0.461531,-0.072493,0.052027,-0.500025,0.438891,0.096419,-0.068621,39.130596,14.069931,1.023131,2.705778,-2.063493,-0.202470,0.000000,0.000000,0.000000,0.000000,0.000000,0.000000
9689305.000000,2.270159,-1.276515,-1.788075,-1.491839,-1.259465,1.758061,0.562645,0.043322,-0.448326,-0.048394,0.062611,-0.467434,0.415468,0.099034,0.006757,38.595013,12.010910,0.059080,2.042020,-1.399735,-0.287614,0.000000,0.000000,0.000000,0.000000,0.000000,0.000000
9689306.000000,2.270234,-1.276917,-1.788062,-1.491832,-1.259902,1.758485,0.562751,0.055219,-0.430540,-0.024569,0.043154,-0.448287,0.408300,0.104865,-0.413775,37.809490,9.947922,0.257445,1.594327,-1.256913,-0.360856,0.000000,0.000000,0.000000,0.000000,0.000000,0.000000
9689307.000000,2.270217,-1.277281,-1.787972,-1.491776,-1.260402,1.758912,0.562859,0.031915,-0.403231,0.017150,0.045174,-0.471173,0.421160,0.107952,0.502668,36.389202,7.127182,-0.163088,1.982511,-1.418961,-0.400223,0.000000,0.000000,0.000000,0.000000,0.000000,0.000000
9689308.000000,2.270217,-1.277630,-1.787929,-1.491710,-1.260817,1.759320,0.562960,0.022679,-0.385864,0.025881,0.049845,-0.456131,0.416858,0.110858,1.145368,35.068096,5.333969,-0.706606,1.821378,-1.686295,-0.347123,0.000000,0.000000,0.000000,0.000000,0.000000,0.000000
9689309.000000,2.270246,-1.277982,-1.787849,-1.491673,-1.261262,1.759716,0.563066,0.024631,-0.371343,0.044196,0.044398,-0.453483,0.410608,0.111234,1.315961,33.794598,3.346359,-0.730409,2.077726,-1.919755,-0.340714,0.000000,0.000000,0.000000,0.000000,0.000000,0.000000
9689310.000000,2.270243,-1.278294,-1.787708,-1.491619,-1.261686,1.760070,0.563164,0.016539,-0.348257,0.074019,0.046835,-0.445089,0.396215,0.104478,1.887250,32.203716,0.819198,-1.000185,2.203153,-1.900529,-0.274796,0.000000,0.000000,0.000000,0.000000,0.000000,0.000000
9689311.000000,2.270219,-1.278587,-1.787585,-1.491578,-1.262018,1.760374,0.563274,-0.000579,-0.326662,0.089105,0.040768,-0.414898,0.362770,0.103655,2.680707,30.541424,-1.172379,-1.051759,1.516508,-1.529740,-0.314164,0.000000,0.000000,0.000000,0.000000,0.000000,0.000000
9689312.000000,2.270200,-1.278855,-1.787449,-1.491553,-1.262328,1.760725,0.563378,-0.006543,-0.303209,0.104211,0.034455,-0.378291,0.360024,0.100345,3.347211,28.827557,-3.037003,-0.877199,0.774930,-1.718339,-0.294938,0.000000,0.000000,0.000000,0.000000,0.000000,0.000000
9689313.000000,2.270177,-1.279104,-1.787277,-1.491523,-1.262655,1.761069,0.563468,-0.013304,-0.285580,0.125411,0.028608,-0.357220,0.360418,0.096007,3.989912,27.042278,-5.171402,-0.754213,0.362943,-1.991166,-0.215287,0.000000,0.000000,0.000000,0.000000,0.000000,0.000000
9689314.000000,2.270154,-1.279326,-1.787143,-1.491489,-1.262948,1.761368,0.563570,-0.016249,-0.259817,0.124245,0.028498,-0.337133,0.343944,0.096938,4.537397,25.082439,-6.571854,-0.655031,-0.192782,-1.841935,-0.235429,0.000000,0.000000,0.000000,0.000000,0.000000,0.000000
9689315.000000,2.270121,-1.279517,-1.787023,-1.491453,-1.263220,1.761655,0.563667,-0.023831,-0.234104,0.120041,0.027734,-0.307878,0.321948,0.096022,5.180097,22.852825,-7.650955,-0.655031,-0.712802,-1.659745,-0.229020,0.000000,0.000000,0.000000,0.000000,0.000000,0.000000
9689316.000000,2.270094,-1.279675,-1.786899,-1.491425,-1.263522,1.761957,0.563757,-0.023168,-0.207253,0.118465,0.027475,-0.310733,0.319425,0.095048,5.676008,20.504192,-8.730057,-0.532045,-0.790621,-1.705521,-0.202470,0.000000,0.000000,0.000000,0.000000,0.000000,0.000000
9689317.000000,2.270069,-1.279808,-1.786797,-1.491419,-1.263808,1.762278,0.563840,-0.023904,-0.179035,0.112836,0.019137,-0.305325,0.320909,0.092248,6.096540,18.080181,-9.440201,-0.186891,-1.023165,-1.861161,-0.122819,0.000000,0.000000,0.000000,0.000000,0.000000,0.000000
9689318.000000,2.270027,-1.279919,-1.786705,-1.491410,-1.264054,1.762603,0.563927,-0.027822,-0.157980,0.102937,0.011852,-0.281707,0.324480,0.086714,6.786848,15.537151,-9.983719,0.086851,-1.436068,-2.089127,-0.056901,0.000000,0.000000,0.000000,0.000000,0.000000,0.000000
9689319.000000,2.269996,-1.279997,-1.786623,-1.491407,-1.264310,1.762899,0.564018,-0.028548,-0.130099,0.093254,0.006180,-0.276673,0.315668,0.089638,7.258955,12.918743,-10.372513,0.380431,-1.704318,-2.043351,-0.070634,0.000000,0.000000,0.000000,0.000000,0.000000,0.000000
9689320.000000,2.269987,-1.280063,-1.786564,-1.491418,-1.264564,1.763154,0.564096,-0.020569,-0.109243,0.079683,-0.000757,-0.267572,0.295119,0.082503,7.358137,10.419353,-10.447891,0.800963,-1.919466,-1.718339,0.034652,0.000000,0.000000,0.000000,0.000000,0.000000,0.000000
9689321.000000,2.269972,-1.280112,-1.786514,-1.491419,-1.264837,1.763413,0.564189,-0.023520,-0.085960,0.066624,0.000016,-0.273116,0.281738,0.088676,7.532697,7.971539,-10.471695,0.975523,-2.015597,-1.418961,-0.037675,0.000000,0.000000,0.000000,0.000000,0.000000,0.000000
9689322.000000,2.269955,-1.280148,-1.786490,-1.491420,-1.265135,1.763680,0.564261,-0.022471,-0.067397,0.052067,-0.001395,-0.283875,0.275819,0.081100,7.679487,5.622906,-10.253494,1.098509,-1.883761,-1.211137,0.081344,0.000000,0.000000,0.000000,0.000000,0.000000,0.000000
9689323.000000,2.269960,-1.280174,-1.786492,-1.491430,-1.265455,1.763941,0.564345,-0.013972,-0.053652,0.034453,-0.003910,-0.295265,0.274653,0.081344,7.481122,3.393291,-9.832962,1.273070,-1.585299,-1.087540,0.048385,0.000000,0.000000,0.000000,0.000000,0.000000,0.000000
9689324.000000,2.269965,-1.280180,-1.786512,-1.491435,-1.265796,1.764218,0.564424,-0.005758,-0.037585,0.013917,-0.002893,-0.311468,0.276981,0.076857,7.306562,1.215252,-9.317215,1.320677,-1.238314,-1.171769,0.034652,0.000000,0.000000,0.000000,0.000000,0.000000,0.000000
9689325.000000,2.269974,-1.280198,-1.786547,-1.491428,-1.266156,1.764489,0.564496,0.000313,-0.033456,-0.007303,0.001012,-0.334921,0.285413,0.070058,7.112165,-0.593830,-8.777664,1.221495,-0.981967,-1.250504,0.081344,0.000000,0.000000,0.000000,0.000000,0.000000,0.000000
9689326.000000,2.269992,-1.280216,-1.786593,-1.491413,-1.266527,1.764764,0.564575,0.006315,-0.027355,-0.021970,0.006894,-0.352082,0.281439,0.076582,6.838422,-2.236286,-8.261917,0.975523,-0.850131,-1.276139,0.061202,0.000000,0.000000,0.000000,0.000000,0.000000,0.000000
9689327.000000,2.270017,-1.280260,-1.786634,-1.491398,-1.266907,1.765038,0.564656,0.010391,-0.033665,-0.029983,0.010142,-0.364302,0.277102,0.082645,6.564680,-3.386799,-7.992142,0.753355,-0.831820,-1.282548,0.021835,0.000000,0.000000,0.000000,0.000000,0.000000,0.000000
9689328.000000,2.270039,-1.280312,-1.786686,-1.491372,-1.267285,1.765295,0.564728,0.014085,-0.041398,-0.036306,0.014540,-0.363239,0.268670,0.083845,6.394086,-4.338947,-7.722366,0.432005,-0.951754,-1.139725,0.067611,0.000000,0.000000,0.000000,0.000000,0.000000,0.000000
9689329.000000,2.270059,-1.280376,-1.786735,-1.491335,-1.267678,1.765539,0.564801,0.013797,-0.048647,-0.037518,0.020840,-0.369177,0.254498,0.080631,6.342512,-5.025288,-7.599380,-0.036134,-1.089083,-0.905351,0.100570,0.000000,0.000000,0.000000,0.000000,0.000000,0.000000
9689330.000000,2.270092,-1.280464,-1.786793,-1.491296,-1.268081,1.765803,0.564887,0.018998,-0.062751,-0.043267,0.026922,-0.376145,0.260400,0.082858,6.068769,-5.394245,-7.428787,-0.456667,-1.185214,-0.833939,0.009017,0.000000,0.000000,0.000000,0.000000,0.000000,0.000000
9689331.000000,2.270127,-1.280572,-1.786850,-1.491255,-1.268499,1.766076,0.564965,0.022117,-0.081557,-0.047854,0.033909,-0.382362,0.265461,0.082285,5.822797,-5.465656,-7.381180,-0.853395,-1.202609,-0.918168,-0.031266,0.000000,0.000000,0.000000,0.000000,0.000000,0.000000
9689332.000000,2.270149,-1.280699,-1.786910,-1.491216,-1.268937,1.766354,0.565032,0.023750,-0.097894,-0.052059,0.033525,-0.399030,0.273668,0.082135,5.747419,-5.394245,-7.452591,-1.150941,-1.160494,-1.022538,0.048385,0.000000,0.000000,0.000000,0.000000,0.000000,0.000000
