chaoyuefei/paper-gmrm-data/batch01/robot_logs/s2_dq_mrm_max_0.50_log_20260314_170204.csv
# time_ms,q_0,q_1,q_2,q_3,q_4,q_5,q_6,dq_0,dq_1,dq_2,dq_3,dq_4,dq_5,dq_6,tau_J_0,tau_J_1,tau_J_2,tau_J_3,tau_J_4,tau_J_5,tau_J_6,O_dP_EE_c_0,O_dP_EE_c_1,O_dP_EE_c_2,O_dP_EE_c_3,O_dP_EE_c_4,O_dP_EE_c_5
10385923.000000,2.271043,-1.155475,-1.702180,-1.436086,-1.140841,1.634948,0.524371,-0.001255,0.000207,0.000551,-0.000198,0.000039,-0.000468,-0.000645,0.228925,36.218609,22.611496,8.537169,0.948881,1.357833,-0.116410,0.000000,0.000000,0.000000,0.000000,0.000000,0.000000
10385924.000000,2.271044,-1.155475,-1.702182,-1.436082,-1.140843,1.634950,0.524377,-0.000280,0.000138,-0.000839,0.000982,-0.000618,0.000434,0.001537,0.205121,36.218609,22.663071,8.489561,0.966276,1.337692,-0.169511,0.000000,0.000000,0.000000,0.000000,0.000000,0.000000
10385925.000000,2.271046,-1.155474,-1.702181,-1.436086,-1.140841,1.634949,0.524372,0.000463,0.000649,0.000090,-0.000459,0.000232,0.000052,-0.000434,0.177350,36.194805,22.635300,8.537169,0.948881,1.344100,-0.130143,0.000000,0.000000,0.000000,0.000000,0.000000,0.000000
10385926.000000,2.271046,-1.155475,-1.702182,-1.436082,-1.140840,1.634949,0.524376,0.000309,-0.000124,0.000060,0.000808,0.000392,0.000035,0.000932,0.177350,36.218609,22.635300,8.489561,0.942472,1.344100,-0.163102,0.000000,0.000000,0.000000,0.000000,0.000000,0.000000
10385927.000000,2.271036,-1.155478,-1.702182,-1.436087,-1.140840,1.634949,0.524375,-0.013039,-0.009236,-0.009919,0.000646,-0.002355,0.000973,0.008290,-0.191607,35.802044,22.119553,8.612547,0.882963,1.318465,-0.097184,0.000000,0.000000,0.000000,0.000000,0.000000,0.000000
10385928.000000,2.271023,-1.155457,-1.702199,-1.436088,-1.140830,1.634949,0.524392,-0.025291,-0.010299,-0.028418,0.004316,0.001056,-0.002591,0.016322,-1.849932,33.893780,20.552475,8.858519,0.547880,1.279098,-0.083451,0.000000,0.000000,0.000000,0.000000,0.000000,0.000000
10385929.000000,2.271014,-1.155412,-1.702268,-1.436072,-1.140812,1.634932,0.524426,-0.021891,0.005945,-0.046866,0.007078,0.005197,-0.009934,0.023781,-4.968218,30.565228,18.168137,8.985472,0.015958,1.364242,-0.110001,0.000000,0.000000,0.000000,0.000000,0.000000,0.000000
10385930.000000,2.270976,-1.155417,-1.702365,-1.436055,-1.140830,1.634922,0.524454,-0.018819,0.004823,-0.062584,0.006257,-0.004416,-0.009950,0.024568,-8.459430,27.089886,15.272018,9.108458,-0.204684,1.435653,-0.011124,0.000000,0.000000,0.000000,0.000000,0.000000,0.000000
10385931.000000,2.270921,-1.155469,-1.702488,-1.436045,-1.140881,1.634929,0.524515,-0.019405,-0.004814,-0.074923,0.005647,-0.020218,-0.002941,0.035412,-11.974444,24.078716,12.252914,9.231443,-0.192782,1.448470,-0.031266,0.000000,0.000000,0.000000,0.000000,0.000000,0.000000
10385932.000000,2.270832,-1.155542,-1.702629,-1.436045,-1.140962,1.634975,0.524587,-0.030572,-0.013748,-0.085472,-0.001305,-0.042194,0.015348,0.047023,-14.624591,21.460308,9.602768,9.231443,-0.013339,1.234237,-0.017533,0.000000,0.000000,0.000000,0.000000,0.000000,0.000000
10385933.000000,2.270742,-1.155646,-1.702771,-1.436064,-1.141070,1.635072,0.524674,-0.030547,-0.037398,-0.089719,-0.013153,-0.063159,0.044364,0.061195,-16.282915,19.575848,7.567551,8.957701,0.315336,0.713302,-0.004716,0.000000,0.000000,0.000000,0.000000,0.000000,0.000000
10385934.000000,2.270657,-1.155783,-1.702914,-1.436100,-1.141186,1.635209,0.524789,-0.034619,-0.064065,-0.096157,-0.026577,-0.082998,0.079002,0.082616,-16.628069,18.520550,6.119492,8.192015,0.535978,0.056869,-0.004716,0.000000,0.000000,0.000000,0.000000,0.000000,0.000000
10385935.000000,2.270593,-1.155940,-1.703036,-1.436178,-1.141298,1.635355,0.524923,-0.039441,-0.088805,-0.099425,-0.047512,-0.091173,0.103863,0.102499,-16.060747,18.056377,5.087997,7.279540,0.584501,-0.345963,0.028243,0.000000,0.000000,0.000000,0.000000,0.000000,0.000000
10385936.000000,2.270540,-1.156098,-1.703145,-1.436267,-1.141416,1.635498,0.525098,-0.043175,-0.114479,-0.099133,-0.060354,-0.098024,0.115967,0.128409,-14.771380,17.909588,4.377853,5.795775,0.518583,-0.320329,-0.064225,0.000000,0.000000,0.000000,0.000000,0.000000,0.000000
10385937.000000,2.270495,-1.156240,-1.703258,-1.436372,-1.141513,1.635649,0.525272,-0.047972,-0.127433,-0.104047,-0.072070,-0.096302,0.122721,0.141038,-13.113055,17.691387,4.108078,4.042235,0.123990,0.050460,-0.017533,0.000000,0.000000,0.000000,0.000000,0.000000,0.000000
10385938.000000,2.270461,-1.156369,-1.703370,-1.436506,-1.141623,1.635840,0.525469,-0.048227,-0.127105,-0.108233,-0.089228,-0.097074,0.138551,0.159747,-11.407123,17.251019,4.080307,2.435484,-0.252291,0.316879,-0.070634,0.000000,0.000000,0.000000,0.000000,0.000000,0.000000
10385939.000000,2.270408,-1.156467,-1.703476,-1.436679,-1.141755,1.636079,0.525666,-0.055448,-0.121137,-0.110064,-0.108942,-0.107447,0.167710,0.166895,-9.427447,16.441692,4.080307,1.098509,-0.503146,0.381881,-0.070634,0.000000,0.000000,0.000000,0.000000,0.000000,0.000000
10385940.000000,2.270348,-1.156546,-1.703600,-1.436894,-1.141899,1.636346,0.525869,-0.063612,-0.107246,-0.121270,-0.137118,-0.118076,0.203599,0.179543,-7.396197,15.362591,4.278671,0.309019,-0.688998,0.414840,-0.037675,0.000000,0.000000,0.000000,0.000000,0.000000,0.000000
10385941.000000,2.270263,-1.156609,-1.703725,-1.437133,-1.142095,1.636642,0.526081,-0.074250,-0.091797,-0.124467,-0.167122,-0.147428,0.228763,0.188323,-5.218157,14.164471,4.449265,-0.186891,-0.545260,0.408431,-0.056901,0.000000,0.000000,0.000000,0.000000,0.000000,0.000000
10385942.000000,2.270161,-1.156665,-1.703857,-1.437400,-1.142336,1.636979,0.526289,-0.087790,-0.079053,-0.128560,-0.194595,-0.182844,0.263402,0.191183,-3.012347,13.013958,4.596054,-0.409059,-0.150668,0.356246,-0.004716,0.000000,0.000000,0.000000,0.000000,0.000000,0.000000
10385943.000000,2.270048,-1.156727,-1.703983,-1.437687,-1.142591,1.637327,0.526502,-0.098443,-0.072335,-0.133295,-0.221544,-0.205064,0.287833,0.194688,-0.885882,11.986431,4.548447,-0.309877,0.171598,0.343429,0.015426,0.000000,0.000000,0.000000,0.000000,0.000000,0.000000
10385944.000000,2.269913,-1.156803,-1.704114,-1.437988,-1.142857,1.637690,0.526724,-0.112728,-0.075469,-0.134485,-0.244668,-0.225956,0.303031,0.201573,1.268354,11.153301,4.401657,-0.135317,0.381254,0.388290,-0.044083,0.000000,0.000000,0.000000,0.000000,0.000000,0.000000
10385945.000000,2.269782,-1.156896,-1.704251,-1.438286,-1.143114,1.638083,0.526933,-0.118610,-0.080529,-0.138924,-0.261585,-0.243413,0.328246,0.204515,3.101240,10.589947,4.131882,-0.087709,0.297025,0.466109,0.015426,0.000000,0.000000,0.000000,0.000000,0.000000,0.000000
10385946.000000,2.269673,-1.157010,-1.704395,-1.438589,-1.143368,1.638489,0.527152,-0.113323,-0.090974,-0.142497,-0.272070,-0.250097,0.353308,0.207237,4.362836,10.347942,3.862106,-0.111513,-0.025240,0.511886,-0.017533,0.000000,0.000000,0.000000,0.000000,0.000000,0.000000
10385947.000000,2.269580,-1.157144,-1.704544,-1.438883,-1.143654,1.638910,0.527373,-0.104604,-0.105020,-0.143385,-0.278811,-0.261315,0.371442,0.208225,5.227705,10.419353,3.516952,-0.432863,-0.330111,0.551253,-0.037675,0.000000,0.000000,0.000000,0.000000,0.000000,0.000000
10385948.000000,2.269491,-1.157301,-1.704714,-1.439168,-1.143951,1.639341,0.527580,-0.098962,-0.120348,-0.153647,-0.279750,-0.272021,0.392053,0.205936,5.921979,10.764507,3.417770,-0.952577,-0.604769,0.674850,0.021835,0.000000,0.000000,0.000000,0.000000,0.000000,0.000000
10385949.000000,2.269414,-1.157465,-1.704900,-1.439459,-1.144279,1.639795,0.527803,-0.089779,-0.139997,-0.161803,-0.282155,-0.286610,0.408478,0.209483,6.366315,11.105694,3.346359,-1.420717,-0.706393,0.771896,-0.017533,0.000000,0.000000,0.000000,0.000000,0.000000,0.000000
10385950.000000,2.269340,-1.157651,-1.705088,-1.439762,-1.144641,1.640291,0.528015,-0.085956,-0.159182,-0.168502,-0.285063,-0.309374,0.435542,0.207709,6.715436,11.546062,3.171798,-1.869020,-0.623080,0.609847,0.021835,0.000000,0.000000,0.000000,0.000000,0.000000,0.000000
10385951.000000,2.269276,-1.157837,-1.705289,-1.440063,-1.145025,1.640816,0.528227,-0.076698,-0.168888,-0.181797,-0.288140,-0.334248,0.462993,0.208118,6.886030,11.815838,3.076584,-2.285585,-0.438143,0.362655,0.028243,0.000000,0.000000,0.000000,0.000000,0.000000,0.000000
10385952.000000,2.269215,-1.158018,-1.705502,-1.440386,-1.145436,1.641359,0.528451,-0.072348,-0.173052,-0.191303,-0.296975,-0.357426,0.484908,0.215556,6.985212,11.962627,3.001205,-2.535524,-0.216586,0.161239,-0.023942,0.000000,0.000000,0.000000,0.000000,0.000000,0.000000
10385953.000000,2.269148,-1.158197,-1.705714,-1.440715,-1.145854,1.641914,0.528667,-0.067888,-0.171996,-0.204294,-0.305944,-0.381943,0.502569,0.213585,7.135969,11.938824,2.806808,-2.706117,-0.060946,0.069686,-0.023942,0.000000,0.000000,0.000000,0.000000,0.000000,0.000000
10385954.000000,2.269100,-1.158362,-1.705938,-1.441051,-1.146285,1.642486,0.528889,-0.059317,-0.176102,-0.211018,-0.314983,-0.394295,0.517234,0.214327,7.036787,11.617474,2.560837,-2.880678,-0.055453,0.063277,-0.050492,0.000000,0.000000,0.000000,0.000000,0.000000,0.000000
10385955.000000,2.269058,-1.158526,-1.706171,-1.441401,-1.146724,1.643092,0.529103,-0.055358,-0.170000,-0.215142,-0.324702,-0.406779,0.546732,0.209350,6.862226,11.081890,2.267257,-3.079042,-0.103060,0.063277,0.034652,0.000000,0.000000,0.000000,0.000000,0.000000,0.000000
10385956.000000,2.269026,-1.158687,-1.706419,-1.441761,-1.147163,1.643704,0.529323,-0.043613,-0.163254,-0.225268,-0.335641,-0.420478,0.568333,0.210862,6.564680,10.419353,2.116501,-3.102846,-0.300814,0.109054,-0.011124,0.000000,0.000000,0.000000,0.000000,0.000000,0.000000
10385957.000000,2.268996,-1.158834,-1.706678,-1.442133,-1.147629,1.644347,0.529534,-0.038311,-0.156687,-0.236671,-0.345761,-0.433131,0.587816,0.209490,6.267133,9.637798,1.898300,-3.249635,-0.426241,0.167648,0.028243,0.000000,0.000000,0.000000,0.000000,0.000000,0.000000
10385958.000000,2.268968,-1.158992,-1.706950,-1.442519,-1.148095,1.645009,0.529756,-0.032863,-0.156609,-0.245365,-0.364453,-0.438768,0.614785,0.218492,6.021162,8.903851,1.799118,-3.277406,-0.485751,0.193282,0.028243,0.000000,0.000000,0.000000,0.000000,0.000000,0.000000
10385959.000000,2.268946,-1.159160,-1.707232,-1.442927,-1.148595,1.645690,0.529972,-0.027516,-0.158894,-0.257200,-0.375487,-0.453456,0.631040,0.217238,5.699811,8.241314,1.799118,-3.249635,-0.461947,0.193282,0.015426,0.000000,0.000000,0.000000,0.000000,0.000000,0.000000
10385960.000000,2.268914,-1.159339,-1.707525,-1.443342,-1.149108,1.646387,0.530190,-0.028006,-0.166036,-0.270348,-0.387313,-0.469348,0.646994,0.214811,5.576826,7.800945,1.751511,-3.301210,-0.294406,0.193282,0.021835,0.000000,0.000000,0.000000,0.000000,0.000000,0.000000
10385961.000000,2.268890,-1.159542,-1.707838,-1.443763,-1.149626,1.647094,0.530402,-0.028555,-0.177155,-0.284099,-0.395239,-0.488182,0.666348,0.217996,5.326887,7.654156,1.846725,-3.424196,-0.049044,0.147506,0.034652,0.000000,0.000000,0.000000,0.000000,0.000000,0.000000
10385962.000000,2.268861,-1.159752,-1.708165,-1.444202,-1.150151,1.647839,0.530615,-0.031476,-0.186794,-0.297739,-0.402938,-0.493548,0.690935,0.218305,4.906354,7.578777,1.846725,-3.178224,0.129484,-0.079545,-0.004716,0.000000,0.000000,0.000000,0.000000,0.000000,0.000000
10385963.000000,2.268828,-1.159987,-1.708502,-1.444627,-1.150666,1.648587,0.530823,-0.033567,-0.203488,-0.308969,-0.404565,-0.499659,0.700739,0.217795,4.188276,7.654156,1.723740,-2.833071,0.225614,-0.307511,0.041976,0.000000,0.000000,0.000000,0.000000,0.000000,0.000000
10385964.000000,2.268778,-1.160231,-1.708846,-1.445040,-1.151179,1.649315,0.531038,-0.038831,-0.211731,-0.319927,-0.398806,-0.505758,0.705464,0.221223,3.323408,7.848553,1.576950,-2.214174,0.219205,-0.372514,0.041976,0.000000,0.000000,0.000000,0.000000,0.000000,0.000000
10385965.000000,2.268733,-1.160488,-1.709204,-1.445450,-1.151676,1.650037,0.531256,-0.039471,-0.227922,-0.328353,-0.399218,-0.498098,0.704426,0.219081,2.133222,8.241314,1.358749,-1.349306,0.022367,-0.313920,0.021835,0.000000,0.000000,0.000000,0.000000,0.000000,0.000000
10385966.000000,2.268667,-1.160769,-1.709554,-1.445851,-1.152177,1.650747,0.531462,-0.047169,-0.243057,-0.336621,-0.401447,-0.500415,0.698075,0.219481,1.069990,8.681683,0.890610,-0.234499,-0.133273,-0.196732,0.081344,0.000000,0.000000,0.000000,0.000000,0.000000,0.000000
10385967.000000,2.268594,-1.161055,-1.709936,-1.446251,-1.152678,1.651468,0.531680,-0.051509,-0.257576,-0.349768,-0.407288,-0.502524,0.705508,0.219460,0.078168,9.122051,0.696213,0.975523,-0.282504,-0.150956,0.048385,0.000000,0.000000,0.000000,0.000000,0.000000,0.000000
10385968.000000,2.268511,-1.161349,-1.710325,-1.446655,-1.153172,1.652190,0.531888,-0.059496,-0.270555,-0.362563,-0.408027,-0.497571,0.702660,0.216387,-0.735125,9.538616,0.497848,2.209349,-0.473849,-0.125321,0.054794,0.000000,0.000000,0.000000,0.000000,0.000000,0.000000
10385969.000000,2.268426,-1.161655,-1.710712,-1.447056,-1.153677,1.652899,0.532098,-0.066639,-0.283972,-0.371792,-0.406288,-0.503396,0.705472,0.218089,-1.480975,9.855999,0.275680,3.371763,-0.431735,-0.106095,0.061202,0.000000,0.000000,0.000000,0.000000,0.000000,0.000000
10385970.000000,2.268336,-1.161971,-1.711127,-1.447467,-1.154185,1.653605,0.532315,-0.072406,-0.292094,-0.383366,-0.413328,-0.499312,0.697086,0.211778,-2.072100,10.224957,0.180466,4.411192,-0.324618,-0.092362,0.034652,0.000000,0.000000,0.000000,0.000000,0.000000,0.000000
10385971.000000,2.268247,-1.162295,-1.711564,-1.447872,-1.154693,1.654304,0.532515,-0.075349,-0.302772,-0.406831,-0.413820,-0.500707,0.702263,0.212998,-2.520403,10.542339,0.251877,5.200682,-0.234896,-0.092362,0.081344,0.000000,0.000000,0.000000,0.000000,0.000000,0.000000
10385972.000000,2.268159,-1.162633,-1.711993,-1.448283,-1.155205,1.654999,0.532726,-0.078147,-0.321758,-0.411108,-0.414885,-0.502643,0.698853,0.209469,-2.964739,10.859722,0.204269,5.871153,-0.109469,-0.027360,0.034652,0.000000,0.000000,0.000000,0.000000,0.000000,0.000000
10385973.000000,2.268071,-1.162981,-1.712448,-1.448698,-1.155710,1.655701,0.532932,-0.079963,-0.324359,-0.417304,-0.413345,-0.504527,0.696288,0.203894,-3.210711,11.252483,0.426437,6.414671,-0.079257,0.017501,0.034652,0.000000,0.000000,0.000000,0.000000,0.000000,0.000000
10385974.000000,2.267986,-1.163337,-1.712908,-1.449098,-1.156194,1.656392,0.533134,-0.080570,-0.330753,-0.426103,-0.412766,-0.492145,0.698951,0.204758,-3.262286,11.863445,0.965988,6.684447,-0.187289,0.096236,0.041976,0.000000,0.000000,0.000000,0.000000,0.000000,0.000000
10385975.000000,2.267889,-1.163712,-1.713345,-1.449506,-1.156686,1.657096,0.533337,-0.088549,-0.342084,-0.420357,-0.410224,-0.486471,0.691528,0.200393,-2.940936,12.890972,1.453964,6.859007,-0.180880,0.141097,0.061202,0.000000,0.000000,0.000000,0.000000,0.000000,0.000000
10385976.000000,2.267792,-1.164083,-1.713783,-1.449903,-1.157168,1.657806,0.533544,-0.091929,-0.348617,-0.422858,-0.414614,-0.490524,0.708621,0.200474,-2.421221,14.041485,2.362472,6.934386,-0.282504,0.251876,0.081344,0.000000,0.000000,0.000000,0.000000,0.000000,0.000000
10385977.000000,2.267676,-1.164466,-1.714214,-1.450316,-1.157652,1.658498,0.533755,-0.101581,-0.361636,-0.427326,-0.413546,-0.488783,0.701709,0.205738,-1.552386,15.291180,3.445541,7.104979,-0.342013,0.388290,0.015426,0.000000,0.000000,0.000000,0.000000,0.000000,0.000000
10385978.000000,2.267565,-1.164840,-1.714638,-1.450724,-1.158143,1.659207,0.533953,-0.105454,-0.366922,-0.426589,-0.412177,-0.494578,0.701018,0.198454,-0.735125,16.394085,4.425461,7.128783,-0.330111,0.505477,0.087753,0.000000,0.000000,0.000000,0.000000,0.000000,0.000000
10385979.000000,2.267453,-1.165212,-1.715072,-1.451123,-1.158633,1.659906,0.534151,-0.108236,-0.367037,-0.433324,-0.406935,-0.495260,0.703354,0.201784,0.105939,17.370037,5.579941,7.057372,-0.294406,0.570480,0.067611,0.000000,0.000000,0.000000,0.000000,0.000000,0.000000
10385980.000000,2.267344,-1.165589,-1.715505,-1.451526,-1.159118,1.660612,0.534353,-0.111070,-0.373510,-0.434145,-0.403984,-0.489988,0.699932,0.206685,0.871625,18.179363,6.583664,7.029601,-0.258700,0.629073,0.015426,0.000000,0.000000,0.000000,0.000000,0.000000,0.000000
10385981.000000,2.267232,-1.165959,-1.715952,-1.451922,-1.159620,1.661304,0.534550,-0.110986,-0.370585,-0.440909,-0.398683,-0.494758,0.700073,0.204958,1.589704,18.643536,7.591354,6.835204,-0.145175,0.759078,0.067611,0.000000,0.000000,0.000000,0.000000,0.000000,0.000000
10385982.000000,2.267133,-1.166333,-1.716410,-1.452312,-1.160119,1.661985,0.534757,-0.107126,-0.373641,-0.445851,-0.393611,-0.494559,0.688196,0.208044,2.109418,18.889507,8.599045,6.708251,-0.114962,0.836898,0.021835,0.000000,0.000000,0.000000,0.000000,0.000000,0.000000
10385983.000000,2.267046,-1.166704,-1.716879,-1.452695,-1.160618,1.662680,0.534951,-0.101633,-0.370427,-0.454470,-0.385907,-0.498553,0.683523,0.201667,2.383161,18.988689,9.455978,6.438475,-0.079257,0.882674,0.061202,0.000000,0.000000,0.000000,0.000000,0.000000,0.000000
10385985.000000,2.266895,-1.167486,-1.717827,-1.453420,-1.161618,1.664030,0.535348,-0.086124,-0.383280,-0.465893,-0.367491,-0.495884,0.674067,0.208261,2.581525,19.258465,10.856430,5.744200,-0.031649,1.025497,0.009017,0.000000,0.000000,0.000000,0.000000,0.000000,0.000000
10385986.000000,2.266834,-1.167898,-1.718323,-1.453767,-1.162129,1.664700,0.535534,-0.078799,-0.394812,-0.472731,-0.355595,-0.499189,0.671502,0.199765,2.482343,19.476665,11.495163,5.327635,-0.031649,1.155502,0.094161,0.000000,0.000000,0.000000,0.000000,0.000000,0.000000
10385987.000000,2.266787,-1.168335,-1.718817,-1.454109,-1.162638,1.665356,0.535728,-0.068124,-0.406871,-0.481875,-0.347981,-0.495814,0.664399,0.202665,2.232404,19.845623,12.010910,4.954710,0.052579,1.299239,0.087753,0.000000,0.000000,0.000000,0.000000,0.000000,0.000000
10385988.000000,2.266747,-1.168775,-1.719324,-1.454448,-1.163152,1.666024,0.535935,-0.062142,-0.422599,-0.485218,-0.342196,-0.503412,0.664502,0.207633,1.911054,20.234417,12.550461,4.609557,0.076383,1.272689,0.009017,0.000000,0.000000,0.000000,0.000000,0.000000,0.000000
10385989.000000,2.266716,-1.169224,-1.719843,-1.454775,-1.163669,1.666695,0.536131,-0.050825,-0.429297,-0.501420,-0.338771,-0.505821,0.670928,0.207308,1.514325,20.456585,13.066208,4.264403,0.112089,1.084090,-0.004716,0.000000,0.000000,0.000000,0.000000,0.000000,0.000000
10385990.000000,2.266689,-1.169672,-1.720355,-1.455106,-1.164199,1.667363,0.536323,-0.041655,-0.438300,-0.504650,-0.337503,-0.514962,0.671065,0.200738,1.093793,20.527996,13.482773,3.990660,0.207303,1.012679,0.054794,0.000000,0.000000,0.000000,0.000000,0.000000,0.000000
10385991.000000,2.266673,-1.170138,-1.720887,-1.455442,-1.164734,1.668018,0.536524,-0.033805,-0.444028,-0.509233,-0.336488,-0.519299,0.656246,0.203020,0.601850,20.674786,13.998520,3.843870,0.249418,1.071273,0.048385,0.000000,0.000000,0.000000,0.000000,0.000000,0.000000
10385992.000000,2.266667,-1.170627,-1.721404,-1.455772,-1.165266,1.668666,0.536721,-0.023887,-0.454601,-0.512245,-0.335104,-0.519816,0.656123,0.201285,0.054365,20.849346,14.315903,3.693114,0.332731,1.104232,-0.004716,0.000000,0.000000,0.000000,0.000000,0.000000,0.000000
10385993.000000,2.266658,-1.171101,-1.721927,-1.456114,-1.165810,1.669313,0.536909,-0.022255,-0.462856,-0.512306,-0.331550,-0.526893,0.647046,0.201506,-0.389971,20.849346,14.561874,3.720885,0.381254,1.207687,0.061202,0.000000,0.000000,0.000000,0.000000,0.000000,0.000000
10385994.000000,2.266663,-1.171596,-1.722453,-1.456461,-1.166340,1.669971,0.537114,-0.013042,-0.467433,-0.509673,-0.341307,-0.536552,0.662299,0.204107,-0.933489,20.797771,14.784042,3.867674,0.344633,1.292831,0.009017,0.000000,0.000000,0.000000,0.000000,0.000000,0.000000
10385995.000000,2.266668,-1.172103,-1.722963,-1.456817,-1.166887,1.670614,0.537309,-0.007765,-0.480378,-0.512392,-0.346873,-0.539778,0.651329,0.200641,-1.405596,20.849346,14.930832,4.113646,0.362943,1.331283,0.001693,0.000000,0.000000,0.000000,0.000000,0.000000,0.000000
10385996.000000,2.266677,-1.172610,-1.723488,-1.457180,-1.167441,1.671273,0.537496,-0.003698,-0.484257,-0.514799,-0.352012,-0.538033,0.649721,0.194351,-1.873736,20.920757,15.149033,4.434996,0.405057,1.305648,0.081344,0.000000,0.000000,0.000000,0.000000,0.000000,0.000000
10385997.000000,2.266690,-1.173139,-1.724005,-1.457545,-1.167969,1.671927,0.537703,0.001402,-0.497083,-0.513295,-0.357118,-0.537930,0.650865,0.202002,-2.298235,21.043743,15.272018,4.807921,0.344633,1.220504,-0.017533,0.000000,0.000000,0.000000,0.000000,0.000000,0.000000
10385998.000000,2.266711,-1.173661,-1.724530,-1.457904,-1.168525,1.672588,0.537887,0.009355,-0.505990,-0.513461,-0.357008,-0.539247,0.653111,0.196159,-2.766375,21.115154,15.446579,5.053893,0.464567,1.201278,0.067611,0.000000,0.000000,0.000000,0.000000,0.000000,0.000000
10385999.000000,2.266729,-1.174209,-1.725054,-1.458282,-1.169068,1.673230,0.538075,0.010010,-0.516442,-0.516117,-0.364063,-0.537610,0.646280,0.192969,-3.139300,21.337322,15.593369,5.450621,0.500272,1.305648,0.100570,0.000000,0.000000,0.000000,0.000000,0.000000,0.000000
10386000.000000,2.266749,-1.174783,-1.725567,-1.458656,-1.169606,1.673872,0.538279,0.009257,-0.529302,-0.514885,-0.365470,-0.533450,0.642745,0.195114,-3.460650,21.801495,15.716354,5.843382,0.446256,1.377059,0.021835,0.000000,0.000000,0.000000,0.000000,0.000000,0.000000
10386001.000000,2.266766,-1.175366,-1.726059,-1.459046,-1.170150,1.674524,0.538471,0.009839,-0.542663,-0.502103,-0.374020,-0.533155,0.644117,0.190884,-3.682818,22.706036,15.787766,6.315489,0.494779,1.429244,0.094161,0.000000,0.000000,0.000000,0.000000,0.000000,0.000000
10386002.000000,2.266778,-1.175970,-1.726543,-1.459434,-1.170673,1.675179,0.538672,0.009815,-0.558427,-0.494949,-0.380616,-0.536401,0.649008,0.192762,-3.730425,23.955730,16.033737,6.783629,0.362943,1.416427,0.028243,0.000000,0.000000,0.000000,0.000000,0.000000,0.000000
10386003.000000,2.266787,-1.176577,-1.727023,-1.459827,-1.171208,1.675835,0.538874,0.009639,-0.584933,-0.485479,-0.383364,-0.530985,0.654588,0.193614,-3.631243,25.451397,16.402695,7.303343,0.255826,1.467696,0.001693,0.000000,0.000000,0.000000,0.000000,0.000000,0.000000
10386004.000000,2.266793,-1.177195,-1.727491,-1.460224,-1.171755,1.676505,0.539063,0.005482,-0.590140,-0.476385,-0.386911,-0.539122,0.653425,0.194572,-3.460650,27.189068,16.843063,7.771483,0.344633,1.539108,0.074935,0.000000,0.000000,0.000000,0.000000,0.000000,0.000000
10386005.000000,2.266796,-1.177819,-1.727948,-1.460621,-1.172285,1.677176,0.539258,0.002034,-0.603440,-0.470369,-0.394076,-0.537532,0.661553,0.195606,-3.238482,28.998150,17.457993,8.291197,0.369352,1.500655,0.009017,0.000000,0.000000,0.000000,0.000000,0.000000,0.000000
10386006.000000,2.266792,-1.178429,-1.728402,-1.461022,-1.172805,1.677866,0.539443,-0.001832,-0.610442,-0.463810,-0.392912,-0.527820,0.664440,0.191982,-2.940936,30.589031,17.926132,8.711729,0.327238,1.377059,0.087753,0.000000,0.000000,0.000000,0.000000,0.000000,0.000000
10386007.000000,2.266788,-1.179046,-1.728859,-1.461423,-1.173328,1.678538,0.539644,-0.004493,-0.610944,-0.459731,-0.395531,-0.524751,0.669756,0.197184,-2.643389,32.033123,18.390305,9.231443,0.356534,1.324874,0.034652,0.000000,0.000000,0.000000,0.000000,0.000000,0.000000
10386008.000000,2.266780,-1.179668,-1.729318,-1.461837,-1.173835,1.679211,0.539828,-0.005398,-0.615478,-0.457169,-0.399910,-0.513330,0.660888,0.193621,-2.369647,33.354229,18.882248,9.727354,0.279630,1.357833,0.087753,0.000000,0.000000,0.000000,0.000000,0.000000,0.000000
10386009.000000,2.266777,-1.180270,-1.729774,-1.462243,-1.174355,1.679882,0.540020,-0.004985,-0.614399,-0.453474,-0.400636,-0.511697,0.655604,0.192826,-2.147479,34.310345,19.199631,10.096312,0.255826,1.487838,0.074935,0.000000,0.000000,0.000000,0.000000,0.000000,0.000000
10386010.000000,2.266768,-1.180891,-1.730235,-1.462648,-1.174856,1.680531,0.540208,-0.005812,-0.612299,-0.455192,-0.399391,-0.506053,0.652464,0.192698,-1.873736,35.214886,19.520981,10.393858,0.231107,1.611434,0.048385,0.000000,0.000000,0.000000,0.000000,0.000000,0.000000
10386011.000000,2.266765,-1.181509,-1.730711,-1.463049,-1.175362,1.681200,0.540389,-0.004258,-0.612574,-0.460574,-0.396316,-0.508390,0.656744,0.186148,-1.679339,36.000408,19.885971,10.616026,0.166105,1.662704,0.074935,0.000000,0.000000,0.000000,0.000000,0.000000,0.000000
10386012.000000,2.266759,-1.182134,-1.731191,-1.463435,-1.175870,1.681869,0.540581,-0.007735,-0.617004,-0.463887,-0.401193,-0.519760,0.672843,0.183776,-1.429400,36.682781,20.207321,10.663633,0.154203,1.662704,0.015426,0.000000,0.000000,0.000000,0.000000,0.000000,0.000000
10386013.000000,2.266755,-1.182763,-1.731673,-1.463809,-1.176377,1.682534,0.540758,-0.005476,-0.614868,-0.474668,-0.390756,-0.516985,0.672029,0.182877,-1.254840,37.345318,20.600082,10.540648,0.135892,1.597701,0.074935,0.000000,0.000000,0.000000,0.000000,0.000000,0.000000
10386014.000000,2.266752,-1.183390,-1.732168,-1.464179,-1.176900,1.683201,0.540947,-0.003576,-0.618555,-0.478019,-0.384176,-0.513876,0.675468,0.184581,-1.084246,37.956280,20.992844,10.318480,0.100187,1.539108,0.067611,0.000000,0.000000,0.000000,0.000000,0.000000,0.000000
10386015.000000,2.266749,-1.184036,-1.732664,-1.464534,-1.177421,1.683861,0.541131,-0.002316,-0.625468,-0.482237,-0.376122,-0.511615,0.673228,0.181049,-0.909686,38.618816,21.409409,10.048704,0.183500,1.487838,0.048385,0.000000,0.000000,0.000000,0.000000,0.000000,0.000000
10386016.000000,2.266750,-1.184666,-1.733175,-1.464882,-1.177958,1.684519,0.541312,-0.000509,-0.630570,-0.488090,-0.366883,-0.523001,0.668691,0.182756,-0.786700,39.106792,21.948959,9.751158,0.261320,1.500655,0.081344,0.000000,0.000000,0.000000,0.000000,0.000000,0.000000
10386017.000000,2.266746,-1.185302,-1.733691,-1.465222,-1.178494,1.685169,0.541501,-0.000750,-0.625180,-0.496885,-0.355889,-0.525013,0.659985,0.184939,-0.588336,39.451946,22.417099,9.378233,0.279630,1.539108,0.061202,0.000000,0.000000,0.000000,0.000000,0.000000,0.000000
10386018.000000,2.266741,-1.185953,-1.734208,-1.465550,-1.179032,1.685797,0.541679,-0.000828,-0.629659,-0.504083,-0.348110,-0.534177,0.654768,0.179897,-0.413775,39.769329,22.905075,9.033079,0.386747,1.682845,0.081344,0.000000,0.000000,0.000000,0.000000,0.000000,0.000000
10386019.000000,2.266747,-1.186574,-1.734741,-1.465876,-1.179569,1.686434,0.541864,0.002587,-0.628023,-0.509644,-0.338136,-0.534968,0.647779,0.182525,-0.366168,39.816936,23.472397,8.664122,0.356534,1.754256,0.081344,0.000000,0.000000,0.000000,0.000000,0.000000,0.000000
10386020.000000,2.266745,-1.187206,-1.735269,-1.466186,-1.180102,1.687077,0.542054,0.003132,-0.626541,-0.512162,-0.329318,-0.535146,0.642230,0.186380,-0.243182,39.868511,23.912766,8.342772,0.398649,1.735030,0.015426,0.000000,0.000000,0.000000,0.000000,0.000000,0.000000
10386021.000000,2.266738,-1.187830,-1.735816,-1.466491,-1.180650,1.687718,0.542227,0.001079,-0.632769,-0.519725,-0.323097,-0.538212,0.638356,0.184358,-0.017047,39.916119,24.452316,8.021421,0.410551,1.714889,0.100570,0.000000,0.000000,0.000000,0.000000,0.000000,0.000000
10386022.000000,2.266737,-1.188458,-1.736378,-1.466791,-1.181187,1.688355,0.542417,0.002100,-0.629017,-0.526598,-0.312545,-0.534716,0.636697,0.187116,0.105939,39.840740,25.067245,7.723876,0.386747,1.779891,0.054794,0.000000,0.000000,0.000000,0.000000,0.000000,0.000000
10386023.000000,2.266732,-1.189085,-1.736932,-1.467074,-1.181736,1.688978,0.542598,0.001055,-0.627330,-0.536348,-0.305308,-0.535619,0.631110,0.181422,0.304304,39.670147,25.606796,7.450133,0.452665,1.844894,0.074935,0.000000,0.000000,0.000000,0.000000,0.000000,0.000000
10386024.000000,2.266732,-1.189690,-1.737494,-1.467368,-1.182285,1.689617,0.542776,0.002721,-0.621391,-0.541297,-0.301108,-0.534460,0.626574,0.179785,0.403486,39.400372,26.098740,7.255736,0.494779,1.890670,0.087753,0.000000,0.000000,0.000000,0.000000,0.000000,0.000000
10386025.000000,2.266722,-1.190306,-1.738061,-1.467654,-1.182829,1.690242,0.542954,-0.001761,-0.615837,-0.541911,-0.296586,-0.537740,0.635790,0.186140,0.601850,39.229778,26.539108,7.128783,0.506681,1.909896,0.087753,0.000000,0.000000,0.000000,0.000000,0.000000,0.000000
10386026.000000,2.266721,-1.190924,-1.738624,-1.467939,-1.183388,1.690870,0.543143,0.000203,-0.608453,-0.549399,-0.294490,-0.543232,0.634347,0.189548,0.697065,39.011578,27.007248,7.057372,0.601896,1.995040,0.021835,0.000000,0.000000,0.000000,0.000000,0.000000,0.000000
10386027.000000,2.266713,-1.191531,-1.739194,-1.468223,-1.183956,1.691486,0.543325,-0.002558,-0.608755,-0.550270,-0.286861,-0.550860,0.622135,0.182988,0.847822,38.888592,27.447617,7.005797,0.667814,2.131454,0.048385,0.000000,0.000000,0.000000,0.000000,0.000000,0.000000
10386028.000000,2.266707,-1.192168,-1.739749,-1.468491,-1.184510,1.692100,0.543500,-0.003957,-0.617866,-0.549540,-0.281139,-0.553920,0.619423,0.178918,0.970807,39.082989,27.764999,6.835204,0.667814,2.235824,0.054794,0.000000,0.000000,0.000000,0.000000,0.000000,0.000000
10386029.000000,2.266697,-1.192793,-1.740316,-1.468762,-1.185071,1.692720,0.543688,-0.005047,-0.621124,-0.554847,-0.278057,-0.556444,0.620678,0.183504,1.093793,39.352764,28.086349,6.736022,0.691617,2.215682,0.021835,0.000000,0.000000,0.000000,0.000000,0.000000,0.000000
10386030.000000,2.266686,-1.193416,-1.740876,-1.469040,-1.185628,1.693350,0.543865,-0.005890,-0.620779,-0.552987,-0.280100,-0.553211,0.623391,0.177687,1.216779,39.400372,28.256943,6.736022,0.661405,2.169906,0.067611,0.000000,0.000000,0.000000,0.000000,0.000000,0.000000
10386031.000000,2.266676,-1.194061,-1.741422,-1.469314,-1.186184,1.693965,0.544045,-0.012089,-0.628560,-0.547000,-0.279008,-0.548743,0.618969,0.180892,1.315961,39.646343,28.332321,6.708251,0.589994,2.163497,0.061202,0.000000,0.000000,0.000000,0.000000,0.000000,0.000000
10386032.000000,2.266669,-1.194695,-1.741971,-1.469592,-1.186759,1.694595,0.544228,-0.009577,-0.633674,-0.544291,-0.278680,-0.552947,0.620896,0.179379,1.367536,39.892315,28.403732,6.708251,0.596403,2.125045,0.015426,0.000000,0.000000,0.000000,0.000000,0.000000,0.000000
10386033.000000,2.266664,-1.195324,-1.742509,-1.469864,-1.187320,1.695198,0.544401,-0.007175,-0.629785,-0.542276,-0.277829,-0.553427,0.618310,0.179181,1.391340,40.015301,28.403732,6.684447,0.644010,2.202865,0.081344,0.000000,0.000000,0.000000,0.000000,0.000000,0.000000
10386034.000000,2.266669,-1.195952,-1.743044,-1.470145,-1.187888,1.695818,0.544592,-0.003195,-0.627389,-0.537683,-0.276839,-0.556019,0.620570,0.180279,1.315961,40.233501,28.256943,6.783629,0.637601,2.280685,0.001693,0.000000,0.000000,0.000000,0.000000,0.000000,0.000000
10386035.000000,2.266668,-1.196594,-1.743578,-1.470416,-1.188460,1.696449,0.544776,-0.002261,-0.630635,-0.537106,-0.275740,-0.555611,0.621262,0.177343,1.315961,40.527081,28.086349,6.736022,0.679716,2.287093,-0.017533,0.000000,0.000000,0.000000,0.000000,0.000000,0.000000
10386036.000000,2.266673,-1.197226,-1.744101,-1.470689,-1.189021,1.697084,0.544945,0.000064,-0.630649,-0.534784,-0.272898,-0.561416,0.629673,0.171474,1.244550,40.602459,27.939560,6.736022,0.637601,2.209274,0.074935,0.000000,0.000000,0.000000,0.000000,0.000000,0.000000
10386037.000000,2.266695,-1.197837,-1.744636,-1.470955,-1.189580,1.697726,0.545129,0.008458,-0.624288,-0.529500,-0.268897,-0.555293,0.632741,0.173029,1.022382,40.503277,27.840378,6.684447,0.601896,2.047225,0.021835,0.000000,0.000000,0.000000,0.000000,0.000000,0.000000
10386038.000000,2.266712,-1.198463,-1.745156,-1.471211,-1.190141,1.698359,0.545299,0.012437,-0.616502,-0.538815,-0.268122,-0.560531,0.637013,0.170563,0.871625,40.479473,27.693588,6.561461,0.661405,1.988631,0.054794,0.000000,0.000000,0.000000,0.000000,0.000000,0.000000
10386039.000000,2.266735,-1.199082,-1.745677,-1.471482,-1.190706,1.698988,0.545477,0.015148,-0.627819,-0.528973,-0.268031,-0.560870,0.637026,0.175420,0.724836,40.332684,27.495224,6.585265,0.625699,2.007858,0.067611,0.000000,0.000000,0.000000,0.000000,0.000000,0.000000
10386040.000000,2.266765,-1.199706,-1.746190,-1.471751,-1.191274,1.699624,0.545664,0.019729,-0.626309,-0.519768,-0.271006,-0.566536,0.627644,0.180777,0.474897,40.257305,27.225449,6.613036,0.608304,2.027084,0.015426,0.000000,0.000000,0.000000,0.000000,0.000000,0.000000
10386041.000000,2.266799,-1.200332,-1.746684,-1.472009,-1.191837,1.700244,0.545836,0.026409,-0.625070,-0.512519,-0.268165,-0.567431,0.620852,0.175209,0.205121,40.185894,26.908066,6.561461,0.632108,2.047225,0.081344,0.000000,0.000000,0.000000,0.000000,0.000000,0.000000
10386042.000000,2.266831,-1.200948,-1.747191,-1.472278,-1.192388,1.700881,0.546025,0.029916,-0.619718,-0.506636,-0.265665,-0.563224,0.625372,0.183845,-0.017047,40.162090,26.761276,6.636839,0.547880,2.033492,0.009017,0.000000,0.000000,0.000000,0.000000,0.000000,0.000000
10386043.000000,2.266860,-1.201578,-1.747698,-1.472547,-1.192951,1.701523,0.546200,0.028816,-0.618912,-0.502858,-0.272850,-0.560315,0.640172,0.184097,-0.215411,40.185894,26.586716,6.759825,0.566190,2.014266,0.041976,0.000000,0.000000,0.000000,0.000000,0.000000,0.000000
10386044.000000,2.266893,-1.202202,-1.748192,-1.472815,-1.193516,1.702163,0.546380,0.030560,-0.619010,-0.499203,-0.270760,-0.559757,0.644356,0.181106,-0.389971,40.086712,26.515305,6.906615,0.632108,1.916305,0.021835,0.000000,0.000000,0.000000,0.000000,0.000000,0.000000
10386045.000000,2.266926,-1.202818,-1.748696,-1.473089,-1.194084,1.702802,0.546557,0.032090,-0.619565,-0.495497,-0.271108,-0.555827,0.644210,0.177920,-0.564532,40.110516,26.463730,7.005797,0.613798,1.877853,0.021835,0.000000,0.000000,0.000000,0.000000,0.000000,0.000000
10386046.000000,2.266965,-1.203433,-1.749184,-1.473353,-1.194642,1.703429,0.546729,0.033964,-0.614782,-0.493158,-0.271307,-0.555196,0.642923,0.179807,-0.762896,39.987530,26.392319,7.104979,0.649503,1.903487,0.041976,0.000000,0.000000,0.000000,0.000000,0.000000,0.000000
10386047.000000,2.266995,-1.204042,-1.749683,-1.473627,-1.195201,1.704061,0.546911,0.034689,-0.613423,-0.493052,-0.273362,-0.555082,0.638990,0.179532,-0.810504,39.892315,26.392319,7.303343,0.596403,1.962081,-0.004716,0.000000,0.000000,0.000000,0.000000,0.000000,0.000000
10386048.000000,2.267036,-1.204668,-1.750176,-1.473916,-1.195747,1.704693,0.547081,0.035617,-0.616502,-0.494805,-0.276483,-0.551143,0.629608,0.173165,-0.985064,39.963726,26.344711,7.577086,0.542386,1.981307,0.081344,0.000000,0.000000,0.000000,0.000000,0.000000,0.000000
10386049.000000,2.267066,-1.205298,-1.750661,-1.474200,-1.196303,1.705320,0.547257,0.035515,-0.621930,-0.490790,-0.279404,-0.557835,0.635094,0.173360,-1.008868,40.039104,26.344711,7.870665,0.494779,1.923629,0.048385,0.000000,0.000000,0.000000,0.000000,0.000000,0.000000
10386050.000000,2.267106,-1.205897,-1.751162,-1.474481,-1.196865,1.705950,0.547433,0.037541,-0.613664,-0.488679,-0.277195,-0.558651,0.630603,0.172406,-1.108050,39.892315,26.439926,8.144407,0.470060,1.916305,0.041976,0.000000,0.000000,0.000000,0.000000,0.000000,0.000000
10386051.000000,2.267147,-1.206507,-1.751649,-1.474766,-1.197421,1.706564,0.547604,0.040045,-0.606887,-0.490370,-0.282116,-0.563265,0.630375,0.171361,-1.231036,39.745525,26.491501,8.414183,0.535978,1.988631,0.041976,0.000000,0.000000,0.000000,0.000000,0.000000,0.000000
10386052.000000,2.267186,-1.207116,-1.752142,-1.475052,-1.197988,1.707167,0.547775,0.040162,-0.607531,-0.491482,-0.282051,-0.564775,0.617059,0.166782,-1.306414,39.646343,26.539108,8.664122,0.566190,2.157089,0.021835,0.000000,0.000000,0.000000,0.000000,0.000000,0.000000
10386053.000000,2.267227,-1.207731,-1.752637,-1.475330,-1.198552,1.707791,0.547940,0.040053,-0.610006,-0.488183,-0.276738,-0.565746,0.617714,0.164915,-1.354022,39.622540,26.562912,8.810911,0.589994,2.183639,0.074935,0.000000,0.000000,0.000000,0.000000,0.000000,0.000000
10386054.000000,2.267267,-1.208350,-1.753112,-1.475616,-1.199114,1.708404,0.548113,0.036204,-0.609730,-0.480096,-0.278270,-0.565833,0.620368,0.167397,-1.381793,39.693951,26.463730,9.056883,0.589994,2.169906,0.034652,0.000000,0.000000,0.000000,0.000000,0.000000,0.000000
10386055.000000,2.267303,-1.208970,-1.753599,-1.475907,-1.199667,1.709027,0.548288,0.035416,-0.609505,-0.478232,-0.280122,-0.553228,0.621777,0.169224,-1.354022,39.868511,26.463730,9.354429,0.524076,2.131454,0.001693,0.000000,0.000000,0.000000,0.000000,0.000000,0.000000
10386056.000000,2.267333,-1.209599,-1.754076,-1.476182,-1.200226,1.709640,0.548449,0.033129,-0.615374,-0.489172,-0.276433,-0.555251,0.620239,0.170397,-1.231036,40.110516,26.392319,9.552794,0.476469,2.066451,0.074935,0.000000,0.000000,0.000000,0.000000,0.000000,0.000000
10386057.000000,2.267366,-1.210215,-1.754553,-1.476466,-1.200790,1.710256,0.548624,0.029601,-0.618980,-0.484204,-0.279888,-0.553262,0.625905,0.171628,-1.159625,40.257305,26.293137,9.751158,0.464567,2.053634,0.041976,0.000000,0.000000,0.000000,0.000000,0.000000,0.000000
10386058.000000,2.267397,-1.210845,-1.755032,-1.476747,-1.201368,1.710873,0.548794,0.029729,-0.615761,-0.479864,-0.278803,-0.557987,0.623433,0.169860,-1.060443,40.455669,26.193954,9.921751,0.494779,2.079269,0.067611,0.000000,0.000000,0.000000,0.000000,0.000000,0.000000
10386059.000000,2.267427,-1.211483,-1.755493,-1.477018,-1.201938,1.711489,0.548965,0.029185,-0.616033,-0.475125,-0.273942,-0.557467,0.623573,0.171425,-0.933489,40.650066,25.999557,10.048704,0.535978,2.079269,0.015426,0.000000,0.000000,0.000000,0.000000,0.000000,0.000000
10386060.000000,2.267457,-1.212107,-1.755968,-1.477291,-1.202507,1.712095,0.549131,0.029066,-0.618912,-0.470847,-0.274572,-0.562365,0.615272,0.171901,-0.810504,40.673870,25.924179,10.120115,0.506681,2.131454,0.028243,0.000000,0.000000,0.000000,0.000000,0.000000,0.000000
10386061.000000,2.267485,-1.212721,-1.756439,-1.477554,-1.203073,1.712715,0.549300,0.028187,-0.619588,-0.469606,-0.275364,-0.573811,0.630421,0.175992,-0.663714,40.527081,25.777390,10.096312,0.488370,2.060043,0.041976,0.000000,0.000000,0.000000,0.000000,0.000000,0.000000
10386062.000000,2.267511,-1.213337,-1.756905,-1.477825,-1.203649,1.713331,0.549472,0.024018,-0.618381,-0.468581,-0.272405,-0.580733,0.632445,0.168700,-0.489153,40.380291,25.630600,10.243101,0.458158,1.949264,0.048385,0.000000,0.000000,0.000000,0.000000,0.000000,0.000000
10386063.000000,2.267526,-1.213939,-1.757371,-1.478081,-1.204224,1.713945,0.549632,0.021332,-0.609688,-0.465972,-0.268544,-0.574618,0.629068,0.161435,-0.191607,40.134319,25.436203,10.195494,0.393156,1.949264,0.100570,0.000000,0.000000,0.000000,0.000000,0.000000,0.000000
10386064.000000,2.267546,-1.214554,-1.757834,-1.478332,-1.204796,1.714539,0.549802,0.021283,-0.609558,-0.464047,-0.262934,-0.577569,0.622937,0.160257,0.030561,39.963726,25.313217,10.143919,0.393156,2.066451,0.041976,0.000000,0.000000,0.000000,0.000000,0.000000,0.000000
10386065.000000,2.267571,-1.215156,-1.758296,-1.478582,-1.205374,1.715137,0.549965,0.019827,-0.613747,-0.464050,-0.255529,-0.573108,0.608023,0.161764,0.177350,39.745525,25.138657,10.096312,0.369352,2.190048,0.074935,0.000000,0.000000,0.000000,0.000000,0.000000,0.000000
10386066.000000,2.267588,-1.215762,-1.758761,-1.478825,-1.205962,1.715751,0.550135,0.016148,-0.610021,-0.458828,-0.253630,-0.574127,0.607224,0.165120,0.427289,39.523357,25.015671,10.048704,0.440763,2.202865,0.028243,0.000000,0.000000,0.000000,0.000000,0.000000,0.000000
10386067.000000,2.267604,-1.216371,-1.759233,-1.479069,-1.206540,1.716380,0.550296,0.014463,-0.604637,-0.460497,-0.247704,-0.572795,0.617004,0.160007,0.649457,39.305157,25.114853,9.949522,0.452665,2.047225,0.041976,0.000000,0.000000,0.000000,0.000000,0.000000,0.000000
10386068.000000,2.267609,-1.216967,-1.759700,-1.479305,-1.207120,1.717009,0.550458,0.012830,-0.603501,-0.458193,-0.239986,-0.576277,0.613138,0.160689,1.022382,38.936199,25.138657,9.850340,0.488370,1.897079,0.087753,0.000000,0.000000,0.000000,0.000000,0.000000,0.000000
10386069.000000,2.267616,-1.217563,-1.760162,-1.479533,-1.207706,1.717617,0.550632,0.009974,-0.600116,-0.459912,-0.236240,-0.576356,0.611073,0.165254,1.343732,38.618816,25.138657,9.822569,0.559781,1.858627,0.021835,0.000000,0.000000,0.000000,0.000000,0.000000,0.000000
10386070.000000,2.267627,-1.218166,-1.760641,-1.479750,-1.208288,1.718214,0.550795,0.009065,-0.604743,-0.466851,-0.228637,-0.579447,0.604178,0.165395,1.613508,38.571209,25.237839,9.600401,0.584501,1.981307,0.061202,0.000000,0.000000,0.000000,0.000000,0.000000,0.000000
10386071.000000,2.267631,-1.218786,-1.761103,-1.479961,-1.208883,1.718811,0.550961,0.007026,-0.605277,-0.460024,-0.220237,-0.581358,0.598724,0.159927,1.934858,38.690228,25.114853,9.378233,0.601896,2.118636,0.081344,0.000000,0.000000,0.000000,0.000000,0.000000,0.000000
10386072.000000,2.267632,-1.219398,-1.761568,-1.480174,-1.209448,1.719406,0.551135,0.005077,-0.606581,-0.461396,-0.215453,-0.574405,0.595546,0.164392,2.283979,38.618816,25.114853,9.330626,0.518583,2.137862,0.021835,0.000000,0.000000,0.000000,0.000000,0.000000,0.000000
10386073.000000,2.267637,-1.220010,-1.762035,-1.480373,-1.210024,1.720011,0.551301,0.005658,-0.611275,-0.457593,-0.211695,-0.571203,0.598951,0.163851,2.553754,38.666424,25.091049,9.179869,0.381254,2.079269,0.067611,0.000000,0.000000,0.000000,0.000000,0.000000,0.000000
10386074.000000,2.267640,-1.220615,-1.762509,-1.480574,-1.210594,1.720610,0.551471,0.002646,-0.606178,-0.465704,-0.210176,-0.569000,0.598700,0.166443,2.827497,38.571209,25.067245,9.056883,0.339139,1.995040,0.034652,0.000000,0.000000,0.000000,0.000000,0.000000,0.000000
10386075.000000,2.267658,-1.221207,-1.762986,-1.480769,-1.211186,1.721220,0.551642,0.008151,-0.610981,-0.472628,-0.202059,-0.574099,0.602275,0.167346,2.902875,38.396648,25.237839,8.910093,0.356534,1.923629,0.028243,0.000000,0.000000,0.000000,0.000000,0.000000,0.000000
10386077.000000,2.267674,-1.222406,-1.763921,-1.481134,-1.212380,1.722399,0.551983,0.009610,-0.605038,-0.473211,-0.191304,-0.580363,0.598354,0.170305,3.299604,38.055462,25.190231,8.612547,0.589994,2.098495,0.087753,0.000000,0.000000,0.000000,0.000000,0.000000,0.000000
10386078.000000,2.267688,-1.222993,-1.764397,-1.481319,-1.212972,1.723001,0.552155,0.012409,-0.604516,-0.472769,-0.189339,-0.576295,0.598341,0.171504,3.398786,37.884869,25.289413,8.537169,0.620206,2.112228,0.094161,0.000000,0.000000,0.000000,0.000000,0.000000,0.000000
10386079.000000,2.267702,-1.223579,-1.764865,-1.481494,-1.213562,1.723621,0.552331,0.014046,-0.593839,-0.466849,-0.187247,-0.595649,0.615662,0.172985,3.497968,37.539715,25.261642,8.414183,0.661405,1.968490,0.041976,0.000000,0.000000,0.000000,0.000000,0.000000,0.000000
10386080.000000,2.267721,-1.224163,-1.765327,-1.481667,-1.214137,1.724224,0.552495,0.016616,-0.591457,-0.461892,-0.182249,-0.584622,0.616666,0.175828,3.545576,37.127117,25.214035,8.291197,0.571683,1.858627,0.074935,0.000000,0.000000,0.000000,0.000000,0.000000,0.000000
10386081.000000,2.267744,-1.224738,-1.765791,-1.481830,-1.214725,1.724807,0.552668,0.018839,-0.589602,-0.459033,-0.172448,-0.583064,0.608151,0.175600,3.569379,36.710552,25.114853,8.045225,0.542386,1.955673,0.034652,0.000000,0.000000,0.000000,0.000000,0.000000,0.000000
10386082.000000,2.267769,-1.225312,-1.766248,-1.481981,-1.215300,1.725378,0.552829,0.021511,-0.580656,-0.458007,-0.165554,-0.578017,0.605134,0.172518,3.545576,36.270184,24.991867,7.672301,0.518583,2.137862,0.067611,0.000000,0.000000,0.000000,0.000000,0.000000,0.000000
10386083.000000,2.267797,-1.225889,-1.766701,-1.482138,-1.215887,1.725972,0.553006,0.023535,-0.578764,-0.454923,-0.161383,-0.583325,0.599062,0.179105,3.497968,35.976604,24.773666,7.327147,0.500272,2.157089,0.028243,0.000000,0.000000,0.000000,0.000000,0.000000,0.000000
10386084.000000,2.267831,-1.226477,-1.767158,-1.482295,-1.216471,1.726578,0.553179,0.026193,-0.578996,-0.453455,-0.161526,-0.578148,0.594765,0.176335,3.398786,35.754436,24.599106,7.104979,0.458158,2.053634,0.028243,0.000000,0.000000,0.000000,0.000000,0.000000,0.000000
10386085.000000,2.267861,-1.227073,-1.767608,-1.482444,-1.217046,1.727167,0.553340,0.026509,-0.583755,-0.452179,-0.155349,-0.579210,0.595621,0.172786,3.371015,35.730633,24.503891,6.882811,0.434354,1.962081,0.074935,0.000000,0.000000,0.000000,0.000000,0.000000,0.000000
10386086.000000,2.267900,-1.227660,-1.768066,-1.482583,-1.217636,1.727769,0.553515,0.032687,-0.580767,-0.453767,-0.147069,-0.581593,0.597871,0.174535,3.224226,35.730633,24.452316,6.660643,0.476469,1.909896,0.009017,0.000000,0.000000,0.000000,0.000000,0.000000,0.000000
10386087.000000,2.267943,-1.228271,-1.768503,-1.482718,-1.218217,1.728362,0.553672,0.037385,-0.586121,-0.445077,-0.143876,-0.584641,0.601803,0.170625,3.049665,35.853619,24.206345,6.414671,0.530485,1.838485,0.074935,0.000000,0.000000,0.000000,0.000000,0.000000,0.000000
10386088.000000,2.267991,-1.228876,-1.768950,-1.482849,-1.218814,1.728966,0.553835,0.041471,-0.607635,-0.442510,-0.137985,-0.586641,0.598038,0.165129,2.851301,36.048016,23.988144,6.164732,0.584501,1.806442,0.081344,0.000000,0.000000,0.000000,0.000000,0.000000,0.000000
10386089.000000,2.268047,-1.229468,-1.769397,-1.482978,-1.219402,1.729566,0.554002,0.049044,-0.603998,-0.443644,-0.132352,-0.586171,0.594839,0.163464,2.581525,35.948833,23.765976,5.994139,0.589994,1.779891,0.009017,0.000000,0.000000,0.000000,0.000000,0.000000,0.000000
10386090.000000,2.268106,-1.230063,-1.769832,-1.483106,-1.219978,1.730168,0.554158,0.054634,-0.594679,-0.439752,-0.132294,-0.582364,0.594428,0.162589,2.307783,35.829815,23.448593,5.871153,0.500272,1.721298,0.067611,0.000000,0.000000,0.000000,0.000000,0.000000,0.000000
10386091.000000,2.268165,-1.230656,-1.770279,-1.483226,-1.220561,1.730781,0.554324,0.057558,-0.596329,-0.444922,-0.131067,-0.581475,0.599241,0.165887,2.085615,35.778240,23.250229,5.720397,0.488370,1.611434,0.034652,0.000000,0.000000,0.000000,0.000000,0.000000,0.000000
10386092.000000,2.268228,-1.231264,-1.770726,-1.483349,-1.221142,1.731386,0.554480,0.061034,-0.597421,-0.453425,-0.129692,-0.581109,0.607492,0.160197,1.811872,35.778240,23.055832,5.672789,0.446256,1.559249,0.067611,0.000000,0.000000,0.000000,0.000000,0.000000,0.000000
10386093.000000,2.268289,-1.231868,-1.771164,-1.483482,-1.221715,1.731986,0.554643,0.060496,-0.599065,-0.449625,-0.131072,-0.576084,0.601422,0.163065,1.665082,35.754436,22.857468,5.744200,0.405057,1.552840,0.061202,0.000000,0.000000,0.000000,0.000000,0.000000,0.000000
10386094.000000,2.268351,-1.232459,-1.771594,-1.483620,-1.222307,1.732587,0.554809,0.060381,-0.594934,-0.443948,-0.133870,-0.578166,0.597722,0.166662,1.514325,35.655254,22.563889,5.894957,0.374845,1.656295,0.001693,0.000000,0.000000,0.000000,0.000000,0.000000,0.000000
10386095.000000,2.268419,-1.233061,-1.772027,-1.483750,-1.222893,1.733182,0.554961,0.063752,-0.597112,-0.439128,-0.134125,-0.580442,0.597652,0.160664,1.343732,35.536236,22.341721,5.994139,0.374845,1.702071,0.034652,0.000000,0.000000,0.000000,0.000000,0.000000,0.000000
10386096.000000,2.268482,-1.233656,-1.772461,-1.483882,-1.223493,1.733800,0.555109,0.064703,-0.597634,-0.436236,-0.130803,-0.582139,0.595337,0.163396,1.244550,35.460857,22.171127,6.093321,0.398649,1.656295,0.061202,0.000000,0.000000,0.000000,0.000000,0.000000,0.000000
10386097.000000,2.268547,-1.234266,-1.772896,-1.484007,-1.224078,1.734411,0.555264,0.064352,-0.600607,-0.434077,-0.130107,-0.578680,0.600533,0.160694,1.169172,35.508465,21.972763,6.164732,0.393156,1.584884,0.034652,0.000000,0.000000,0.000000,0.000000,0.000000,0.000000
10386098.000000,2.268611,-1.234888,-1.773333,-1.484141,-1.224683,1.735015,0.555418,0.064556,-0.602218,-0.435012,-0.129040,-0.580576,0.597661,0.163057,1.121564,35.655254,21.901352,6.315489,0.398649,1.552840,0.028243,0.000000,0.000000,0.000000,0.000000,0.000000,0.000000
10386099.000000,2.268679,-1.235492,-1.773781,-1.484263,-1.225278,1.735627,0.555572,0.065152,-0.605014,-0.433919,-0.127637,-0.579817,0.594646,0.158693,1.046186,35.754436,21.948959,6.315489,0.369352,1.532699,0.048385,0.000000,0.000000,0.000000,0.000000,0.000000,0.000000
10386100.000000,2.268755,-1.236112,-1.774220,-1.484388,-1.225877,1.736236,0.555722,0.067547,-0.609136,-0.439158,-0.130009,-0.590928,0.593539,0.159578,0.895429,35.877422,21.948959,6.315489,0.374845,1.500655,0.094161,0.000000,0.000000,0.000000,0.000000,0.000000,0.000000
10386101.000000,2.268821,-1.236720,-1.774668,-1.484510,-1.226478,1.736839,0.555882,0.068934,-0.609922,-0.441151,-0.123615,-0.591093,0.585882,0.159538,0.871625,35.976604,22.000534,6.240111,0.422452,1.487838,0.034652,0.000000,0.000000,0.000000,0.000000,0.000000,0.000000
10386102.000000,2.268892,-1.237339,-1.775119,-1.484633,-1.227083,1.737442,0.556033,0.071237,-0.609753,-0.445720,-0.124838,-0.593545,0.588396,0.154603,0.796247,36.048016,22.071945,6.263915,0.393156,1.546432,0.087753,0.000000,0.000000,0.000000,0.000000,0.000000,0.000000
10386103.000000,2.268963,-1.237957,-1.775552,-1.484760,-1.227679,1.738030,0.556188,0.073087,-0.608028,-0.442500,-0.126906,-0.591803,0.585471,0.154515,0.748639,35.925030,22.000534,6.339293,0.398649,1.591293,0.048385,0.000000,0.000000,0.000000,0.000000,0.000000,0.000000
10386104.000000,2.269036,-1.238556,-1.776002,-1.484880,-1.228288,1.738627,0.556337,0.070464,-0.608074,-0.443322,-0.125223,-0.593588,0.584606,0.152807,0.724836,35.706829,22.095749,6.291686,0.410551,1.591293,0.054794,0.000000,0.000000,0.000000,0.000000,0.000000,0.000000
10386105.000000,2.269109,-1.239171,-1.776451,-1.484996,-1.228887,1.739209,0.556486,0.073029,-0.607327,-0.456497,-0.121711,-0.593014,0.581674,0.147251,0.649457,35.607647,22.270309,6.263915,0.446256,1.546432,0.054794,0.000000,0.000000,0.000000,0.000000,0.000000,0.000000
10386106.000000,2.269174,-1.239770,-1.776910,-1.485116,-1.229498,1.739787,0.556638,0.070946,-0.612819,-0.453822,-0.122855,-0.601687,0.580449,0.147602,0.748639,35.361675,22.365524,6.263915,0.476469,1.605026,0.054794,0.000000,0.000000,0.000000,0.000000,0.000000,0.000000
10386107.000000,2.269243,-1.240374,-1.777368,-1.485236,-1.230106,1.740365,0.556789,0.070990,-0.608616,-0.452566,-0.122713,-0.606603,0.577903,0.147261,0.772443,35.091900,22.488510,6.216307,0.470060,1.702071,0.067611,0.000000,0.000000,0.000000,0.000000,0.000000,0.000000
10386108.000000,2.269316,-1.240988,-1.777818,-1.485356,-1.230709,1.740943,0.556944,0.071951,-0.609250,-0.445987,-0.121116,-0.609728,0.580901,0.153456,0.772443,34.873699,22.512314,6.240111,0.446256,1.682845,0.054794,0.000000,0.000000,0.000000,0.000000,0.000000,0.000000
10386109.000000,2.269390,-1.241584,-1.778282,-1.485466,-1.231317,1.741518,0.557093,0.071750,-0.606170,-0.447274,-0.117123,-0.607248,0.571540,0.151938,0.796247,34.603924,22.686874,6.164732,0.452665,1.689254,0.067611,0.000000,0.000000,0.000000,0.000000,0.000000,0.000000
10386110.000000,2.269459,-1.242190,-1.778739,-1.485578,-1.231925,1.742077,0.557244,0.070599,-0.599769,-0.455180,-0.115760,-0.607131,0.579790,0.156978,0.895429,34.334148,22.710678,6.140929,0.470060,1.721298,0.048385,0.000000,0.000000,0.000000,0.000000,0.000000,0.000000
10386111.000000,2.269528,-1.242806,-1.779183,-1.485689,-1.232526,1.742645,0.557392,0.070129,-0.600946,-0.453330,-0.114780,-0.599918,0.572449,0.154578,0.970807,34.139751,22.686874,6.117125,0.416959,1.832076,0.054794,0.000000,0.000000,0.000000,0.000000,0.000000,0.000000
10386112.000000,2.269604,-1.243417,-1.779636,-1.485788,-1.233144,1.743214,0.557536,0.071618,-0.606240,-0.449250,-0.111602,-0.607397,0.573917,0.151410,0.970807,34.139751,22.710678,5.994139,0.446256,1.877853,0.094161,0.000000,0.000000,0.000000,0.000000,0.000000,0.000000
10386113.000000,2.269677,-1.244043,-1.780086,-1.485885,-1.233745,1.743780,0.557690,0.071710,-0.614282,-0.450368,-0.109475,-0.607606,0.574080,0.152278,0.994611,34.238934,22.734482,5.871153,0.470060,1.838485,0.048385,0.000000,0.000000,0.000000,0.000000,0.000000,0.000000
10386114.000000,2.269752,-1.244660,-1.780540,-1.485985,-1.234348,1.744347,0.557838,0.076380,-0.611950,-0.448142,-0.103959,-0.609347,0.569516,0.151479,0.970807,34.357952,22.758286,5.720397,0.446256,1.760665,0.081344,0.000000,0.000000,0.000000,0.000000,0.000000,0.000000
10386115.000000,2.269824,-1.245301,-1.781001,-1.486086,-1.234944,1.744922,0.557996,0.077293,-0.619228,-0.453578,-0.105159,-0.602756,0.570572,0.157784,1.022382,34.627728,22.809860,5.672789,0.428861,1.708480,0.034652,0.000000,0.000000,0.000000,0.000000,0.000000,0.000000
10386116.000000,2.269896,-1.245942,-1.781448,-1.486182,-1.235552,1.745487,0.558143,0.078481,-0.624143,-0.452074,-0.099652,-0.607022,0.566853,0.153102,1.093793,34.750713,22.786057,5.597411,0.398649,1.643478,0.094161,0.000000,0.000000,0.000000,0.000000,0.000000,0.000000
10386117.000000,2.269963,-1.246579,-1.781900,-1.486278,-1.236158,1.746055,0.558295,0.075283,-0.630501,-0.447796,-0.096010,-0.599944,0.565142,0.152774,1.192975,34.972881,22.663071,5.549803,0.369352,1.656295,0.074935,0.000000,0.000000,0.000000,0.000000,0.000000,0.000000
10386118.000000,2.270037,-1.247215,-1.782341,-1.486368,-1.236766,1.746606,0.558442,0.078099,-0.626639,-0.445002,-0.092579,-0.607905,0.562765,0.150875,1.216779,35.044292,22.488510,5.474425,0.416959,1.714889,0.094161,0.000000,0.000000,0.000000,0.000000,0.000000,0.000000
10386119.000000,2.270112,-1.247850,-1.782800,-1.486460,-1.237371,1.747164,0.558601,0.077110,-0.626218,-0.449816,-0.093816,-0.603612,0.560375,0.153102,1.244550,35.143475,22.464706,5.422850,0.339139,1.786300,0.034652,0.000000,0.000000,0.000000,0.000000,0.000000,0.000000
10386120.000000,2.270182,-1.248483,-1.783256,-1.486550,-1.237992,1.747738,0.558751,0.073625,-0.626739,-0.450818,-0.092153,-0.610746,0.562803,0.152147,1.367536,35.167278,22.341721,5.399046,0.381254,1.767074,0.028243,0.000000,0.000000,0.000000,0.000000,0.000000,0.000000
10386121.000000,2.270252,-1.249127,-1.783708,-1.486638,-1.238593,1.748312,0.558888,0.072132,-0.634870,-0.450432,-0.088306,-0.608145,0.572682,0.149203,1.466718,35.238689,22.294113,5.399046,0.344633,1.656295,0.081344,0.000000,0.000000,0.000000,0.000000,0.000000,0.000000
10386122.000000,2.270333,-1.249747,-1.784168,-1.486729,-1.239208,1.748894,0.559042,0.073678,-0.630128,-0.450296,-0.088100,-0.612558,0.574571,0.150803,1.442914,35.119671,22.294113,5.399046,0.381254,1.526290,0.041976,0.000000,0.000000,0.000000,0.000000,0.000000,0.000000
10386123.000000,2.270407,-1.250370,-1.784620,-1.486817,-1.239816,1.749455,0.559181,0.073216,-0.625343,-0.463869,-0.090830,-0.610921,0.573113,0.143518,1.490522,34.849895,22.294113,5.375243,0.398649,1.487838,0.100570,0.000000,0.000000,0.000000,0.000000,0.000000,0.000000
10386124.000000,2.270481,-1.250992,-1.785073,-1.486904,-1.240438,1.750021,0.559331,0.072802,-0.635799,-0.458811,-0.090739,-0.616646,0.569155,0.140421,1.542096,34.603924,22.194931,5.399046,0.470060,1.539108,0.081344,0.000000,0.000000,0.000000,0.000000,0.000000,0.000000
10386125.000000,2.270562,-1.251610,-1.785527,-1.486992,-1.241051,1.750582,0.559481,0.073883,-0.633150,-0.453695,-0.091319,-0.612426,0.564355,0.143929,1.514325,34.262737,22.171127,5.450621,0.458158,1.630660,0.041976,0.000000,0.000000,0.000000,0.000000,0.000000,0.000000
10386126.000000,2.270638,-1.252249,-1.785971,-1.487067,-1.241650,1.751137,0.559617,0.073030,-0.637215,-0.449421,-0.086257,-0.614614,0.563054,0.138013,1.565900,34.187359,22.119553,5.399046,0.446256,1.682845,0.087753,0.000000,0.000000,0.000000,0.000000,0.000000,0.000000
10386127.000000,2.270719,-1.252878,-1.786425,-1.487149,-1.242263,1.751690,0.559763,0.077446,-0.629426,-0.446407,-0.084104,-0.613419,0.556968,0.138011,1.542096,34.163555,22.119553,5.422850,0.386747,1.727706,0.028243,0.000000,0.000000,0.000000,0.000000,0.000000,0.000000
10386128.000000,2.270801,-1.253527,-1.786882,-1.487225,-1.242859,1.752245,0.559898,0.080941,-0.634579,-0.447094,-0.081423,-0.607229,0.565342,0.139275,1.514325,34.262737,22.095749,5.399046,0.243009,1.741439,0.061202,0.000000,0.000000,0.000000,0.000000,0.000000,0.000000
10386129.000000,2.270884,-1.254179,-1.787336,-1.487298,-1.243469,1.752808,0.560033,0.079946,-0.638826,-0.449785,-0.076291,-0.604764,0.561232,0.141082,1.490522,34.334148,22.147324,5.375243,0.183500,1.741439,0.074935,0.000000,0.000000,0.000000,0.000000,0.000000,0.000000
10386130.000000,2.270971,-1.254826,-1.787796,-1.487366,-1.244088,1.753380,0.560175,0.082319,-0.643400,-0.451055,-0.075090,-0.610196,0.560376,0.144376,1.466718,34.504742,22.218735,5.327635,0.195402,1.670028,0.034652,0.000000,0.000000,0.000000,0.000000,0.000000,0.000000
10386131.000000,2.271057,-1.255469,-1.788258,-1.487435,-1.244706,1.753937,0.560309,0.083685,-0.643576,-0.453309,-0.075379,-0.615980,0.558757,0.143534,1.466718,34.480938,22.294113,5.327635,0.249418,1.630660,0.081344,0.000000,0.000000,0.000000,0.000000,0.000000,0.000000
10386132.000000,2.271154,-1.256109,-1.788731,-1.487506,-1.245341,1.754491,0.560453,0.087500,-0.640302,-0.456724,-0.075906,-0.626802,0.557090,0.146051,1.343732,34.504742,22.464706,5.351439,0.393156,1.695663,0.061202,0.000000,0.000000,0.000000,0.000000,0.000000,0.000000
10386133.000000,2.271247,-1.256774,-1.789199,-1.487583,-1.245960,1.755054,0.560596,0.091629,-0.648831,-0.460048,-0.078212,-0.623640,0.558325,0.146719,1.244550,34.726910,22.540085,5.474425,0.458158,1.735030,0.061202,0.000000,0.000000,0.000000,0.000000,0.000000,0.000000
10386134.000000,2.271336,-1.257436,-1.789655,-1.487659,-1.246583,1.755620,0.560739,0.094144,-0.652590,-0.461467,-0.080197,-0.623017,0.563054,0.147851,1.216779,34.849895,22.563889,5.597411,0.458158,1.656295,0.041976,0.000000,0.000000,0.000000,0.000000,0.000000,0.000000
10386135.000000,2.271430,-1.258080,-1.790124,-1.487736,-1.247209,1.756185,0.560879,0.093320,-0.653739,-0.461464,-0.079617,-0.615627,0.558956,0.143029,1.169172,34.873699,22.587692,5.771971,0.422452,1.630660,0.034652,0.000000,0.000000,0.000000,0.000000,0.000000,0.000000
10386136.000000,2.271527,-1.258736,-1.790590,-1.487811,-1.247827,1.756734,0.561009,0.094089,-0.653067,-0.462130,-0.078162,-0.623210,0.560554,0.138090,1.069990,34.921307,22.734482,5.918761,0.446256,1.630660,0.087753,0.000000,0.000000,0.000000,0.000000,0.000000,0.000000
10386137.000000,2.271624,-1.259384,-1.791053,-1.487884,-1.248439,1.757286,0.561156,0.093567,-0.646452,-0.459458,-0.073438,-0.614070,0.557941,0.137772,0.994611,34.897503,22.758286,6.041747,0.339139,1.727706,0.034652,0.000000,0.000000,0.000000,0.000000,0.000000,0.000000
10386138.000000,2.271715,-1.260056,-1.791519,-1.487958,-1.249067,1.757836,0.561286,0.092949,-0.654887,-0.460347,-0.076827,-0.625891,0.552315,0.132804,0.947004,35.068096,22.758286,6.192503,0.327238,1.806442,0.094161,0.000000,0.000000,0.000000,0.000000,0.000000,0.000000
10386139.000000,2.271812,-1.260732,-1.791982,-1.488034,-1.249689,1.758377,0.561426,0.095338,-0.659952,-0.460252,-0.079647,-0.624501,0.550316,0.138508,0.923200,35.314068,22.857468,6.363097,0.297025,1.838485,0.054794,0.000000,0.000000,0.000000,0.000000,0.000000,0.000000
10386140.000000,2.271910,-1.261399,-1.792449,-1.488109,-1.250316,1.758920,0.561562,0.095982,-0.667385,-0.461251,-0.078017,-0.627403,0.544722,0.140773,0.923200,35.607647,22.905075,6.513854,0.267728,1.825668,0.067611,0.000000,0.000000,0.000000,0.000000,0.000000,0.000000
10386141.000000,2.272005,-1.262067,-1.792908,-1.488192,-1.250938,1.759469,0.561701,0.092970,-0.664973,-0.464558,-0.079272,-0.627319,0.547570,0.138465,0.947004,35.754436,22.881271,6.759825,0.285123,1.767074,0.061202,0.000000,0.000000,0.000000,0.000000,0.000000,0.000000
10386142.000000,2.272110,-1.262732,-1.793368,-1.488269,-1.251564,1.760027,0.561842,0.094442,-0.672901,-0.465058,-0.077549,-0.632982,0.546482,0.136189,0.824018,35.877422,22.905075,6.906615,0.327238,1.676437,0.048385,0.000000,0.000000,0.000000,0.000000,0.000000,0.000000
10386143.000000,2.272209,-1.263416,-1.793823,-1.488342,-1.252198,1.760578,0.561972,0.096648,-0.675588,-0.459610,-0.075715,-0.629327,0.546980,0.132068,0.748639,36.095623,22.833664,7.029601,0.428861,1.643478,0.094161,0.000000,0.000000,0.000000,0.000000,0.000000,0.000000
10386144.000000,2.272310,-1.264096,-1.794276,-1.488411,-1.252817,1.761111,0.562107,0.094766,-0.672933,-0.457802,-0.075467,-0.628047,0.540275,0.131912,0.724836,36.147198,22.833664,7.057372,0.446256,1.708480,0.067611,0.000000,0.000000,0.000000,0.000000,0.000000,0.000000
10386145.000000,2.272414,-1.264746,-1.794734,-1.488480,-1.253429,1.761645,0.562238,0.097128,-0.669763,-0.456311,-0.071554,-0.616584,0.537720,0.131452,0.649457,35.976604,22.734482,7.057372,0.458158,1.800033,0.061202,0.000000,0.000000,0.000000,0.000000,0.000000,0.000000
10386146.000000,2.272524,-1.265415,-1.795200,-1.488549,-1.254029,1.762202,0.562366,0.101098,-0.670565,-0.455621,-0.069340,-0.625292,0.547976,0.130057,0.502668,35.925030,22.734482,7.081175,0.369352,1.754256,0.074935,0.000000,0.000000,0.000000,0.000000,0.000000,0.000000
10386147.000000,2.272634,-1.266084,-1.795639,-1.488613,-1.254658,1.762981,0.562536,0.103190,-0.664809,-0.448458,-0.066853,-0.623504,0.622826,0.144021,0.375715,35.829815,22.464706,7.057372,0.464567,-0.404557,-0.320573,0.000000,0.000000,0.000000,0.000000,0.000000,0.000000
10386148.000000,2.272738,-1.266742,-1.796124,-1.488696,-1.255486,1.763894,0.562673,0.101336,-0.661549,-0.457157,-0.071934,-0.696958,0.726218,0.141670,0.403486,35.655254,22.809860,7.327147,2.203153,-3.383683,-0.400223,0.000000,0.000000,0.000000,0.000000,0.000000,0.000000
10386149.000000,2.272816,-1.267436,-1.796573,-1.488777,-1.256145,1.764592,0.562704,0.090845,-0.669837,-0.454014,-0.072826,-0.685321,0.722647,0.103378,0.796247,35.853619,22.611496,7.624693,2.406400,-3.975114,0.509811,0.000000,0.000000,0.000000,0.000000,0.000000,0.000000
10386150.000000,2.272889,-1.268158,-1.796898,-1.488748,-1.256906,1.765328,0.562988,0.082738,-0.693657,-0.405444,-0.037238,-0.706872,0.729043,0.160864,1.268354,36.635174,20.671494,6.386900,3.171781,-4.247941,-0.815873,0.000000,0.000000,0.000000,0.000000,0.000000,0.000000
10386151.000000,2.273080,-1.268936,-1.797249,-1.488699,-1.257667,1.766131,0.563039,0.122480,-0.726006,-0.380131,-0.005705,-0.722880,0.752190,0.127866,-0.044818,37.956280,19.199631,4.954710,3.798917,-4.781693,-0.056901,0.000000,0.000000,0.000000,0.000000,0.000000,0.000000
10386152.000000,2.273208,-1.269672,-1.797556,-1.488663,-1.258516,1.766858,0.563125,0.123095,-0.727664,-0.355053,0.010979,-0.758630,0.736425,0.117516,-0.366168,38.571209,17.382614,3.867674,4.820646,-4.521684,0.377975,0.000000,0.000000,0.000000,0.000000,0.000000,0.000000
10386153.000000,2.273236,-1.270363,-1.797742,-1.488587,-1.259120,1.767709,0.563237,0.088651,-0.712361,-0.291362,0.036982,-0.704309,0.768927,0.118318,0.796247,38.571209,14.022324,2.435484,3.470243,-5.054521,0.615096,0.000000,0.000000,0.000000,0.000000,0.000000,0.000000
10386154.000000,2.273384,-1.271083,-1.797916,-1.488557,-1.259760,1.768470,0.563474,0.106750,-0.705416,-0.247157,0.034583,-0.677030,0.766124,0.154960,0.205121,38.789410,11.003220,1.887999,2.519926,-4.807328,-0.386491,0.000000,0.000000,0.000000,0.000000,0.000000,0.000000
10386155.000000,2.273509,-1.271829,-1.798006,-1.488488,-1.260523,1.769150,0.563558,0.109482,-0.722092,-0.188274,0.043645,-0.692567,0.729040,0.131945,0.006757,39.451946,7.198593,1.050902,2.711271,-3.818558,0.009017,0.000000,0.000000,0.000000,0.000000,0.000000,0.000000
10386156.000000,2.273531,-1.272560,-1.797994,-1.488335,-1.261182,1.769793,0.563613,0.082685,-0.719796,-0.119334,0.080563,-0.668818,0.687950,0.107059,1.268354,39.670147,2.485458,-0.805788,2.251676,-2.629288,0.648055,0.000000,0.000000,0.000000,0.000000,0.000000,0.000000
10386157.000000,2.273604,-1.273243,-1.798009,-1.488251,-1.261788,1.770382,0.563819,0.077338,-0.705360,-0.082844,0.081660,-0.640774,0.642651,0.138181,1.764264,39.182171,-1.219986,-1.472292,1.486295,-1.464738,-0.142960,0.000000,0.000000,0.000000,0.000000,0.000000,0.000000
10386158.000000,2.273673,-1.273842,-1.797963,-1.488200,-1.262435,1.771008,0.563917,0.073844,-0.672510,-0.036876,0.071452,-0.636780,0.627772,0.127260,2.232404,37.662701,-5.171402,-1.496095,1.301359,-1.035355,0.054794,0.000000,0.000000,0.000000,0.000000,0.000000,0.000000
10386159.000000,2.273669,-1.274374,-1.797862,-1.488096,-1.263031,1.771652,0.564008,0.044156,-0.621833,0.006985,0.083543,-0.619150,0.624069,0.122060,3.620954,35.238689,-9.269608,-2.138796,0.948881,-1.328324,0.338607,0.000000,0.000000,0.000000,0.000000,0.000000,0.000000
10386160.000000,2.273672,-1.274874,-1.797777,-1.488010,-1.263579,1.772342,0.564150,0.029859,-0.588950,0.032352,0.083010,-0.597822,0.647384,0.130042,4.882551,32.719463,-12.459305,-2.360964,0.381254,-2.252091,0.180221,0.000000,0.000000,0.000000,0.000000,0.000000,0.000000
10386161.000000,2.273668,-1.275356,-1.797611,-1.487952,-1.264154,1.772998,0.564270,0.015772,-0.545653,0.075995,0.075011,-0.585274,0.643937,0.128151,6.068769,30.049480,-16.240128,-2.091188,0.154203,-2.999161,0.213180,0.000000,0.000000,0.000000,0.000000,0.000000,0.000000
10386162.000000,2.273638,-1.275794,-1.797409,-1.487876,-1.264722,1.773539,0.564409,-0.002804,-0.505715,0.115048,0.071925,-0.581454,0.610171,0.135017,7.481122,27.014507,-20.044754,-2.015810,0.219205,-2.810563,0.028243,0.000000,0.000000,0.000000,0.000000,0.000000,0.000000
10386163.000000,2.273591,-1.276173,-1.797217,-1.487815,-1.265173,1.774011,0.564514,-0.017956,-0.467785,0.138643,0.064994,-0.532692,0.558981,0.127124,8.992658,23.614544,-23.210648,-1.718263,-0.766818,-2.036942,0.186630,0.000000,0.000000,0.000000,0.000000,0.000000,0.000000
10386164.000000,2.273555,-1.276499,-1.796994,-1.487747,-1.265601,1.774555,0.564642,-0.024186,-0.416653,0.163747,0.064354,-0.506678,0.561622,0.128672,10.178876,19.869427,-26.376541,-1.595277,-1.621005,-1.984757,0.153671,0.000000,0.000000,0.000000,0.000000,0.000000,0.000000
10386165.000000,2.273541,-1.276793,-1.796791,-1.487675,-1.266033,1.775165,0.564786,-0.023220,-0.368417,0.177688,0.065119,-0.479962,0.578898,0.134841,10.972333,15.977520,-28.903702,-1.496095,-2.379977,-2.654923,-0.023942,0.000000,0.000000,0.000000,0.000000,0.000000,0.000000
10386166.000000,2.273509,-1.277030,-1.796623,-1.487608,-1.266420,1.775760,0.564902,-0.026385,-0.326310,0.169543,0.063430,-0.444082,0.590213,0.129939,11.888776,11.915020,-30.696915,-1.297731,-3.318392,-3.220719,0.048385,0.000000,0.000000,0.000000,0.000000,0.000000,0.000000
10386167.000000,2.273457,-1.277229,-1.796460,-1.487528,-1.266804,1.776311,0.565016,-0.037105,-0.276639,0.164512,0.068317,-0.426117,0.586591,0.122264,13.027387,7.848553,-32.291763,-1.349306,-3.928133,-3.350724,0.114303,0.000000,0.000000,0.000000,0.000000,0.000000,0.000000
10386168.000000,2.273444,-1.277398,-1.796329,-1.487460,-1.267212,1.776862,0.565158,-0.025709,-0.240476,0.147755,0.067464,-0.418427,0.575984,0.125078,13.471723,3.885235,-33.370865,-1.226320,-4.226595,-3.396500,-0.044083,0.000000,0.000000,0.000000,0.000000,0.000000,0.000000
10386169.000000,2.273447,-1.277533,-1.796226,-1.487389,-1.267624,1.777429,0.565291,-0.015600,-0.204203,0.124560,0.068725,-0.414740,0.572347,0.127405,13.670087,-0.082051,-34.033401,-1.174745,-4.316317,-3.409318,-0.097184,0.000000,0.000000,0.000000,0.000000,0.000000,0.000000
10386170.000000,2.273437,-1.277626,-1.796160,-1.487315,-1.268040,1.777970,0.565414,-0.010343,-0.166297,0.103137,0.070872,-0.424485,0.562348,0.129350,14.043012,-4.243732,-34.279373,-1.174745,-4.286105,-3.337907,-0.017533,0.000000,0.000000,0.000000,0.000000,0.000000,0.000000
10386171.000000,2.273446,-1.277665,-1.796124,-1.487268,-1.268504,1.778528,0.565558,-0.002940,-0.125876,0.076099,0.064105,-0.439444,0.556025,0.133475,14.114423,-8.552204,-34.231766,-0.829591,-3.987643,-3.311356,-0.136552,0.000000,0.000000,0.000000,0.000000,0.000000,0.000000
10386173.000000,2.273522,-1.277659,-1.796162,-1.487134,-1.269516,1.779641,0.565815,0.022066,-0.061960,0.020772,0.065835,-0.488814,0.557683,0.133572,13.523297,-17.018391,-33.200272,-0.829591,-3.103243,-3.363541,-0.155778,0.000000,0.000000,0.000000,0.000000,0.000000,0.000000
10386174.000000,2.273583,-1.277626,-1.796247,-1.487030,-1.270075,1.780176,0.565928,0.034946,-0.031972,-0.014489,0.078536,-0.513066,0.544919,0.126366,13.003583,-20.961872,-32.192581,-1.396913,-2.661044,-3.103532,-0.011124,0.000000,0.000000,0.000000,0.000000,0.000000,0.000000
10386175.000000,2.273670,-1.277593,-1.796344,-1.486931,-1.270657,1.780673,0.566052,0.052924,-0.010458,-0.040148,0.085906,-0.540857,0.530006,0.127621,12.210126,-24.437214,-31.260269,-1.916628,-2.200533,-2.661332,-0.023942,0.000000,0.000000,0.000000,0.000000,0.000000,0.000000
10386176.000000,2.273757,-1.277552,-1.796458,-1.486818,-1.271246,1.781194,0.566188,0.063118,0.001022,-0.065779,0.096010,-0.555496,0.522176,0.131906,11.515851,-27.666584,-30.403336,-2.535524,-2.110812,-2.440690,-0.130143,0.000000,0.000000,0.000000,0.000000,0.000000,0.000000
10386177.000000,2.273850,-1.277513,-1.796588,-1.486694,-1.271824,1.781719,0.566310,0.072241,0.012336,-0.089284,0.105298,-0.561865,0.526905,0.136302,10.873151,-30.554768,-29.594009,-3.249635,-2.332369,-2.479142,-0.136552,0.000000,0.000000,0.000000,0.000000,0.000000,0.000000
10386178.000000,2.273955,-1.277500,-1.796731,-1.486566,-1.272407,1.782247,0.566427,0.083307,0.008793,-0.107857,0.113021,-0.564474,0.523087,0.131949,10.155072,-32.732807,-28.879898,-3.892336,-2.774569,-2.472733,-0.083451,0.000000,0.000000,0.000000,0.000000,0.000000,0.000000
10386179.000000,2.274067,-1.277516,-1.796878,-1.486431,-1.273002,1.782749,0.566563,0.093994,0.001238,-0.121345,0.121512,-0.570628,0.515158,0.134649,9.460797,-34.323689,-28.439529,-4.511232,-3.145358,-2.323502,-0.182328,0.000000,0.000000,0.000000,0.000000,0.000000,0.000000
10386180.000000,2.274169,-1.277575,-1.797025,-1.486290,-1.273594,1.783224,0.566689,0.098486,-0.022432,-0.131879,0.127983,-0.576816,0.504273,0.133484,9.040265,-35.156818,-28.292740,-5.153932,-3.521639,-2.030534,-0.202470,0.000000,0.000000,0.000000,0.000000,0.000000,0.000000
10386181.000000,2.274270,-1.277673,-1.797193,-1.486134,-1.274205,1.783705,0.566804,0.096969,-0.054118,-0.143300,0.135691,-0.580874,0.489867,0.124253,8.695111,-35.402790,-28.145950,-5.796632,-3.748690,-1.841935,-0.136552,0.000000,0.000000,0.000000,0.000000,0.000000,0.000000
10386182.000000,2.274388,-1.277822,-1.797362,-1.485974,-1.274821,1.784197,0.566922,0.104166,-0.089961,-0.151436,0.145383,-0.602518,0.504368,0.124443,8.175397,-35.109211,-28.193558,-6.363954,-3.796298,-1.887711,-0.116410,0.000000,0.000000,0.000000,0.000000,0.000000,0.000000
10386183.000000,2.274506,-1.278014,-1.797538,-1.485810,-1.275429,1.784693,0.567025,0.107234,-0.128741,-0.158474,0.149788,-0.605378,0.501671,0.121021,7.731061,-34.446674,-28.364151,-6.911439,-3.897921,-2.017716,0.001693,0.000000,0.000000,0.000000,0.000000,0.000000,0.000000
10386184.000000,2.274618,-1.278254,-1.797699,-1.485654,-1.276040,1.785183,0.567137,0.105311,-0.165599,-0.157893,0.151100,-0.606295,0.491104,0.120698,7.481122,-33.319965,-28.927505,-7.232790,-4.023348,-2.069901,0.067611,0.000000,0.000000,0.000000,0.000000,0.000000,0.000000
10386185.000000,2.274721,-1.278552,-1.797836,-1.485509,-1.276656,1.785657,0.567249,0.102827,-0.212947,-0.145851,0.149948,-0.609045,0.488968,0.118166,7.405744,-31.756855,-29.935196,-7.304201,-3.975741,-2.017716,0.074935,0.000000,0.000000,0.000000,0.000000,0.000000,0.000000
10386186.000000,2.274833,-1.278887,-1.797972,-1.485360,-1.277283,1.786115,0.567352,0.106438,-0.257613,-0.140438,0.148645,-0.612692,0.480424,0.113673,7.282758,-29.967609,-30.990494,-7.328004,-3.843905,-1.789750,0.153671,0.000000,0.000000,0.000000,0.000000,0.000000,0.000000
10386187.000000,2.274939,-1.279263,-1.798098,-1.485202,-1.277912,1.786575,0.567448,0.107427,-0.298141,-0.131163,0.150000,-0.625511,0.475947,0.114901,7.235151,-28.182331,-32.192581,-7.427186,-3.706576,-1.575516,0.225997,0.000000,0.000000,0.000000,0.000000,0.000000,0.000000
10386188.000000,2.275052,-1.279661,-1.798200,-1.485046,-1.278554,1.787038,0.567544,0.110144,-0.329012,-0.120260,0.150405,-0.627179,0.470303,0.110495,7.135969,-26.591450,-33.616837,-7.478761,-3.509737,-1.418961,0.305648,0.000000,0.000000,0.000000,0.000000,0.000000,0.000000
