chaoyuefei/paper-gmrm-data/batch01/robot_logs/s2_dq_mrm_min_0.50_log_20260314_170324.csv
# time_ms,q_0,q_1,q_2,q_3,q_4,q_5,q_6,dq_0,dq_1,dq_2,dq_3,dq_4,dq_5,dq_6,tau_J_0,tau_J_1,tau_J_2,tau_J_3,tau_J_4,tau_J_5,tau_J_6,O_dP_EE_c_0,O_dP_EE_c_1,O_dP_EE_c_2,O_dP_EE_c_3,O_dP_EE_c_4,O_dP_EE_c_5
10466637.000000,-2.338544,-1.662690,1.184155,-1.421741,1.728385,1.205226,-0.571226,-0.000455,-0.000383,0.000329,-0.000688,-0.000192,0.000336,-0.000057,0.078168,40.185894,-23.016251,-4.166078,0.817045,1.331283,0.048385,0.000000,0.000000,0.000000,0.000000,0.000000,0.000000
10466638.000000,-2.338544,-1.662691,1.184154,-1.421739,1.728390,1.205227,-0.571231,0.000253,-0.000812,0.000776,0.000655,0.000516,-0.000251,-0.000513,0.054365,40.209698,-23.040054,-4.213686,0.799650,1.344100,0.061202,0.000000,0.000000,0.000000,0.000000,0.000000,0.000000
10466639.000000,-2.338541,-1.662690,1.184150,-1.421743,1.728386,1.205228,-0.571227,0.000726,0.000015,-0.001246,-0.000677,-0.000097,-0.000167,0.001354,0.030561,40.185894,-22.964676,-4.166078,0.811552,1.344100,0.015426,0.000000,0.000000,0.000000,0.000000,0.000000,0.000000
10466640.000000,-2.338544,-1.662690,1.184152,-1.421741,1.728385,1.205229,-0.571230,-0.000630,0.000010,-0.000274,0.000105,-0.000064,0.000126,-0.001030,0.078168,40.185894,-22.988480,-4.189882,0.811552,1.337692,0.067611,0.000000,0.000000,0.000000,0.000000,0.000000,0.000000
10466641.000000,-2.338538,-1.662692,1.184152,-1.421742,1.728384,1.205227,-0.571226,0.009246,-0.001823,0.001322,0.004592,-0.008722,0.008388,-0.006975,0.328107,40.134319,-22.917068,-4.118471,0.793241,1.364242,-0.017533,0.000000,0.000000,0.000000,0.000000,0.000000,0.000000
10466642.000000,-2.338528,-1.662696,1.184156,-1.421738,1.728381,1.205222,-0.571236,0.016946,-0.003401,0.003478,0.008990,-0.008630,0.000602,-0.008661,1.391340,39.816936,-22.742508,-3.943910,0.721830,1.519881,-0.056901,0.000000,0.000000,0.000000,0.000000,0.000000,0.000000
10466643.000000,-2.338503,-1.662697,1.184177,-1.421736,1.728372,1.205220,-0.571272,0.023835,-0.002031,0.011902,0.008459,-0.008036,0.002734,-0.017884,3.049665,39.229778,-22.595718,-3.598757,0.632108,1.721298,-0.011124,0.000000,0.000000,0.000000,0.000000,0.000000,0.000000
10466644.000000,-2.338456,-1.662699,1.184204,-1.421737,1.728349,1.205239,-0.571301,0.026966,0.000111,0.016392,0.003692,-0.014998,0.004323,-0.024359,5.029340,38.571209,-22.353714,-3.178224,0.608304,1.812850,-0.097184,0.000000,0.000000,0.000000,0.000000,0.000000,0.000000
10466645.000000,-2.338393,-1.662696,1.184237,-1.421743,1.728319,1.205287,-0.571360,0.033776,0.003151,0.024490,-0.001888,-0.020782,0.021520,-0.034105,7.036787,37.809490,-22.032364,-2.781496,0.596403,1.727706,-0.056901,0.000000,0.000000,0.000000,0.000000,0.000000,0.000000
10466646.000000,-2.338306,-1.662700,1.184276,-1.421768,1.728275,1.205366,-0.571433,0.043970,0.004835,0.030354,-0.010621,-0.030556,0.039094,-0.050581,8.770490,37.174725,-21.687210,-2.313356,0.613798,1.500655,-0.023942,0.000000,0.000000,0.000000,0.000000,0.000000,0.000000
10466647.000000,-2.338203,-1.662704,1.184331,-1.421811,1.728222,1.205464,-0.571516,0.059210,0.001099,0.037342,-0.023722,-0.042031,0.059876,-0.063708,10.301862,36.611370,-21.445206,-1.817445,0.613798,1.305648,-0.083451,0.000000,0.000000,0.000000,0.000000,0.000000,0.000000
10466648.000000,-2.338088,-1.662703,1.184392,-1.421861,1.728150,1.205574,-0.571630,0.077652,0.001271,0.041382,-0.033601,-0.050667,0.076080,-0.078635,11.638837,36.048016,-21.147659,-1.448488,0.620206,1.201278,-0.023942,0.000000,0.000000,0.000000,0.000000,0.000000,0.000000
10466649.000000,-2.337958,-1.662704,1.184453,-1.421916,1.728061,1.205700,-0.571747,0.094086,-0.000996,0.046594,-0.041321,-0.068642,0.098940,-0.090098,12.777448,35.583843,-20.806473,-1.198549,0.571683,1.169235,-0.070634,0.000000,0.000000,0.000000,0.000000,0.000000,0.000000
10466650.000000,-2.337818,-1.662697,1.184529,-1.421983,1.727954,1.205845,-0.571875,0.104367,0.001909,0.053332,-0.049366,-0.081880,0.118010,-0.099951,13.820844,35.068096,-20.584305,-1.000185,0.500272,1.240646,-0.089860,0.000000,0.000000,0.000000,0.000000,0.000000,0.000000
10466651.000000,-2.337671,-1.662693,1.184610,-1.422070,1.727827,1.206015,-0.572013,0.117754,0.003766,0.061456,-0.062280,-0.092541,0.135031,-0.113514,14.733319,34.703106,-20.362137,-0.778017,0.440763,1.370651,-0.070634,0.000000,0.000000,0.000000,0.000000,0.000000,0.000000
10466652.000000,-2.337502,-1.662681,1.184714,-1.422169,1.727681,1.206221,-0.572151,0.131540,0.007890,0.074827,-0.074792,-0.111001,0.157291,-0.127446,15.550580,34.238934,-20.314529,-0.583620,0.405057,1.396285,-0.097184,0.000000,0.000000,0.000000,0.000000,0.000000,0.000000
10466653.000000,-2.337314,-1.662660,1.184832,-1.422283,1.727516,1.206461,-0.572297,0.147107,0.011512,0.089174,-0.086451,-0.128884,0.180344,-0.137045,16.169477,33.746990,-20.338333,-0.432863,0.369352,1.357833,-0.097184,0.000000,0.000000,0.000000,0.000000,0.000000,0.000000
10466654.000000,-2.337110,-1.662642,1.184954,-1.422420,1.727330,1.206728,-0.572445,0.165409,0.014384,0.099010,-0.103252,-0.148688,0.209338,-0.135837,16.590010,33.382000,-20.338333,-0.210695,0.362943,1.272689,-0.097184,0.000000,0.000000,0.000000,0.000000,0.000000,0.000000
10466655.000000,-2.336883,-1.662624,1.185096,-1.422573,1.727126,1.207012,-0.572598,0.186691,0.013675,0.110811,-0.121301,-0.169877,0.233848,-0.141015,16.911360,33.013042,-20.413712,-0.036134,0.405057,1.214095,-0.056901,0.000000,0.000000,0.000000,0.000000,0.000000,0.000000
10466656.000000,-2.336644,-1.662600,1.185249,-1.422756,1.726897,1.207325,-0.572745,0.204249,0.016454,0.125532,-0.142999,-0.190305,0.259397,-0.146597,17.137495,32.644085,-20.485123,0.233641,0.458158,1.214095,-0.097184,0.000000,0.000000,0.000000,0.000000,0.000000,0.000000
10466657.000000,-2.336398,-1.662583,1.185412,-1.422941,1.726654,1.207654,-0.572903,0.215099,0.016867,0.136823,-0.159304,-0.207979,0.277036,-0.147813,17.435041,32.350506,-20.560501,0.356627,0.446256,1.266280,-0.083451,0.000000,0.000000,0.000000,0.000000,0.000000,0.000000
10466658.000000,-2.336126,-1.662563,1.185589,-1.423139,1.726391,1.208001,-0.573061,0.232712,0.016735,0.151821,-0.170401,-0.225001,0.295584,-0.152509,17.581831,32.084698,-20.659683,0.432005,0.410551,1.305648,-0.077042,0.000000,0.000000,0.000000,0.000000,0.000000,0.000000
10466659.000000,-2.335844,-1.662546,1.185763,-1.423352,1.726117,1.208368,-0.573212,0.250853,0.015251,0.159673,-0.183263,-0.238353,0.314719,-0.150832,17.728621,31.886333,-20.608109,0.432005,0.381254,1.383468,-0.110001,0.000000,0.000000,0.000000,0.000000,0.000000,0.000000
10466660.000000,-2.335538,-1.662528,1.185953,-1.423585,1.725840,1.208752,-0.573371,0.266923,0.014306,0.168459,-0.197273,-0.252200,0.336811,-0.151605,17.756392,31.691936,-20.560501,0.455809,0.320829,1.474105,-0.089860,0.000000,0.000000,0.000000,0.000000,0.000000,0.000000
10466661.000000,-2.335214,-1.662515,1.186157,-1.423839,1.725525,1.209161,-0.573522,0.284348,0.011550,0.180502,-0.213130,-0.272443,0.354884,-0.151318,17.704817,31.592754,-20.512894,0.578795,0.285123,1.532699,-0.089860,0.000000,0.000000,0.000000,0.000000,0.000000,0.000000
10466662.000000,-2.334875,-1.662508,1.186371,-1.424110,1.725201,1.209587,-0.573674,0.299662,0.010750,0.189260,-0.232813,-0.284910,0.383605,-0.150599,17.681013,31.592754,-20.536697,0.753355,0.291532,1.565658,-0.097184,0.000000,0.000000,0.000000,0.000000,0.000000,0.000000
10466663.000000,-2.334521,-1.662497,1.186587,-1.424396,1.724856,1.210060,-0.573826,0.317772,0.011979,0.196679,-0.252235,-0.300031,0.412787,-0.150276,17.629438,31.521343,-20.461319,0.876341,0.327238,1.474105,-0.110001,0.000000,0.000000,0.000000,0.000000,0.000000,0.000000
10466664.000000,-2.334154,-1.662492,1.186815,-1.424698,1.724495,1.210547,-0.573979,0.334223,0.007758,0.206164,-0.266262,-0.319401,0.431489,-0.156505,17.581831,31.545147,-20.413712,0.999327,0.339139,1.377059,-0.089860,0.000000,0.000000,0.000000,0.000000,0.000000,0.000000
10466665.000000,-2.333772,-1.662486,1.187059,-1.424997,1.724115,1.211049,-0.574131,0.350674,0.005976,0.217438,-0.276555,-0.334801,0.457069,-0.154591,17.581831,31.521343,-20.413712,0.951720,0.374845,1.337692,-0.089860,0.000000,0.000000,0.000000,0.000000,0.000000,0.000000
10466666.000000,-2.333394,-1.662485,1.187307,-1.425316,1.723722,1.211574,-0.574281,0.365496,0.006749,0.224358,-0.286807,-0.353756,0.472978,-0.152874,17.803999,31.545147,-20.338333,0.876341,0.374845,1.357833,-0.116410,0.000000,0.000000,0.000000,0.000000,0.000000,0.000000
10466667.000000,-2.333001,-1.662482,1.187558,-1.425643,1.723321,1.212117,-0.574427,0.374635,0.003786,0.234691,-0.294492,-0.376198,0.502712,-0.151123,17.978559,31.592754,-20.215347,0.777159,0.386747,1.448470,-0.149369,0.000000,0.000000,0.000000,0.000000,0.000000,0.000000
10466668.000000,-2.332582,-1.662476,1.187823,-1.425980,1.722892,1.212685,-0.574583,0.388249,0.005981,0.239796,-0.306127,-0.386134,0.521535,-0.152478,18.125349,31.592754,-20.120132,0.654173,0.398649,1.500655,-0.116410,0.000000,0.000000,0.000000,0.000000,0.000000,0.000000
10466669.000000,-2.332163,-1.662468,1.188093,-1.426339,1.722453,1.213285,-0.574728,0.401418,0.007602,0.248181,-0.319416,-0.395693,0.548455,-0.146652,18.422895,31.592754,-20.068558,0.729552,0.476469,1.448470,-0.136552,0.000000,0.000000,0.000000,0.000000,0.000000,0.000000
10466670.000000,-2.331721,-1.662462,1.188378,-1.426707,1.722025,1.213906,-0.574879,0.410146,0.007744,0.258700,-0.335806,-0.408233,0.573086,-0.148889,18.645063,31.640362,-20.068558,0.927916,0.566190,1.299239,-0.110001,0.000000,0.000000,0.000000,0.000000,0.000000,0.000000
10466671.000000,-2.331270,-1.662455,1.188665,-1.427089,1.721592,1.214553,-0.575018,0.422284,0.008409,0.264369,-0.350030,-0.407999,0.597858,-0.144852,18.966413,31.668133,-19.969376,1.098509,0.679716,1.194869,-0.103593,0.000000,0.000000,0.000000,0.000000,0.000000,0.000000
10466672.000000,-2.330801,-1.662447,1.188961,-1.427493,1.721168,1.215223,-0.575156,0.438512,0.009013,0.273625,-0.366982,-0.408402,0.616673,-0.140758,19.216352,31.691936,-19.945572,1.419859,0.786832,1.096908,-0.142960,0.000000,0.000000,0.000000,0.000000,0.000000,0.000000
10466673.000000,-2.330319,-1.662446,1.189276,-1.427903,1.720762,1.215904,-0.575300,0.444890,0.007728,0.286003,-0.381073,-0.405710,0.638308,-0.137941,19.613081,31.791119,-19.921768,1.693602,0.817045,1.031905,-0.136552,0.000000,0.000000,0.000000,0.000000,0.000000,0.000000
10466674.000000,-2.329849,-1.662439,1.189593,-1.428331,1.720359,1.216599,-0.575440,0.455330,0.008083,0.302740,-0.394912,-0.399925,0.649687,-0.141114,20.156599,31.838726,-19.874161,2.014952,0.763029,1.084090,-0.136552,0.000000,0.000000,0.000000,0.000000,0.000000,0.000000
10466675.000000,-2.329339,-1.662429,1.189917,-1.428761,1.719968,1.217309,-0.575580,0.470632,0.009867,0.309081,-0.415866,-0.394932,0.679494,-0.143173,20.501753,31.814922,-19.751175,2.185545,0.667814,1.201278,-0.136552,0.000000,0.000000,0.000000,0.000000,0.000000,0.000000
10466676.000000,-2.328827,-1.662425,1.190261,-1.429222,1.719573,1.218051,-0.575718,0.474802,0.008909,0.318736,-0.436609,-0.398482,0.702049,-0.140373,20.652510,31.886333,-19.699600,2.336302,0.632108,1.234237,-0.149369,0.000000,0.000000,0.000000,0.000000,0.000000,0.000000
10466677.000000,-2.328319,-1.662415,1.190612,-1.429705,1.719169,1.218819,-0.575856,0.473081,0.009508,0.332747,-0.450801,-0.397087,0.713838,-0.142756,19.934431,31.910137,-19.529007,2.161741,0.601896,1.247054,-0.155778,0.000000,0.000000,0.000000,0.000000,0.000000,0.000000
10466678.000000,-2.327816,-1.662399,1.191002,-1.430213,1.718765,1.219605,-0.575993,0.475868,0.010115,0.349659,-0.471444,-0.399187,0.735821,-0.140438,18.498274,31.791119,-19.382217,1.816588,0.655912,1.201278,-0.142960,0.000000,0.000000,0.000000,0.000000,0.000000,0.000000
10466679.000000,-2.327309,-1.662385,1.191409,-1.430738,1.718360,1.220422,-0.576120,0.483092,0.006421,0.377627,-0.487831,-0.402284,0.756882,-0.137840,16.344038,31.568951,-19.037064,1.221495,0.661405,1.077682,-0.155778,0.000000,0.000000,0.000000,0.000000,0.000000,0.000000
10466680.000000,-2.326811,-1.662371,1.191830,-1.431276,1.717954,1.221239,-0.576250,0.490290,0.011741,0.389047,-0.497978,-0.399626,0.777407,-0.132698,14.114423,31.251568,-18.549088,0.606566,0.625699,1.019088,-0.149369,0.000000,0.000000,0.000000,0.000000,0.000000,0.000000
10466681.000000,-2.326331,-1.662361,1.192281,-1.431808,1.717549,1.222082,-0.576378,0.489876,0.012234,0.407429,-0.504958,-0.402483,0.793714,-0.127319,12.035565,30.934185,-18.080948,-0.063905,0.596403,1.045638,-0.163102,0.000000,0.000000,0.000000,0.000000,0.000000,0.000000
10466682.000000,-2.325852,-1.662352,1.192749,-1.432341,1.717159,1.222937,-0.576505,0.493547,0.014233,0.424327,-0.508736,-0.399844,0.811952,-0.124455,9.980512,30.664410,-17.688187,-0.754213,0.440763,1.182052,-0.149369,0.000000,0.000000,0.000000,0.000000,0.000000,0.000000
10466683.000000,-2.325378,-1.662351,1.193234,-1.432859,1.716780,1.223789,-0.576633,0.493084,0.009703,0.436834,-0.509134,-0.388600,0.816265,-0.121130,8.274579,30.517620,-17.319229,-1.373109,0.273221,1.357833,-0.155778,0.000000,0.000000,0.000000,0.000000,0.000000,0.000000
10466684.000000,-2.324902,-1.662352,1.193733,-1.433387,1.716400,1.224688,-0.576756,0.494438,0.005258,0.454183,-0.506011,-0.382757,0.835432,-0.119466,6.687665,30.418438,-17.001846,-1.841249,0.189908,1.429244,-0.149369,0.000000,0.000000,0.000000,0.000000,0.000000,0.000000
10466685.000000,-2.324423,-1.662358,1.194234,-1.433917,1.716043,1.225597,-0.576878,0.490911,0.000910,0.468643,-0.510692,-0.380833,0.858222,-0.117155,5.303083,30.370831,-16.732071,-2.138796,0.088285,1.442062,-0.169511,0.000000,0.000000,0.000000,0.000000,0.000000,0.000000
10466686.000000,-2.323936,-1.662362,1.194752,-1.434438,1.715663,1.226535,-0.577004,0.491384,-0.000917,0.477128,-0.513173,-0.382144,0.886321,-0.116573,3.942304,30.271648,-16.557510,-2.214174,0.129484,1.416427,-0.155778,0.000000,0.000000,0.000000,0.000000,0.000000,0.000000
10466687.000000,-2.323456,-1.662370,1.195262,-1.434961,1.715281,1.227491,-0.577127,0.492523,-0.001383,0.485693,-0.511697,-0.379527,0.898414,-0.122180,2.851301,30.271648,-16.315506,-2.214174,0.225614,1.402694,-0.110001,0.000000,0.000000,0.000000,0.000000,0.000000,0.000000
10466688.000000,-2.322963,-1.662381,1.195784,-1.435475,1.714914,1.228455,-0.577247,0.490917,-0.004545,0.492818,-0.516424,-0.372575,0.921071,-0.124212,1.835676,30.271648,-16.093338,-2.114992,0.308927,1.370651,-0.136552,0.000000,0.000000,0.000000,0.000000,0.000000,0.000000
10466689.000000,-2.322471,-1.662393,1.196306,-1.435978,1.714544,1.229442,-0.577367,0.490705,-0.007440,0.500109,-0.508192,-0.370716,0.944414,-0.126112,0.994611,30.295452,-15.823563,-2.091188,0.386747,1.409103,-0.116410,0.000000,0.000000,0.000000,0.000000,0.000000,0.000000
10466690.000000,-2.321989,-1.662406,1.196821,-1.436491,1.714181,1.230443,-0.577481,0.485980,-0.010013,0.506057,-0.505294,-0.368037,0.960463,-0.122250,0.252729,30.343060,-15.577591,-1.892824,0.410551,1.500655,-0.130143,0.000000,0.000000,0.000000,0.000000,0.000000,0.000000
10466691.000000,-2.321504,-1.662416,1.197350,-1.436980,1.713834,1.231449,-0.577591,0.482323,-0.010011,0.509159,-0.503222,-0.359281,0.981327,-0.117247,-0.314593,30.319256,-15.307816,-1.817445,0.381254,1.578475,-0.202470,0.000000,0.000000,0.000000,0.000000,0.000000,0.000000
10466692.000000,-2.321021,-1.662423,1.197883,-1.437482,1.713494,1.232484,-0.577714,0.486243,-0.009469,0.517552,-0.499573,-0.351055,0.991914,-0.118708,-0.862078,30.271648,-15.137222,-1.670656,0.320829,1.637069,-0.142960,0.000000,0.000000,0.000000,0.000000,0.000000,0.000000
10466693.000000,-2.320538,-1.662428,1.198422,-1.437977,1.713152,1.233520,-0.577829,0.483155,-0.008564,0.524981,-0.502896,-0.350291,1.022095,-0.120447,-1.282611,30.196270,-14.891251,-1.448488,0.255826,1.708480,-0.175919,0.000000,0.000000,0.000000,0.000000,0.000000,0.000000
10466694.000000,-2.320053,-1.662427,1.198976,-1.438470,1.712809,1.234610,-0.577947,0.485084,-0.003873,0.531359,-0.500695,-0.347475,1.045093,-0.122192,-1.703143,30.077251,-14.669083,-1.250124,0.249418,1.611434,-0.188737,0.000000,0.000000,0.000000,0.000000,0.000000,0.000000
10466695.000000,-2.319579,-1.662428,1.199528,-1.438964,1.712473,1.235725,-0.578067,0.489587,0.000142,0.537435,-0.496177,-0.335627,1.064066,-0.121291,-1.949114,29.930462,-14.498489,-1.127138,0.237516,1.519881,-0.155778,0.000000,0.000000,0.000000,0.000000,0.000000,0.000000
10466696.000000,-2.319099,-1.662427,1.200092,-1.439439,1.712134,1.236838,-0.578181,0.479864,0.002439,0.543801,-0.488913,-0.337480,1.083888,-0.123016,-2.199053,29.807476,-14.327896,-1.075563,0.255826,1.461288,-0.175919,0.000000,0.000000,0.000000,0.000000,0.000000,0.000000
10466697.000000,-2.318626,-1.662416,1.200663,-1.439912,1.711795,1.237990,-0.578301,0.474012,0.008093,0.560117,-0.478588,-0.329875,1.104105,-0.126989,-2.445025,29.513897,-14.081924,-1.099367,0.315336,1.318465,-0.130143,0.000000,0.000000,0.000000,0.000000,0.000000,0.000000
10466698.000000,-2.318158,-1.662413,1.201237,-1.440372,1.711464,1.239140,-0.578415,0.474397,0.009736,0.565323,-0.471975,-0.333957,1.119765,-0.126565,-2.492632,29.315533,-13.812149,-1.250124,0.369352,1.220504,-0.169511,0.000000,0.000000,0.000000,0.000000,0.000000,0.000000
10466699.000000,-2.317683,-1.662412,1.201829,-1.440816,1.711136,1.240324,-0.578529,0.472437,0.008202,0.575300,-0.460002,-0.331759,1.138924,-0.117931,-2.568011,29.097332,-13.514603,-1.448488,0.416959,1.025497,-0.188737,0.000000,0.000000,0.000000,0.000000,0.000000,0.000000
10466700.000000,-2.317213,-1.662409,1.202421,-1.441266,1.710807,1.241509,-0.578648,0.470503,0.008325,0.584094,-0.455610,-0.331264,1.150762,-0.119143,-2.718768,28.827557,-13.121841,-1.547670,0.369352,0.895492,-0.130143,0.000000,0.000000,0.000000,0.000000,0.000000,0.000000
10466701.000000,-2.316740,-1.662409,1.203023,-1.441704,1.710487,1.242662,-0.578755,0.470438,0.006352,0.586250,-0.450266,-0.327893,1.166536,-0.115048,-2.841753,28.633160,-12.681473,-1.642885,0.351041,0.876266,-0.188737,0.000000,0.000000,0.000000,0.000000,0.000000,0.000000
10466702.000000,-2.316272,-1.662408,1.203636,-1.442149,1.710165,1.243832,-0.578868,0.470756,0.004465,0.590602,-0.447265,-0.324044,1.169198,-0.114880,-2.940936,28.458599,-12.189529,-1.694460,0.320829,0.876266,-0.182328,0.000000,0.000000,0.000000,0.000000,0.000000,0.000000
10466703.000000,-2.315791,-1.662415,1.204240,-1.442583,1.709850,1.245009,-0.578982,0.472826,0.000698,0.592972,-0.440391,-0.323631,1.174971,-0.114724,-3.111529,28.387188,-11.649979,-1.817445,0.255826,0.863448,-0.175919,0.000000,0.000000,0.000000,0.000000,0.000000,0.000000
10466704.000000,-2.315308,-1.662410,1.204872,-1.443011,1.709534,1.246188,-0.579100,0.472569,0.002319,0.602790,-0.436107,-0.321269,1.181990,-0.115270,-3.361468,28.141216,-11.356400,-1.892824,0.207303,0.654708,-0.149369,0.000000,0.000000,0.000000,0.000000,0.000000,0.000000
10466705.000000,-2.314832,-1.662410,1.205503,-1.443430,1.709226,1.247352,-0.579207,0.474294,0.004086,0.615598,-0.426244,-0.312724,1.172446,-0.117897,-3.559832,27.994427,-11.134232,-2.091188,0.117582,0.662032,-0.188737,0.000000,0.000000,0.000000,0.000000,0.000000,0.000000
10466706.000000,-2.314348,-1.662408,1.206148,-1.443839,1.708923,1.248492,-0.579319,0.475242,0.005488,0.621982,-0.419822,-0.309983,1.162153,-0.116887,-3.706622,27.847637,-10.916031,-2.285585,0.105680,0.687667,-0.182328,0.000000,0.000000,0.000000,0.000000,0.000000,0.000000
10466707.000000,-2.313854,-1.662405,1.206805,-1.444247,1.708610,1.249642,-0.579432,0.479599,0.004101,0.631766,-0.412831,-0.310123,1.154449,-0.121063,-4.027972,27.677044,-10.670059,-2.436342,0.166105,0.759078,-0.155778,0.000000,0.000000,0.000000,0.000000,0.000000,0.000000
10466708.000000,-2.313374,-1.662399,1.207464,-1.444649,1.708299,1.250800,-0.579541,0.484760,0.004149,0.639380,-0.406893,-0.308566,1.146549,-0.118966,-4.301714,27.454876,-10.547073,-2.606935,0.178007,0.733443,-0.169511,0.000000,0.000000,0.000000,0.000000,0.000000,0.000000
10466709.000000,-2.312874,-1.662383,1.208152,-1.445035,1.708002,1.251950,-0.579653,0.484597,0.007401,0.653759,-0.399174,-0.300571,1.141763,-0.113511,-4.674639,27.089886,-10.594681,-2.805300,0.141385,0.641891,-0.149369,0.000000,0.000000,0.000000,0.000000,0.000000,0.000000
10466710.000000,-2.312387,-1.662371,1.208843,-1.445429,1.707704,1.253110,-0.579753,0.485091,0.007294,0.669966,-0.393489,-0.295292,1.139066,-0.112139,-4.968218,26.820110,-10.693863,-2.979860,0.135892,0.583297,-0.182328,0.000000,0.000000,0.000000,0.000000,0.000000,0.000000
10466711.000000,-2.311886,-1.662362,1.209551,-1.445812,1.707414,1.254237,-0.579863,0.485131,0.008537,0.678345,-0.387282,-0.296622,1.133487,-0.109196,-5.392718,26.625713,-10.816849,-3.126650,0.123990,0.654708,-0.136552,0.000000,0.000000,0.000000,0.000000,0.000000,0.000000
10466712.000000,-2.311385,-1.662352,1.210265,-1.446196,1.707117,1.255379,-0.579959,0.492807,0.009677,0.681754,-0.386714,-0.296569,1.136466,-0.108028,-5.737872,26.427349,-10.840652,-3.225832,0.088285,0.720626,-0.196061,0.000000,0.000000,0.000000,0.000000,0.000000,0.000000
10466713.000000,-2.310892,-1.662344,1.210985,-1.446578,1.706826,1.256511,-0.580065,0.493060,0.008837,0.695253,-0.379698,-0.291517,1.128542,-0.106235,-6.035418,26.304363,-11.039017,-3.301210,0.046171,0.876266,-0.155778,0.000000,0.000000,0.000000,0.000000,0.000000,0.000000
10466714.000000,-2.310384,-1.662332,1.211715,-1.446960,1.706547,1.257631,-0.580172,0.493733,0.008307,0.705400,-0.382017,-0.287907,1.126481,-0.104204,-6.479754,26.185345,-11.039017,-3.348818,-0.001437,0.980636,-0.122819,0.000000,0.000000,0.000000,0.000000,0.000000,0.000000
10466715.000000,-2.309888,-1.662322,1.212462,-1.447339,1.706271,1.258777,-0.580264,0.497131,0.010726,0.732835,-0.379385,-0.288451,1.128833,-0.103135,-6.876482,26.086163,-11.062820,-3.448000,-0.067355,0.908309,-0.208878,0.000000,0.000000,0.000000,0.000000,0.000000,0.000000
10466716.000000,-2.309387,-1.662315,1.213200,-1.447716,1.705981,1.259905,-0.580377,0.496047,0.008319,0.733028,-0.378419,-0.300128,1.154560,-0.108409,-7.245440,26.038555,-10.987442,-3.499574,-0.055453,0.836898,-0.136552,0.000000,0.000000,0.000000,0.000000,0.000000,0.000000
10466717.000000,-2.308879,-1.662307,1.213955,-1.448087,1.705689,1.261042,-0.580473,0.495619,0.010633,0.734416,-0.376350,-0.297176,1.150828,-0.107920,-7.642169,25.963177,-10.864456,-3.475771,-0.025240,0.811263,-0.182328,0.000000,0.000000,0.000000,0.000000,0.000000,0.000000
10466718.000000,-2.308380,-1.662300,1.214699,-1.448468,1.705392,1.262179,-0.580570,0.498494,0.008507,0.736196,-0.376375,-0.296673,1.148676,-0.108993,-8.038898,25.915569,-10.594681,-3.325014,0.058073,0.857040,-0.196061,0.000000,0.000000,0.000000,0.000000,0.000000,0.000000
10466719.000000,-2.307883,-1.662293,1.215461,-1.448832,1.705105,1.263289,-0.580676,0.495598,0.007106,0.741140,-0.374010,-0.294777,1.158182,-0.107329,-8.261065,25.863995,-10.324905,-3.301210,0.105680,0.934859,-0.136552,0.000000,0.000000,0.000000,0.000000,0.000000,0.000000
10466720.000000,-2.307375,-1.662289,1.216239,-1.449191,1.704819,1.264429,-0.580768,0.506994,0.008625,0.748711,-0.371104,-0.291147,1.145715,-0.101996,-8.610187,25.840191,-10.078934,-3.325014,0.112089,0.934859,-0.188737,0.000000,0.000000,0.000000,0.000000,0.000000,0.000000
10466721.000000,-2.306889,-1.662287,1.217019,-1.449550,1.704535,1.265576,-0.580872,0.500092,0.006141,0.760972,-0.361462,-0.295457,1.139878,-0.106595,-8.832355,25.840191,-9.955948,-3.400392,0.034269,0.908309,-0.142960,0.000000,0.000000,0.000000,0.000000,0.000000,0.000000
10466722.000000,-2.306406,-1.662282,1.217821,-1.449890,1.704259,1.266702,-0.580968,0.491637,0.005502,0.772966,-0.352735,-0.290522,1.128483,-0.102979,-8.955340,25.792583,-9.884537,-3.547182,-0.007845,0.928451,-0.155778,0.000000,0.000000,0.000000,0.000000,0.000000,0.000000
10466723.000000,-2.305936,-1.662279,1.218625,-1.450240,1.703987,1.267840,-0.581061,0.482785,0.006909,0.783838,-0.346445,-0.281586,1.116667,-0.099901,-8.907733,25.792583,-9.860733,-3.670168,-0.060946,0.954086,-0.182328,0.000000,0.000000,0.000000,0.000000,0.000000,0.000000
10466724.000000,-2.305461,-1.662279,1.219451,-1.450580,1.703722,1.268957,-0.581158,0.478252,0.004466,0.799687,-0.347211,-0.279913,1.118802,-0.099377,-8.907733,25.816387,-9.860733,-3.769350,-0.121371,1.019088,-0.175919,0.000000,0.000000,0.000000,0.000000,0.000000,0.000000
10466725.000000,-2.304989,-1.662282,1.220300,-1.450928,1.703438,1.270092,-0.581254,0.475026,0.001527,0.809984,-0.348309,-0.280946,1.116604,-0.102183,-8.907733,25.891766,-9.983719,-3.797121,-0.114962,1.052047,-0.175919,0.000000,0.000000,0.000000,0.000000,0.000000,0.000000
10466726.000000,-2.304523,-1.662283,1.221139,-1.451273,1.703156,1.271240,-0.581355,0.475056,0.000696,0.820213,-0.344019,-0.282642,1.119467,-0.102225,-8.907733,25.915569,-10.078934,-3.892336,-0.085665,0.987045,-0.130143,0.000000,0.000000,0.000000,0.000000,0.000000,0.000000
10466727.000000,-2.304054,-1.662284,1.222001,-1.451611,1.702883,1.272374,-0.581446,0.470652,-0.000474,0.827420,-0.346176,-0.279069,1.125225,-0.097589,-8.879962,25.963177,-10.253494,-3.920107,-0.055453,0.928451,-0.196061,0.000000,0.000000,0.000000,0.000000,0.000000,0.000000
10466728.000000,-2.303597,-1.662280,1.222857,-1.451941,1.702606,1.273508,-0.581549,0.463020,0.000930,0.851884,-0.336404,-0.276668,1.123587,-0.098881,-8.879962,25.915569,-10.301102,-4.118471,-0.001437,0.954086,-0.142960,0.000000,0.000000,0.000000,0.000000,0.000000,0.000000
10466729.000000,-2.303141,-1.662290,1.223730,-1.452268,1.702334,1.274643,-0.581640,0.456543,-0.003272,0.853359,-0.329999,-0.278613,1.151605,-0.095535,-8.856158,26.086163,-10.225723,-4.189882,0.015958,0.908309,-0.196061,0.000000,0.000000,0.000000,0.000000,0.000000,0.000000
10466730.000000,-2.302688,-1.662289,1.224621,-1.452597,1.702062,1.275791,-0.581739,0.454161,-0.002107,0.858384,-0.331139,-0.273976,1.150533,-0.096602,-8.780780,26.086163,-10.178116,-4.265260,-0.007845,0.836898,-0.163102,0.000000,0.000000,0.000000,0.000000,0.000000,0.000000
10466731.000000,-2.302241,-1.662292,1.225498,-1.452922,1.701793,1.276939,-0.581834,0.448165,-0.002463,0.866286,-0.329089,-0.270429,1.153367,-0.100249,-8.709369,26.133770,-10.031326,-4.312868,-0.025240,0.830489,-0.175919,0.000000,0.000000,0.000000,0.000000,0.000000,0.000000
10466732.000000,-2.301801,-1.662294,1.226391,-1.453245,1.701527,1.278054,-0.581927,0.443034,-0.001600,0.869437,-0.329249,-0.268688,1.149643,-0.098604,-8.582416,26.133770,-9.785355,-4.312868,-0.031649,0.934859,-0.196061,0.000000,0.000000,0.000000,0.000000,0.000000,0.000000
10466733.000000,-2.301368,-1.662298,1.227302,-1.453574,1.701265,1.279201,-0.582023,0.448818,-0.002242,0.874887,-0.329662,-0.267048,1.149367,-0.098707,-8.411822,26.185345,-9.614761,-4.289064,-0.025240,0.869857,-0.169511,0.000000,0.000000,0.000000,0.000000,0.000000,0.000000
10466734.000000,-2.300938,-1.662300,1.228213,-1.453892,1.701000,1.280341,-0.582113,0.444738,-0.002028,0.885286,-0.321722,-0.272898,1.164158,-0.096947,-8.138080,26.209148,-9.440201,-4.340639,-0.060946,0.700484,-0.182328,0.000000,0.000000,0.000000,0.000000,0.000000,0.000000
10466735.000000,-2.300502,-1.662295,1.229145,-1.454203,1.700734,1.281494,-0.582207,0.441051,0.000429,0.898927,-0.318674,-0.266257,1.159759,-0.092551,-7.991290,26.133770,-9.317215,-4.412050,-0.055453,0.589706,-0.155778,0.000000,0.000000,0.000000,0.000000,0.000000,0.000000
10466736.000000,-2.300080,-1.662294,1.230071,-1.454516,1.700472,1.282653,-0.582291,0.439046,-0.000258,0.906511,-0.315604,-0.261112,1.148641,-0.091389,-7.864336,26.157574,-9.146622,-4.487428,-0.049044,0.538436,-0.196061,0.000000,0.000000,0.000000,0.000000,0.000000,0.000000
10466737.000000,-2.299648,-1.662298,1.231024,-1.454817,1.700217,1.283793,-0.582385,0.434331,-0.000811,0.917835,-0.309012,-0.259073,1.140781,-0.088752,-7.769122,26.185345,-9.075211,-4.634218,-0.001437,0.532027,-0.155778,0.000000,0.000000,0.000000,0.000000,0.000000,0.000000
10466738.000000,-2.299218,-1.662296,1.231986,-1.455132,1.699959,1.284956,-0.582473,0.431916,0.000116,0.925902,-0.312689,-0.256771,1.138921,-0.090979,-7.693743,26.157574,-8.976028,-4.685792,0.046171,0.499068,-0.130143,0.000000,0.000000,0.000000,0.000000,0.000000,0.000000
10466739.000000,-2.298795,-1.662295,1.232947,-1.455449,1.699700,1.286108,-0.582553,0.428472,0.000640,0.938466,-0.310575,-0.258011,1.138544,-0.089180,-7.693743,26.133770,-8.900650,-4.685792,0.034269,0.597030,-0.202470,0.000000,0.000000,0.000000,0.000000,0.000000,0.000000
10466740.000000,-2.298354,-1.662286,1.233950,-1.455759,1.699459,1.287241,-0.582650,0.433404,0.003308,0.955462,-0.312416,-0.251866,1.139212,-0.088463,-7.915911,26.010784,-9.099014,-4.661989,-0.037142,0.674850,-0.149369,0.000000,0.000000,0.000000,0.000000,0.000000,0.000000
10466741.000000,-2.297916,-1.662283,1.234940,-1.456076,1.699218,1.288397,-0.582728,0.436598,0.003322,0.965937,-0.314277,-0.248056,1.143867,-0.087883,-8.114276,25.963177,-9.146622,-4.586610,-0.085665,0.576888,-0.202470,0.000000,0.000000,0.000000,0.000000,0.000000,0.000000
10466742.000000,-2.297462,-1.662274,1.235958,-1.456388,1.698981,1.289542,-0.582816,0.440514,0.005094,0.978904,-0.318698,-0.243364,1.146018,-0.090177,-8.511004,25.840191,-9.293411,-4.463624,-0.072848,0.459701,-0.182328,0.000000,0.000000,0.000000,0.000000,0.000000,0.000000
10466743.000000,-2.297013,-1.662270,1.236993,-1.456713,1.698745,1.290679,-0.582903,0.439850,0.003954,0.990377,-0.321448,-0.246673,1.140222,-0.087547,-8.808551,25.816387,-9.539383,-4.289064,-0.121371,0.524703,-0.142960,0.000000,0.000000,0.000000,0.000000,0.000000,0.000000
10466744.000000,-2.296568,-1.662261,1.238024,-1.457031,1.698493,1.291817,-0.582980,0.444534,0.005514,1.007747,-0.321342,-0.249114,1.139563,-0.082134,-9.177508,25.693401,-9.709976,-4.189882,-0.049044,0.648299,-0.215287,0.000000,0.000000,0.000000,0.000000,0.000000,0.000000
10466745.000000,-2.296123,-1.662259,1.239063,-1.457339,1.698244,1.292928,-0.583068,0.442151,0.004234,1.013022,-0.317787,-0.247135,1.134351,-0.083179,-9.427447,25.669598,-9.709976,-4.118471,0.052579,0.752670,-0.142960,0.000000,0.000000,0.000000,0.000000,0.000000,0.000000
10466746.000000,-2.295680,-1.662256,1.240109,-1.457639,1.698006,1.294059,-0.583150,0.439458,0.003937,1.036794,-0.310466,-0.241876,1.135531,-0.081373,-9.673419,25.621990,-9.614761,-4.241457,0.076383,0.785628,-0.136552,0.000000,0.000000,0.000000,0.000000,0.000000,0.000000
10466747.000000,-2.295228,-1.662250,1.241172,-1.457934,1.697778,1.295187,-0.583228,0.437794,0.004389,1.044673,-0.301656,-0.236443,1.146287,-0.083393,-10.046344,25.546612,-9.761551,-4.388246,0.040677,0.792037,-0.163102,0.000000,0.000000,0.000000,0.000000,0.000000,0.000000
10466748.000000,-2.294785,-1.662247,1.242247,-1.458214,1.697553,1.296300,-0.583310,0.438341,0.004040,1.055222,-0.295626,-0.230395,1.137647,-0.086497,-10.244708,25.499004,-9.761551,-4.661989,-0.043551,0.811263,-0.155778,0.000000,0.000000,0.000000,0.000000,0.000000,0.000000
10466749.000000,-2.294343,-1.662250,1.243322,-1.458510,1.697315,1.297427,-0.583387,0.435886,0.004845,1.059464,-0.292003,-0.228583,1.122630,-0.087897,-10.490680,25.546612,-9.809158,-4.757204,-0.072848,0.771896,-0.169511,0.000000,0.000000,0.000000,0.000000,0.000000,0.000000
10466750.000000,-2.293894,-1.662252,1.244419,-1.458793,1.697086,1.298542,-0.583466,0.436269,0.002296,1.066776,-0.288897,-0.227486,1.118697,-0.085365,-10.812030,25.598186,-9.809158,-4.884157,-0.085665,0.713302,-0.149369,0.000000,0.000000,0.000000,0.000000,0.000000,0.000000
10466751.000000,-2.293463,-1.662253,1.245551,-1.459079,1.696861,1.299671,-0.583540,0.441949,0.001178,1.086269,-0.289447,-0.225306,1.111263,-0.081675,-11.034198,25.621990,-10.078934,-5.030946,-0.126864,0.700484,-0.182328,0.000000,0.000000,0.000000,0.000000,0.000000,0.000000
10466752.000000,-2.293020,-1.662256,1.246680,-1.459361,1.696642,1.300784,-0.583614,0.443435,-0.000175,1.097815,-0.286753,-0.227735,1.136144,-0.084956,-11.307940,25.669598,-10.400284,-5.177736,-0.168978,0.654708,-0.202470,0.000000,0.000000,0.000000,0.000000,0.000000,0.000000
10466753.000000,-2.292574,-1.662271,1.247833,-1.459618,1.696425,1.301912,-0.583694,0.440897,-0.005199,1.112105,-0.279712,-0.226172,1.131459,-0.088624,-11.577716,25.891766,-10.646255,-5.550661,-0.211093,0.635482,-0.169511,0.000000,0.000000,0.000000,0.000000,0.000000,0.000000
10466754.000000,-2.292148,-1.662287,1.248970,-1.459885,1.696189,1.303032,-0.583770,0.437777,-0.007927,1.121074,-0.273260,-0.224359,1.123083,-0.089921,-11.653094,26.086163,-10.741470,-5.820436,-0.138766,0.727035,-0.175919,0.000000,0.000000,0.000000,0.000000,0.000000,0.000000
10466755.000000,-2.291720,-1.662303,1.250122,-1.460131,1.695963,1.304123,-0.583849,0.433492,-0.010324,1.126673,-0.263027,-0.226208,1.116086,-0.086859,-11.776080,26.304363,-10.765274,-6.217165,-0.103060,0.974227,-0.155778,0.000000,0.000000,0.000000,0.000000,0.000000,0.000000
10466756.000000,-2.291278,-1.662326,1.251277,-1.460377,1.695740,1.305224,-0.583921,0.436403,-0.013702,1.125269,-0.254512,-0.221536,1.111082,-0.077554,-12.002215,26.597942,-10.547073,-6.538515,-0.091158,1.201278,-0.202470,0.000000,0.000000,0.000000,0.000000,0.000000,0.000000
10466757.000000,-2.290856,-1.662347,1.252423,-1.460629,1.695524,1.306350,-0.584001,0.434229,-0.010841,1.129646,-0.254046,-0.217181,1.116471,-0.078491,-12.049823,26.943096,-10.523270,-6.736879,-0.109469,1.240646,-0.169511,0.000000,0.000000,0.000000,0.000000,0.000000,0.000000
10466758.000000,-2.290430,-1.662365,1.253577,-1.460863,1.695320,1.307472,-0.584079,0.428658,-0.008613,1.131051,-0.245472,-0.212802,1.126783,-0.078175,-12.073627,27.431072,-10.670059,-7.006654,-0.157076,1.090499,-0.155778,0.000000,0.000000,0.000000,0.000000,0.000000,0.000000
10466759.000000,-2.290015,-1.662388,1.254707,-1.461103,1.695124,1.308621,-0.584151,0.425310,-0.008921,1.121369,-0.241834,-0.207525,1.130410,-0.075744,-11.950641,28.288006,-11.086624,-7.133607,-0.258700,0.934859,-0.202470,0.000000,0.000000,0.000000,0.000000,0.000000,0.000000
10466760.000000,-2.289599,-1.662411,1.255833,-1.461335,1.694922,1.309745,-0.584231,0.421592,-0.013063,1.116678,-0.243355,-0.206221,1.127021,-0.078466,-11.653094,29.343304,-11.626175,-7.304201,-0.306307,0.915633,-0.142960,0.000000,0.000000,0.000000,0.000000,0.000000,0.000000
10466761.000000,-2.289187,-1.662431,1.256960,-1.461574,1.694717,1.310884,-0.584302,0.419712,-0.018156,1.113979,-0.244394,-0.204083,1.123037,-0.076159,-11.232562,30.541424,-12.510880,-7.403383,-0.252291,1.019088,-0.182328,0.000000,0.000000,0.000000,0.000000,0.000000,0.000000
10466762.000000,-2.288786,-1.662440,1.258073,-1.461792,1.694516,1.312032,-0.584379,0.410005,-0.018692,1.119191,-0.234372,-0.202251,1.120532,-0.076501,-10.812030,31.640362,-13.566177,-7.677125,-0.199191,1.162826,-0.175919,0.000000,0.000000,0.000000,0.000000,0.000000,0.000000
10466763.000000,-2.288386,-1.662448,1.259193,-1.462008,1.694320,1.313186,-0.584463,0.404293,-0.013923,1.116363,-0.232147,-0.201978,1.126307,-0.078355,-10.367694,32.671856,-14.546097,-7.875490,-0.109469,1.110641,-0.116410,0.000000,0.000000,0.000000,0.000000,0.000000,0.000000
10466764.000000,-2.287989,-1.662442,1.260338,-1.462224,1.694124,1.314359,-0.584527,0.400762,-0.008084,1.140626,-0.222777,-0.204518,1.132457,-0.075432,-10.018573,33.477215,-15.748184,-8.121462,-0.055453,1.039230,-0.169511,0.000000,0.000000,0.000000,0.000000,0.000000,0.000000
10466765.000000,-2.287592,-1.662438,1.261467,-1.462444,1.693942,1.315517,-0.584604,0.397661,-0.005947,1.142599,-0.219133,-0.199363,1.149427,-0.076324,-9.649615,34.238934,-16.732071,-8.244448,-0.079257,1.136276,-0.142960,0.000000,0.000000,0.000000,0.000000,0.000000,0.000000
10466766.000000,-2.287194,-1.662430,1.262617,-1.462663,1.693742,1.316636,-0.584675,0.392809,-0.004351,1.143305,-0.218369,-0.202319,1.136284,-0.075329,-9.427447,34.849895,-17.688187,-8.268251,-0.043551,1.416427,-0.163102,0.000000,0.000000,0.000000,0.000000,0.000000,0.000000
10466767.000000,-2.286804,-1.662427,1.263752,-1.462898,1.693535,1.317774,-0.584744,0.395895,-0.003025,1.142225,-0.224208,-0.200965,1.132675,-0.074091,-9.252887,35.437054,-18.549088,-8.121462,0.022367,1.584884,-0.196061,0.000000,0.000000,0.000000,0.000000,0.000000,0.000000
10466768.000000,-2.286414,-1.662430,1.264911,-1.463131,1.693339,1.318916,-0.584817,0.392659,-0.001327,1.150707,-0.225455,-0.202841,1.129534,-0.075887,-9.006915,35.976604,-19.306839,-7.970705,0.040677,1.597701,-0.155778,0.000000,0.000000,0.000000,0.000000,0.000000,0.000000
10466769.000000,-2.286041,-1.662422,1.266089,-1.463361,1.693139,1.320050,-0.584881,0.396421,0.001604,1.155747,-0.224625,-0.204624,1.126493,-0.074438,-8.681598,36.293987,-20.092361,-7.875490,0.076383,1.662704,-0.188737,0.000000,0.000000,0.000000,0.000000,0.000000,0.000000
10466770.000000,-2.285670,-1.662422,1.267244,-1.463579,1.692954,1.321159,-0.584948,0.386416,0.000123,1.154694,-0.220683,-0.205773,1.119931,-0.074732,-8.388019,36.611370,-20.683487,-7.923097,0.004056,1.779891,-0.188737,0.000000,0.000000,0.000000,0.000000,0.000000,0.000000
10466771.000000,-2.285319,-1.662434,1.268430,-1.463791,1.692761,1.322292,-0.585019,0.376690,-0.004306,1.158829,-0.218745,-0.201660,1.125378,-0.071495,-7.864336,37.051739,-21.270645,-8.069887,0.010465,1.735030,-0.155778,0.000000,0.000000,0.000000,0.000000,0.000000,0.000000
10466772.000000,-2.284983,-1.662460,1.269599,-1.463999,1.692560,1.323435,-0.585085,0.364541,-0.010041,1.163857,-0.212137,-0.199290,1.133669,-0.070958,-7.245440,37.591290,-21.714981,-8.292055,0.040677,1.676437,-0.196061,0.000000,0.000000,0.000000,0.000000,0.000000,0.000000
10466773.000000,-2.284651,-1.662485,1.270796,-1.464208,1.692367,1.324521,-0.585160,0.355900,-0.013063,1.174218,-0.212801,-0.199430,1.136025,-0.074163,-6.626544,38.079266,-22.230728,-8.442812,-0.001437,1.844894,-0.136552,0.000000,0.000000,0.000000,0.000000,0.000000,0.000000
10466774.000000,-2.284326,-1.662519,1.272015,-1.464421,1.692176,1.325619,-0.585224,0.342429,-0.019016,1.179382,-0.214606,-0.195653,1.118602,-0.068721,-5.960040,38.595013,-22.917068,-8.541994,-0.025240,2.033492,-0.163102,0.000000,0.000000,0.000000,0.000000,0.000000,0.000000
10466775.000000,-2.284019,-1.662554,1.273237,-1.464638,1.691978,1.326730,-0.585292,0.333501,-0.023332,1.190915,-0.217132,-0.195879,1.101116,-0.070653,-5.317339,39.106792,-23.678787,-8.589602,0.027860,2.007858,-0.155778,0.000000,0.000000,0.000000,0.000000,0.000000,0.000000
10466776.000000,-2.283708,-1.662599,1.274460,-1.464857,1.691793,1.327843,-0.585361,0.326728,-0.035287,1.195028,-0.218526,-0.193972,1.109533,-0.072770,-4.698443,39.721722,-24.265945,-8.518190,0.027860,1.786300,-0.142960,0.000000,0.000000,0.000000,0.000000,0.000000,0.000000
10466777.000000,-2.283403,-1.662640,1.275670,-1.465075,1.691594,1.328953,-0.585422,0.318411,-0.037743,1.221462,-0.215869,-0.194957,1.106966,-0.072398,-4.178729,40.209698,-24.904678,-8.442812,0.105680,1.708480,-0.169511,0.000000,0.000000,0.000000,0.000000,0.000000,0.000000
10466778.000000,-2.283096,-1.662682,1.276907,-1.465296,1.691402,1.330027,-0.585488,0.314444,-0.041737,1.222420,-0.220102,-0.199040,1.098802,-0.069553,-3.706622,40.650066,-25.519608,-8.244448,0.141385,1.838485,-0.136552,0.000000,0.000000,0.000000,0.000000,0.000000,0.000000
10466779.000000,-2.282804,-1.662723,1.278123,-1.465529,1.691204,1.331107,-0.585550,0.303125,-0.041316,1.210866,-0.224475,-0.201182,1.086441,-0.064509,-3.163104,41.066631,-25.642593,-7.970705,0.154203,2.033492,-0.175919,0.000000,0.000000,0.000000,0.000000,0.000000,0.000000
10466780.000000,-2.282513,-1.662772,1.279318,-1.465762,1.690988,1.332195,-0.585611,0.300734,-0.043257,1.211428,-0.226505,-0.203187,1.081449,-0.063035,-2.790179,41.578411,-25.666397,-7.724733,0.297025,2.131454,-0.163102,0.000000,0.000000,0.000000,0.000000,0.000000,0.000000
10466781.000000,-2.282221,-1.662812,1.280516,-1.465997,1.690794,1.333283,-0.585674,0.296729,-0.044581,1.197772,-0.226742,-0.198829,1.090869,-0.061665,-2.421221,41.947369,-25.567215,-7.403383,0.297025,2.112228,-0.155778,0.000000,0.000000,0.000000,0.000000,0.000000,0.000000
10466782.000000,-2.281936,-1.662848,1.281742,-1.466247,1.690600,1.334381,-0.585729,0.295229,-0.040834,1.223457,-0.233897,-0.193649,1.093713,-0.058195,-2.048296,42.240948,-25.690201,-7.034425,0.249418,2.014266,-0.215287,0.000000,0.000000,0.000000,0.000000,0.000000,0.000000
10466783.000000,-2.281642,-1.662884,1.282925,-1.466507,1.690403,1.335467,-0.585801,0.298108,-0.037108,1.212529,-0.237744,-0.198033,1.112416,-0.061044,-1.849932,42.486919,-25.468033,-6.590089,0.273221,1.974899,-0.130143,0.000000,0.000000,0.000000,0.000000,0.000000,0.000000
10466784.000000,-2.281356,-1.662922,1.284141,-1.466766,1.690207,1.336572,-0.585856,0.291663,-0.034082,1.215039,-0.243722,-0.192085,1.104646,-0.058696,-1.580157,42.705120,-25.567215,-6.141786,0.308927,1.832076,-0.163102,0.000000,0.000000,0.000000,0.000000,0.000000,0.000000
10466785.000000,-2.281081,-1.662950,1.285339,-1.467023,1.690000,1.337690,-0.585916,0.282660,-0.028030,1.212682,-0.245182,-0.197532,1.105212,-0.058639,-1.306414,42.756695,-25.690201,-5.772829,0.356534,1.702071,-0.149369,0.000000,0.000000,0.000000,0.000000,0.000000,0.000000
10466786.000000,-2.280810,-1.662977,1.286555,-1.467286,1.689794,1.338780,-0.585976,0.277793,-0.026510,1.207125,-0.249549,-0.197204,1.102078,-0.058657,-0.961260,42.780499,-25.836990,-5.427675,0.422452,1.708480,-0.130143,0.000000,0.000000,0.000000,0.000000,0.000000,0.000000
10466787.000000,-2.280546,-1.663000,1.287781,-1.467549,1.689601,1.339888,-0.586028,0.280779,-0.023423,1.210147,-0.253980,-0.194128,1.102193,-0.056052,-0.612139,42.705120,-26.106766,-5.177736,0.416959,1.714889,-0.182328,0.000000,0.000000,0.000000,0.000000,0.000000,0.000000
10466788.000000,-2.280281,-1.663030,1.288987,-1.467804,1.689404,1.340985,-0.586087,0.277324,-0.023994,1.208473,-0.251448,-0.197615,1.099724,-0.057341,-0.290789,42.728924,-26.352737,-5.054750,0.458158,1.747848,-0.163102,0.000000,0.000000,0.000000,0.000000,0.000000,0.000000
10466789.000000,-2.280011,-1.663057,1.290209,-1.468070,1.689212,1.342084,-0.586142,0.274056,-0.026568,1.201905,-0.258247,-0.201835,1.097819,-0.056199,-0.068621,42.705120,-26.646317,-4.832582,0.518583,1.858627,-0.188737,0.000000,0.000000,0.000000,0.000000,0.000000,0.000000
10466790.000000,-2.279747,-1.663092,1.291401,-1.468339,1.689033,1.343197,-0.586200,0.272264,-0.028869,1.195075,-0.259798,-0.191776,1.094496,-0.061378,0.105939,42.828106,-26.745499,-4.610414,0.476469,2.001449,-0.182328,0.000000,0.000000,0.000000,0.000000,0.000000,0.000000
10466791.000000,-2.279475,-1.663117,1.292599,-1.468614,1.688838,1.344287,-0.586261,0.271007,-0.026490,1.197259,-0.264422,-0.193943,1.121820,-0.056645,0.129743,42.780499,-26.745499,-4.265260,0.559781,2.157089,-0.149369,0.000000,0.000000,0.000000,0.000000,0.000000,0.000000
10466792.000000,-2.279199,-1.663143,1.293805,-1.468897,1.688650,1.345394,-0.586309,0.273621,-0.026022,1.196114,-0.271512,-0.191585,1.122192,-0.054843,0.129743,42.780499,-26.892288,-3.892336,0.547880,2.222091,-0.208878,0.000000,0.000000,0.000000,0.000000,0.000000,0.000000
10466793.000000,-2.278917,-1.663162,1.294977,-1.469175,1.688466,1.346513,-0.586371,0.278034,-0.022861,1.185960,-0.274714,-0.189165,1.111585,-0.057065,0.006757,42.657513,-26.769302,-3.598757,0.506681,2.131454,-0.163102,0.000000,0.000000,0.000000,0.000000,0.000000,0.000000
10466794.000000,-2.278638,-1.663182,1.296176,-1.469458,1.688285,1.347626,-0.586430,0.277305,-0.021200,1.182442,-0.275981,-0.185621,1.108081,-0.052922,-0.116229,42.558331,-26.793106,-3.225832,0.542386,2.007858,-0.142960,0.000000,0.000000,0.000000,0.000000,0.000000,0.000000
10466795.000000,-2.278364,-1.663199,1.297368,-1.469735,1.688107,1.348737,-0.586478,0.276067,-0.019485,1.214289,-0.276336,-0.181288,1.097750,-0.051593,-0.215411,42.435345,-26.991470,-2.979860,0.547880,1.974899,-0.202470,0.000000,0.000000,0.000000,0.000000,0.000000,0.000000
10466796.000000,-2.278100,-1.663221,1.298577,-1.470010,1.687940,1.349824,-0.586532,0.271493,-0.020133,1.209442,-0.271263,-0.176757,1.092767,-0.053403,-0.167803,42.387737,-27.285049,-2.856874,0.506681,2.098495,-0.188737,0.000000,0.000000,0.000000,0.000000,0.000000,0.000000
10466797.000000,-2.277838,-1.663243,1.299791,-1.470274,1.687769,1.350910,-0.586585,0.264909,-0.021242,1.207932,-0.266893,-0.175857,1.083242,-0.053964,-0.144000,42.363934,-27.531021,-2.781496,0.530485,2.332870,-0.188737,0.000000,0.000000,0.000000,0.000000,0.000000,0.000000
10466798.000000,-2.277587,-1.663264,1.301009,-1.470533,1.687591,1.352012,-0.586640,0.260029,-0.021863,1.214378,-0.264678,-0.179130,1.084427,-0.050790,0.054365,42.340130,-28.118179,-2.781496,0.530485,2.423507,-0.169511,0.000000,0.000000,0.000000,0.000000,0.000000,0.000000
10466799.000000,-2.277333,-1.663281,1.302232,-1.470784,1.687417,1.353114,-0.586686,0.255407,-0.017935,1.217621,-0.259061,-0.176652,1.085906,-0.046142,0.252729,42.264751,-28.610123,-2.856874,0.530485,2.339278,-0.202470,0.000000,0.000000,0.000000,0.000000,0.000000,0.000000
10466800.000000,-2.277081,-1.663300,1.303451,-1.471038,1.687246,1.354208,-0.586737,0.252656,-0.019386,1.213184,-0.257018,-0.174510,1.084846,-0.048682,0.351911,42.240948,-28.979080,-2.856874,0.535978,2.385055,-0.208878,0.000000,0.000000,0.000000,0.000000,0.000000,0.000000
10466801.000000,-2.276825,-1.663318,1.304636,-1.471296,1.687075,1.355286,-0.586789,0.251425,-0.020554,1.201491,-0.258605,-0.174081,1.106001,-0.046960,0.427289,42.217144,-29.078262,-2.733888,0.584501,2.482101,-0.182328,0.000000,0.000000,0.000000,0.000000,0.000000,0.000000
10466802.000000,-2.276558,-1.663340,1.305824,-1.471550,1.686899,1.356380,-0.586840,0.254414,-0.022960,1.191851,-0.258924,-0.176091,1.100840,-0.049234,0.328107,42.264751,-29.026688,-2.634706,0.673307,2.462875,-0.188737,0.000000,0.000000,0.000000,0.000000,0.000000,0.000000
10466803.000000,-2.276309,-1.663365,1.306973,-1.471806,1.686730,1.357489,-0.586892,0.248812,-0.025198,1.176670,-0.256639,-0.171068,1.098022,-0.051987,0.375715,42.340130,-28.633926,-2.483949,0.715421,2.365829,-0.163102,0.000000,0.000000,0.000000,0.000000,0.000000,0.000000
10466804.000000,-2.276052,-1.663387,1.308148,-1.472048,1.686578,1.358582,-0.586940,0.252530,-0.026103,1.167682,-0.252280,-0.162768,1.093373,-0.047048,0.375715,42.387737,-28.316544,-2.460146,0.637601,2.242233,-0.196061,0.000000,0.000000,0.000000,0.000000,0.000000,0.000000
10466805.000000,-2.275798,-1.663410,1.309310,-1.472291,1.686425,1.359685,-0.586992,0.255511,-0.026715,1.156085,-0.252213,-0.160119,1.092348,-0.045791,0.403486,42.435345,-27.800797,-2.436342,0.530485,2.222091,-0.169511,0.000000,0.000000,0.000000,0.000000,0.000000,0.000000
10466806.000000,-2.275545,-1.663434,1.310454,-1.472532,1.686262,1.360784,-0.587041,0.253658,-0.027919,1.152437,-0.248634,-0.162527,1.092220,-0.048772,0.451093,42.510723,-27.332657,-2.436342,0.524076,2.137862,-0.163102,0.000000,0.000000,0.000000,0.000000,0.000000,0.000000
10466807.000000,-2.275301,-1.663454,1.311598,-1.472760,1.686094,1.361904,-0.587083,0.250574,-0.023827,1.139410,-0.241239,-0.160114,1.099985,-0.048503,0.550275,42.510723,-26.868484,-2.511720,0.535978,2.053634,-0.221696,0.000000,0.000000,0.000000,0.000000,0.000000,0.000000
10466808.000000,-2.275058,-1.663472,1.312733,-1.472985,1.685934,1.363014,-0.587139,0.249403,-0.021366,1.134819,-0.235130,-0.162958,1.094426,-0.053571,0.625654,42.534527,-26.523331,-2.606935,0.554288,2.098495,-0.142960,0.000000,0.000000,0.000000,0.000000,0.000000,0.000000
10466809.000000,-2.274813,-1.663482,1.313894,-1.473208,1.685775,1.364107,-0.587179,0.246116,-0.016581,1.141912,-0.238134,-0.161272,1.119808,-0.046681,0.673261,42.435345,-26.475723,-2.733888,0.589994,2.169906,-0.215287,0.000000,0.000000,0.000000,0.000000,0.000000,0.000000
10466810.000000,-2.274577,-1.663493,1.315052,-1.473426,1.685624,1.365231,-0.587224,0.242582,-0.014004,1.139185,-0.232904,-0.157419,1.120789,-0.044389,0.772443,42.363934,-26.424149,-2.856874,0.566190,2.085677,-0.215287,0.000000,0.000000,0.000000,0.000000,0.000000,0.000000
10466811.000000,-2.274345,-1.663504,1.316191,-1.473636,1.685473,1.366372,-0.587277,0.242000,-0.012090,1.138501,-0.223118,-0.155118,1.126226,-0.045017,0.923200,42.288555,-26.424149,-2.956056,0.547880,1.832076,-0.155778,0.000000,0.000000,0.000000,0.000000,0.000000,0.000000
10466812.000000,-2.274105,-1.663518,1.317346,-1.473835,1.685331,1.367489,-0.587317,0.240469,-0.014999,1.137632,-0.218449,-0.147726,1.127521,-0.041821,0.970807,42.264751,-26.547134,-3.079042,0.500272,1.702071,-0.196061,0.000000,0.000000,0.000000,0.000000,0.000000,0.000000
10466813.000000,-2.273879,-1.663519,1.318497,-1.474044,1.685184,1.368597,-0.587369,0.233986,-0.011061,1.160195,-0.213904,-0.147752,1.114124,-0.042309,1.121564,42.117962,-26.547134,-3.102846,0.488370,1.767074,-0.155778,0.000000,0.000000,0.000000,0.000000,0.000000,0.000000
10466814.000000,-2.273638,-1.663534,1.319615,-1.474246,1.685034,1.369682,-0.587411,0.237725,-0.011824,1.146937,-0.211239,-0.149361,1.102263,-0.045241,1.046186,42.117962,-26.400345,-3.102846,0.506681,1.962081,-0.169511,0.000000,0.000000,0.000000,0.000000,0.000000,0.000000
10466815.000000,-2.273401,-1.663536,1.320737,-1.474437,1.684881,1.370797,-0.587449,0.235197,-0.009444,1.132589,-0.202263,-0.150941,1.093784,-0.041394,1.046186,41.994976,-26.106766,-3.126650,0.542386,2.007858,-0.221696,0.000000,0.000000,0.000000,0.000000,0.000000,0.000000
10466816.000000,-2.273173,-1.663542,1.321853,-1.474627,1.684738,1.371926,-0.587498,0.232258,-0.009110,1.133809,-0.201860,-0.145219,1.097686,-0.045992,1.069990,41.923565,-25.959976,-3.126650,0.518583,1.936446,-0.202470,0.000000,0.000000,0.000000,0.000000,0.000000,0.000000
10466817.000000,-2.272939,-1.663540,1.322994,-1.474811,1.684599,1.373048,-0.587540,0.232599,-0.005760,1.127719,-0.194448,-0.145996,1.105106,-0.043176,1.022382,41.729168,-26.031387,-3.178224,0.500272,1.735030,-0.221696,0.000000,0.000000,0.000000,0.000000,0.000000,0.000000
10466818.000000,-2.272713,-1.663536,1.324139,-1.474992,1.684471,1.374165,-0.587590,0.234837,-0.004147,1.127263,-0.190026,-0.143000,1.104021,-0.044075,1.069990,41.554607,-26.082962,-3.178224,0.398649,1.735030,-0.163102,0.000000,0.000000,0.000000,0.000000,0.000000,0.000000
10466819.000000,-2.272482,-1.663538,1.325275,-1.475181,1.684326,1.375260,-0.587629,0.235255,-0.001667,1.131742,-0.189603,-0.146341,1.125382,-0.041104,1.093793,41.459393,-26.253555,-3.055238,0.446256,1.819259,-0.196061,0.000000,0.000000,0.000000,0.000000,0.000000,0.000000
10466820.000000,-2.272251,-1.663546,1.326422,-1.475353,1.684182,1.376368,-0.587671,0.233289,-0.004473,1.131893,-0.184767,-0.144263,1.121015,-0.039814,1.093793,41.431622,-26.475723,-2.979860,0.488370,1.890670,-0.208878,0.000000,0.000000,0.000000,0.000000,0.000000,0.000000
10466821.000000,-2.272032,-1.663546,1.327568,-1.475524,1.684043,1.377484,-0.587715,0.230057,-0.004670,1.136937,-0.178317,-0.145748,1.113534,-0.039599,1.169172,41.336407,-26.868484,-3.003664,0.488370,1.923629,-0.202470,0.000000,0.000000,0.000000,0.000000,0.000000,0.000000
10466822.000000,-2.271810,-1.663541,1.328725,-1.475692,1.683900,1.378575,-0.587757,0.228551,-0.002440,1.142751,-0.177338,-0.146384,1.109399,-0.039554,1.192975,41.138042,-27.237442,-3.027467,0.470060,1.936446,-0.188737,0.000000,0.000000,0.000000,0.000000,0.000000,0.000000
10466823.000000,-2.271592,-1.663540,1.329876,-1.475851,1.683754,1.379689,-0.587802,0.225457,-0.002185,1.139640,-0.170870,-0.146525,1.101827,-0.040343,1.268354,40.991253,-27.431839,-3.154421,0.452665,1.890670,-0.155778,0.000000,0.000000,0.000000,0.000000,0.000000,0.000000
10466824.000000,-2.271383,-1.663540,1.331003,-1.476017,1.683601,1.380793,-0.587840,0.219650,0.000363,1.135921,-0.170502,-0.149351,1.093861,-0.037842,1.391340,40.872234,-27.431839,-3.102846,0.494779,1.949264,-0.202470,0.000000,0.000000,0.000000,0.000000,0.000000,0.000000
10466825.000000,-2.271167,-1.663541,1.332138,-1.476175,1.683457,1.381873,-0.587883,0.215580,-0.001877,1.130421,-0.166296,-0.151457,1.080810,-0.038849,1.466718,40.796856,-27.261246,-3.079042,0.547880,2.118636,-0.169511,0.000000,0.000000,0.000000,0.000000,0.000000,0.000000
10466826.000000,-2.270952,-1.663547,1.333237,-1.476344,1.683309,1.382966,-0.587919,0.214014,-0.002614,1.121029,-0.168849,-0.151654,1.076817,-0.038504,1.514325,40.820660,-26.844681,-2.928285,0.571683,2.287093,-0.169511,0.000000,0.000000,0.000000,0.000000,0.000000,0.000000
10466827.000000,-2.270732,-1.663542,1.334361,-1.476508,1.683170,1.384061,-0.587955,0.214155,0.000530,1.115160,-0.168451,-0.150493,1.082403,-0.036649,1.514325,40.697674,-26.598709,-2.833071,0.547880,2.287093,-0.208878,0.000000,0.000000,0.000000,0.000000,0.000000,0.000000
10466828.000000,-2.270518,-1.663539,1.335478,-1.476676,1.683042,1.385180,-0.587996,0.214350,0.002127,1.107595,-0.164118,-0.141723,1.087709,-0.038253,1.514325,40.602459,-26.205948,-2.682314,0.440763,2.098495,-0.169511,0.000000,0.000000,0.000000,0.000000,0.000000,0.000000
10466829.000000,-2.270306,-1.663534,1.336585,-1.476837,1.682912,1.386316,-0.588028,0.213138,0.002285,1.109095,-0.162474,-0.137428,1.095780,-0.036370,1.514325,40.550884,-25.936172,-2.583132,0.386747,1.838485,-0.215287,0.000000,0.000000,0.000000,0.000000,0.000000,0.000000
10466830.000000,-2.270095,-1.663525,1.337694,-1.476990,1.682779,1.387417,-0.588068,0.210659,0.004145,1.099731,-0.157103,-0.136085,1.098548,-0.037270,1.490522,40.427898,-25.614822,-2.535524,0.374845,1.747848,-0.202470,0.000000,0.000000,0.000000,0.000000,0.000000,0.000000
10466831.000000,-2.269896,-1.663521,1.338806,-1.477142,1.682636,1.388509,-0.588109,0.209353,0.003129,1.117652,-0.155594,-0.136726,1.094929,-0.039638,1.589704,40.404095,-25.321243,-2.511720,0.422452,1.865035,-0.142960,0.000000,0.000000,0.000000,0.000000,0.000000,0.000000
10466832.000000,-2.269691,-1.663515,1.339912,-1.477294,1.682498,1.389590,-0.588137,0.207484,0.003056,1.116951,-0.153547,-0.142316,1.093862,-0.035722,1.589704,40.356487,-25.222061,-2.535524,0.476469,2.014266,-0.229020,0.000000,0.000000,0.000000,0.000000,0.000000,0.000000
10466833.000000,-2.269493,-1.663507,1.341029,-1.477434,1.682365,1.390693,-0.588179,0.202665,0.004250,1.114684,-0.146161,-0.139314,1.088995,-0.038898,1.740461,40.257305,-25.222061,-2.682314,0.470060,2.014266,-0.163102,0.000000,0.000000,0.000000,0.000000,0.000000,0.000000
10466834.000000,-2.269292,-1.663491,1.342132,-1.477571,1.682236,1.391833,-0.588209,0.202187,0.007857,1.110476,-0.140702,-0.136775,1.095680,-0.037129,1.764264,40.039104,-25.198257,-2.833071,0.452665,1.767074,-0.202470,0.000000,0.000000,0.000000,0.000000,0.000000,0.000000
10466835.000000,-2.269084,-1.663479,1.343257,-1.477705,1.682112,1.392941,-0.588242,0.200636,0.009168,1.109120,-0.134594,-0.134621,1.095521,-0.037069,1.688886,39.868511,-25.345047,-2.956056,0.428861,1.637069,-0.208878,0.000000,0.000000,0.000000,0.000000,0.000000,0.000000
10466836.000000,-2.268879,-1.663470,1.344370,-1.477848,1.681985,1.394046,-0.588280,0.205469,0.008387,1.109077,-0.138013,-0.132222,1.093556,-0.034521,1.565900,39.769329,-25.345047,-2.880678,0.386747,1.735030,-0.163102,0.000000,0.000000,0.000000,0.000000,0.000000,0.000000
10466837.000000,-2.268666,-1.663467,1.345459,-1.477987,1.681851,1.395148,-0.588312,0.209152,0.008610,1.101869,-0.138924,-0.138516,1.111176,-0.029751,1.367536,39.769329,-25.198257,-2.856874,0.446256,1.865035,-0.182328,0.000000,0.000000,0.000000,0.000000,0.000000,0.000000
10466838.000000,-2.268459,-1.663462,1.346545,-1.478120,1.681721,1.396242,-0.588344,0.206141,0.006526,1.089597,-0.138357,-0.133745,1.111305,-0.027789,1.244550,39.745525,-24.857071,-2.880678,0.488370,1.923629,-0.163102,0.000000,0.000000,0.000000,0.000000,0.000000,0.000000
10466839.000000,-2.268254,-1.663449,1.347625,-1.478247,1.681606,1.397366,-0.588371,0.207193,0.007956,1.084351,-0.134003,-0.129957,1.110253,-0.028281,1.121564,39.598736,-24.682510,-2.928285,0.405057,1.812850,-0.215287,0.000000,0.000000,0.000000,0.000000,0.000000,0.000000
10466840.000000,-2.268048,-1.663436,1.348740,-1.478368,1.681490,1.398477,-0.588405,0.208564,0.008866,1.091987,-0.130937,-0.127500,1.116268,-0.032394,0.970807,39.451946,-24.757889,-2.979860,0.320829,1.676437,-0.175919,0.000000,0.000000,0.000000,0.000000,0.000000,0.000000
10466841.000000,-2.267840,-1.663423,1.349852,-1.478485,1.681369,1.399598,-0.588437,0.208244,0.011489,1.091562,-0.125595,-0.126605,1.118115,-0.033426,0.871625,39.352764,-24.734085,-3.027467,0.261320,1.572067,-0.182328,0.000000,0.000000,0.000000,0.000000,0.000000,0.000000
10466842.000000,-2.267639,-1.663417,1.350944,-1.478598,1.681231,1.400715,-0.588465,0.204179,0.011151,1.093669,-0.121487,-0.127911,1.121432,-0.034249,0.824018,39.352764,-24.781693,-3.079042,0.374845,1.552840,-0.196061,0.000000,0.000000,0.000000,0.000000,0.000000,0.000000
10466843.000000,-2.267434,-1.663413,1.352063,-1.478710,1.681099,1.401782,-0.588497,0.205170,0.010432,1.098597,-0.119842,-0.127374,1.106287,-0.035892,0.724836,39.376568,-24.952286,-3.079042,0.464567,1.884261,-0.175919,0.000000,0.000000,0.000000,0.000000,0.000000,0.000000
10466844.000000,-2.267234,-1.663403,1.353187,-1.478820,1.680982,1.402861,-0.588521,0.203443,0.011834,1.108294,-0.117038,-0.126802,1.090625,-0.034839,0.601850,39.328960,-25.420425,-3.126650,0.434354,2.177230,-0.215287,0.000000,0.000000,0.000000,0.000000,0.000000,0.000000
10466845.000000,-2.267037,-1.663397,1.354314,-1.478923,1.680863,1.403959,-0.588555,0.200422,0.011722,1.111519,-0.116419,-0.122804,1.104154,-0.032561,0.550275,39.328960,-25.737808,-3.225832,0.422452,2.137862,-0.169511,0.000000,0.000000,0.000000,0.000000,0.000000,0.000000
10466846.000000,-2.266832,-1.663392,1.355442,-1.479030,1.680748,1.405079,-0.588587,0.200864,0.008071,1.114291,-0.112891,-0.118505,1.111114,-0.030099,0.375715,39.352764,-25.959976,-3.225832,0.374845,1.923629,-0.142960,0.000000,0.000000,0.000000,0.000000,0.000000,0.000000
10466847.000000,-2.266632,-1.663383,1.356553,-1.479129,1.680631,1.406186,-0.588611,0.203800,0.009144,1.114749,-0.108810,-0.115278,1.105252,-0.024514,0.228925,39.352764,-26.130569,-3.277406,0.320829,1.865035,-0.215287,0.000000,0.000000,0.000000,0.000000,0.000000,0.000000
10466848.000000,-2.266428,-1.663380,1.357658,-1.479232,1.680514,1.407252,-0.588640,0.203050,0.008861,1.105004,-0.105668,-0.114693,1.098088,-0.024330,0.054365,39.400372,-26.082962,-3.202028,0.315336,1.981307,-0.188737,0.000000,0.000000,0.000000,0.000000,0.000000,0.000000
10466849.000000,-2.266227,-1.663376,1.358763,-1.479341,1.680392,1.408332,-0.588671,0.203553,0.008197,1.118554,-0.108549,-0.120824,1.086994,-0.023898,-0.144000,39.475750,-25.884598,-3.027467,0.369352,2.118636,-0.163102,0.000000,0.000000,0.000000,0.000000,0.000000,0.000000
10466850.000000,-2.266022,-1.663383,1.359838,-1.479434,1.680267,1.409409,-0.588695,0.202362,0.001790,1.107921,-0.106292,-0.125876,1.092213,-0.020898,-0.290789,39.670147,-25.420425,-3.027467,0.428861,2.066451,-0.208878,0.000000,0.000000,0.000000,0.000000,0.000000,0.000000
10466851.000000,-2.265817,-1.663376,1.360943,-1.479529,1.680135,1.410505,-0.588723,0.201892,0.005004,1.101616,-0.102093,-0.129289,1.093192,-0.025972,-0.465350,39.670147,-25.174454,-3.003664,0.488370,1.949264,-0.188737,0.000000,0.000000,0.000000,0.000000,0.000000,0.000000
10466853.000000,-2.265432,-1.663358,1.363120,-1.479709,1.679899,1.412687,-0.588774,0.194086,0.007502,1.088575,-0.095619,-0.118792,1.089585,-0.024073,-0.588336,39.574932,-24.634903,-3.102846,0.386747,1.695663,-0.163102,0.000000,0.000000,0.000000,0.000000,0.000000,0.000000
10466854.000000,-2.265245,-1.663353,1.364211,-1.479799,1.679778,1.413786,-0.588793,0.197595,0.006271,1.085999,-0.093280,-0.118523,1.080619,-0.021027,-0.612139,39.547161,-24.289749,-3.126650,0.422452,1.656295,-0.208878,0.000000,0.000000,0.000000,0.000000,0.000000,0.000000
10466855.000000,-2.265065,-1.663348,1.365288,-1.479883,1.679665,1.414880,-0.588819,0.193721,0.005203,1.081643,-0.091387,-0.120298,1.100326,-0.020296,-0.588336,39.523357,-24.119156,-3.154421,0.398649,1.708480,-0.215287,0.000000,0.000000,0.000000,0.000000,0.000000,0.000000
10466856.000000,-2.264885,-1.663338,1.366387,-1.479962,1.679550,1.415965,-0.588848,0.188293,0.006045,1.079392,-0.089079,-0.118401,1.097685,-0.025944,-0.564532,39.428143,-24.071548,-3.225832,0.393156,1.741439,-0.182328,0.000000,0.000000,0.000000,0.000000,0.000000,0.000000
10466857.000000,-2.264717,-1.663324,1.367480,-1.480039,1.679447,1.417063,-0.588869,0.181475,0.007725,1.085506,-0.086629,-0.114169,1.091613,-0.023849,-0.413775,39.281353,-24.142960,-3.325014,0.315336,1.714889,-0.188737,0.000000,0.000000,0.000000,0.000000,0.000000,0.000000
10466858.000000,-2.264538,-1.663313,1.368572,-1.480107,1.679340,1.418164,-0.588895,0.181836,0.008223,1.083910,-0.081345,-0.112924,1.099802,-0.022804,-0.366168,39.158367,-24.119156,-3.448000,0.279630,1.532699,-0.182328,0.000000,0.000000,0.000000,0.000000,0.000000,0.000000
10466859.000000,-2.264362,-1.663304,1.369672,-1.480175,1.679231,1.419275,-0.588915,0.178437,0.006836,1.084161,-0.078152,-0.108201,1.102281,-0.021142,-0.266986,39.106792,-24.166763,-3.547182,0.273221,1.448470,-0.196061,0.000000,0.000000,0.000000,0.000000,0.000000,0.000000
10466860.000000,-2.264195,-1.663293,1.370741,-1.480245,1.679112,1.420369,-0.588939,0.174816,0.009609,1.084966,-0.077461,-0.112556,1.104219,-0.020612,-0.116229,39.035381,-23.948563,-3.570986,0.351041,1.611434,-0.196061,0.000000,0.000000,0.000000,0.000000,0.000000,0.000000
10466861.000000,-2.264013,-1.663288,1.371826,-1.480308,1.678999,1.421445,-0.588967,0.179734,0.006205,1.076180,-0.072601,-0.113551,1.094664,-0.021867,-0.167803,39.059185,-23.825577,-3.646364,0.374845,1.819259,-0.149369,0.000000,0.000000,0.000000,0.000000,0.000000,0.000000
10466862.000000,-2.263839,-1.663273,1.372882,-1.480378,1.678885,1.422542,-0.588986,0.177538,0.009861,1.088627,-0.073604,-0.113082,1.089022,-0.019297,-0.243182,38.960003,-23.504227,-3.646364,0.381254,1.916305,-0.196061,0.000000,0.000000,0.000000,0.000000,0.000000,0.000000
10466863.000000,-2.263674,-1.663255,1.373971,-1.480446,1.678774,1.423646,-0.589006,0.172418,0.013009,1.086408,-0.074384,-0.111553,1.089027,-0.018935,-0.167803,38.837017,-23.456619,-3.646364,0.344633,1.832076,-0.202470,0.000000,0.000000,0.000000,0.000000,0.000000,0.000000
10466864.000000,-2.263508,-1.663238,1.375063,-1.480511,1.678673,1.424774,-0.589033,0.170434,0.014112,1.082185,-0.068449,-0.103887,1.093897,-0.020501,-0.167803,38.765606,-23.409012,-3.646364,0.249418,1.637069,-0.163102,0.000000,0.000000,0.000000,0.000000,0.000000,0.000000
10466865.000000,-2.263344,-1.663214,1.376156,-1.480582,1.678570,1.425893,-0.589048,0.169112,0.017931,1.088254,-0.069975,-0.104823,1.097734,-0.018049,-0.167803,38.571209,-23.651016,-3.523378,0.207303,1.584884,-0.215287,0.000000,0.000000,0.000000,0.000000,0.000000,0.000000
10466866.000000,-2.263181,-1.663191,1.377261,-1.480654,1.678470,1.426973,-0.589075,0.164376,0.020567,1.090087,-0.071453,-0.101490,1.093490,-0.019515,-0.167803,38.372845,-23.801773,-3.376589,0.183500,1.682845,-0.182328,0.000000,0.000000,0.000000,0.000000,0.000000,0.000000
10466867.000000,-2.263028,-1.663168,1.378386,-1.480718,1.678360,1.428064,-0.589093,0.163083,0.021268,1.114508,-0.070645,-0.102559,1.083755,-0.018552,-0.116229,38.226055,-24.190567,-3.301210,0.255826,1.832076,-0.202470,0.000000,0.000000,0.000000,0.000000,0.000000,0.000000
10466868.000000,-2.262880,-1.663148,1.379493,-1.480784,1.678255,1.429137,-0.589114,0.155783,0.018536,1.113498,-0.068149,-0.106216,1.081485,-0.020361,0.078168,38.079266,-24.583328,-3.178224,0.297025,2.001449,-0.155778,0.000000,0.000000,0.000000,0.000000,0.000000,0.000000
10466869.000000,-2.262729,-1.663127,1.380617,-1.480842,1.678153,1.430225,-0.589127,0.155815,0.018977,1.116002,-0.065734,-0.103258,1.080041,-0.017941,0.177350,37.956280,-25.027664,-3.202028,0.303434,2.098495,-0.208878,0.000000,0.000000,0.000000,0.000000,0.000000,0.000000
10466870.000000,-2.262580,-1.663105,1.381725,-1.480902,1.678055,1.431335,-0.589145,0.155326,0.020437,1.115714,-0.065144,-0.104647,1.088333,-0.018087,0.228925,37.785686,-25.368851,-3.178224,0.279630,1.995040,-0.215287,0.000000,0.000000,0.000000,0.000000,0.000000,0.000000
10466871.000000,-2.262432,-1.663084,1.382833,-1.480969,1.677956,1.432410,-0.589171,0.152639,0.020507,1.109337,-0.067090,-0.106080,1.085741,-0.025426,0.304304,37.662701,-25.444229,-3.055238,0.267728,1.995040,-0.149369,0.000000,0.000000,0.000000,0.000000,0.000000,0.000000
10466872.000000,-2.262280,-1.663068,1.383945,-1.481047,1.677847,1.433495,-0.589186,0.148225,0.018839,1.109999,-0.069538,-0.104730,1.074604,-0.023635,0.228925,37.615093,-25.396622,-2.757692,0.315336,2.047225,-0.155778,0.000000,0.000000,0.000000,0.000000,0.000000,0.000000
10466873.000000,-2.262133,-1.663057,1.385021,-1.481118,1.677741,1.434555,-0.589200,0.148185,0.015419,1.094408,-0.072219,-0.106615,1.067418,-0.021878,0.252729,37.662701,-25.099075,-2.535524,0.327238,2.157089,-0.169511,0.000000,0.000000,0.000000,0.000000,0.000000,0.000000
10466874.000000,-2.261983,-1.663047,1.386116,-1.481193,1.677631,1.435645,-0.589216,0.145696,0.013837,1.087242,-0.074648,-0.109514,1.076980,-0.021672,0.252729,37.686504,-24.904678,-2.285585,0.362943,2.125045,-0.155778,0.000000,0.000000,0.000000,0.000000,0.000000,0.000000
10466875.000000,-2.261841,-1.663035,1.387198,-1.481264,1.677523,1.436753,-0.589224,0.143863,0.013450,1.088581,-0.071271,-0.105425,1.079076,-0.018675,0.252729,37.686504,-24.611099,-2.114992,0.362943,1.942855,-0.215287,0.000000,0.000000,0.000000,0.000000,0.000000,0.000000
10466876.000000,-2.261705,-1.663026,1.388281,-1.481324,1.677423,1.437841,-0.589244,0.140612,0.011930,1.079314,-0.067957,-0.101444,1.085419,-0.016089,0.328107,37.738079,-24.242142,-2.114992,0.332731,1.767074,-0.163102,0.000000,0.000000,0.000000,0.000000,0.000000,0.000000
10466877.000000,-2.261579,-1.663017,1.389377,-1.481392,1.677319,1.438939,-0.589252,0.135565,0.011571,1.078205,-0.068425,-0.104088,1.087012,-0.014422,0.526471,37.761883,-23.996170,-2.015810,0.327238,1.682845,-0.221696,0.000000,0.000000,0.000000,0.000000,0.000000,0.000000
10466878.000000,-2.261460,-1.663010,1.390449,-1.481445,1.677217,1.440040,-0.589266,0.132124,0.010774,1.080677,-0.060875,-0.105061,1.092444,-0.010957,0.724836,37.809490,-23.726395,-2.114992,0.291532,1.682845,-0.221696,0.000000,0.000000,0.000000,0.000000,0.000000,0.000000
10466879.000000,-2.261340,-1.663009,1.391541,-1.481509,1.677107,1.441108,-0.589291,0.129070,0.007823,1.079689,-0.063474,-0.104120,1.085987,-0.011702,0.947004,37.956280,-23.603409,-2.015810,0.332731,1.844894,-0.130143,0.000000,0.000000,0.000000,0.000000,0.000000,0.000000
10466880.000000,-2.261220,-1.663004,1.392618,-1.481564,1.677001,1.442194,-0.589296,0.125845,0.007497,1.075998,-0.059704,-0.101503,1.077831,-0.005640,1.093793,38.031658,-23.480423,-2.015810,0.339139,1.942855,-0.208878,0.000000,0.000000,0.000000,0.000000,0.000000,0.000000
10466881.000000,-2.261106,-1.662994,1.393725,-1.481616,1.676906,1.443290,-0.589314,0.122508,0.009004,1.088036,-0.056985,-0.102012,1.082200,-0.010249,1.268354,38.031658,-23.627213,-2.015810,0.279630,1.838485,-0.175919,0.000000,0.000000,0.000000,0.000000,0.000000,0.000000
10466882.000000,-2.260988,-1.662983,1.394823,-1.481671,1.676808,1.444404,-0.589334,0.122564,0.010728,1.081864,-0.053747,-0.098998,1.085652,-0.014073,1.343732,38.007854,-23.678787,-1.940431,0.249418,1.708480,-0.130143,0.000000,0.000000,0.000000,0.000000,0.000000,0.000000
10466883.000000,-2.260864,-1.662969,1.395901,-1.481727,1.676705,1.445521,-0.589341,0.124618,0.012416,1.083211,-0.054075,-0.097512,1.084949,-0.007947,1.315961,37.956280,-23.702591,-1.869020,0.237516,1.572067,-0.196061,0.000000,0.000000,0.000000,0.000000,0.000000,0.000000
10466884.000000,-2.260742,-1.662957,1.396984,-1.481786,1.676593,1.446614,-0.589357,0.123622,0.013467,1.080741,-0.053852,-0.105126,1.084730,-0.011594,1.244550,37.908672,-23.555801,-1.694460,0.332731,1.513473,-0.175919,0.000000,0.000000,0.000000,0.000000,0.000000,0.000000
10466885.000000,-2.260619,-1.662941,1.398063,-1.481836,1.676476,1.447699,-0.589365,0.123431,0.011112,1.073990,-0.054125,-0.111038,1.078427,-0.012155,1.145368,37.861065,-23.381241,-1.619081,0.446256,1.682845,-0.208878,0.000000,0.000000,0.000000,0.000000,0.000000,0.000000
10466886.000000,-2.260501,-1.662923,1.399121,-1.481888,1.676369,1.448778,-0.589375,0.123691,0.014214,1.070217,-0.055626,-0.109944,1.081069,-0.014080,1.145368,37.738079,-23.135269,-1.496095,0.428861,1.754256,-0.208878,0.000000,0.000000,0.000000,0.000000,0.000000,0.000000
10466887.000000,-2.260384,-1.662907,1.400198,-1.481931,1.676262,1.449881,-0.589392,0.122393,0.017732,1.071547,-0.051119,-0.109857,1.085256,-0.016542,1.093793,37.686504,-22.964676,-1.472292,0.410551,1.670028,-0.175919,0.000000,0.000000,0.000000,0.000000,0.000000,0.000000
10466888.000000,-2.260274,-1.662890,1.401271,-1.481973,1.676155,1.450995,-0.589399,0.119752,0.015751,1.071330,-0.047740,-0.110474,1.091689,-0.015815,1.093793,37.567486,-22.964676,-1.448488,0.410551,1.539108,-0.208878,0.000000,0.000000,0.000000,0.000000,0.000000,0.000000
10466889.000000,-2.260161,-1.662870,1.402363,-1.482011,1.676060,1.452088,-0.589416,0.118046,0.017405,1.073314,-0.045520,-0.102881,1.087248,-0.017793,1.069990,37.444500,-23.087662,-1.420717,0.315336,1.448470,-0.175919,0.000000,0.000000,0.000000,0.000000,0.000000,0.000000
10466890.000000,-2.260055,-1.662850,1.403480,-1.482050,1.675955,1.453171,-0.589426,0.112634,0.018558,1.083574,-0.041315,-0.100422,1.076180,-0.017831,1.121564,37.321514,-23.432816,-1.373109,0.303434,1.591293,-0.182328,0.000000,0.000000,0.000000,0.000000,0.000000,0.000000
10466891.000000,-2.259946,-1.662834,1.404568,-1.482089,1.675847,1.454262,-0.589433,0.109196,0.017474,1.084724,-0.041914,-0.101167,1.069642,-0.012607,1.121564,37.273907,-23.651016,-1.297731,0.362943,1.714889,-0.202470,0.000000,0.000000,0.000000,0.000000,0.000000,0.000000
10466892.000000,-2.259844,-1.662823,1.405681,-1.482117,1.675747,1.455350,-0.589448,0.105208,0.015662,1.088977,-0.036115,-0.099956,1.077151,-0.011234,1.192975,37.273907,-24.019974,-1.349306,0.374845,1.708480,-0.155778,0.000000,0.000000,0.000000,0.000000,0.000000,0.000000
10466893.000000,-2.259738,-1.662806,1.406785,-1.482144,1.675645,1.456440,-0.589453,0.107486,0.016751,1.098493,-0.035977,-0.099062,1.074009,-0.006585,1.192975,37.174725,-24.388931,-1.373109,0.393156,1.747848,-0.202470,0.000000,0.000000,0.000000,0.000000,0.000000,0.000000
10466894.000000,-2.259637,-1.662793,1.407898,-1.482165,1.675551,1.457522,-0.589466,0.105219,0.015802,1.099760,-0.031394,-0.101445,1.082196,-0.009944,1.216779,37.150921,-24.682510,-1.448488,0.362943,1.702071,-0.196061,0.000000,0.000000,0.000000,0.000000,0.000000,0.000000
10466895.000000,-2.259532,-1.662782,1.408995,-1.482188,1.675455,1.458612,-0.589481,0.101626,0.014255,1.093141,-0.030133,-0.098327,1.090087,-0.013610,1.192975,37.174725,-24.682510,-1.448488,0.332731,1.714889,-0.155778,0.000000,0.000000,0.000000,0.000000,0.000000,0.000000
10466896.000000,-2.259429,-1.662780,1.410071,-1.482209,1.675349,1.459700,-0.589485,0.103068,0.010806,1.086711,-0.028996,-0.100573,1.093542,-0.012873,1.121564,37.297710,-24.583328,-1.448488,0.416959,1.812850,-0.208878,0.000000,0.000000,0.000000,0.000000,0.000000,0.000000
10466897.000000,-2.259326,-1.662775,1.411148,-1.482230,1.675250,1.460765,-0.589496,0.102560,0.009726,1.074240,-0.026615,-0.102242,1.084776,-0.010969,1.093793,37.369122,-24.242142,-1.373109,0.381254,1.962081,-0.175919,0.000000,0.000000,0.000000,0.000000,0.000000,0.000000
10466898.000000,-2.259220,-1.662767,1.412219,-1.482246,1.675150,1.461847,-0.589506,0.101730,0.006312,1.093422,-0.024770,-0.099534,1.073086,-0.008933,0.970807,37.420696,-24.019974,-1.297731,0.369352,2.033492,-0.155778,0.000000,0.000000,0.000000,0.000000,0.000000,0.000000
10466899.000000,-2.259117,-1.662754,1.413304,-1.482257,1.675055,1.462926,-0.589508,0.103487,0.008725,1.090851,-0.018357,-0.098301,1.092119,-0.004169,0.871625,37.392925,-23.750198,-1.297731,0.374845,2.001449,-0.221696,0.000000,0.000000,0.000000,0.000000,0.000000,0.000000
10466900.000000,-2.259026,-1.662752,1.414390,-1.482263,1.674963,1.464036,-0.589519,0.101184,0.007495,1.079541,-0.015470,-0.099767,1.097025,-0.003509,0.923200,37.492107,-23.480423,-1.349306,0.315336,1.793624,-0.215287,0.000000,0.000000,0.000000,0.000000,0.000000,0.000000
